;START_OF_HEADER
;HEADER_VERSION:0.1
;FLAVOR:Griffin
;GENERATOR.NAME:Cura_SteamEngine
;GENERATOR.VERSION:4.2.1
;GENERATOR.BUILD_DATE:2019-08-01
;TARGET_MACHINE.NAME:Ultimaker 3
;EXTRUDER_TRAIN.0.INITIAL_TEMPERATURE:210
;EXTRUDER_TRAIN.0.MATERIAL.VOLUME_USED:7815
;EXTRUDER_TRAIN.0.MATERIAL.GUID:506c9f0d-e3aa-4bd4-b2d2-23e2425b1aa9
;EXTRUDER_TRAIN.0.NOZZLE.DIAMETER:0.4
;EXTRUDER_TRAIN.0.NOZZLE.NAME:AA 0.4
;BUILD_PLATE.TYPE:glass
;BUILD_PLATE.INITIAL_TEMPERATURE:60
;BUILD_VOLUME.TEMPERATURE:28
;PRINT.TIME:3797
;PRINT.GROUPS:1
;PRINT.SIZE.MIN.X:9
;PRINT.SIZE.MIN.Y:6
;PRINT.SIZE.MIN.Z:0.27
;PRINT.SIZE.MAX.X:139.43
;PRINT.SIZE.MAX.Y:147.43
;PRINT.SIZE.MAX.Z:5.87
;END_OF_HEADER
;Generated with Cura_SteamEngine 4.2.1
T0
M82 ;absolute extrusion mode

G92 E0
M109 S210
G0 F15000 X9 Y6 Z2
G280
G1 F1500 E-6.5
;LAYER_COUNT:29
;LAYER:0
M107
M204 S625
M205 X6 Y6
G0 F4285.7 X94.961 Y70.335 Z0.27
M204 S500
M205 X5 Y5
;TYPE:SKIRT
G1 F1500 E0
G1 F1200 X95.44 Y69.765 E0.01323
G1 X95.977 Y69.25 E0.02646
G1 X96.566 Y68.795 E0.03969
G1 X97.2 Y68.406 E0.05291
G1 X97.873 Y68.087 E0.06615
G1 X98.576 Y67.842 E0.07939
G1 X99.301 Y67.674 E0.09262
G1 X100.04 Y67.585 E0.10585
G1 X100.5 Y67.57 E0.11403
G1 X132.5 Y67.57 E0.68286
G1 X133.243 Y67.61 E0.69609
G1 X133.978 Y67.729 E0.70932
G1 X134.696 Y67.927 E0.72256
G1 X135.388 Y68.2 E0.73578
G1 X136.047 Y68.546 E0.74902
G1 X136.665 Y68.961 E0.76225
G1 X137.235 Y69.44 E0.77548
G1 X137.75 Y69.977 E0.78871
G1 X138.205 Y70.566 E0.80194
G1 X138.594 Y71.2 E0.81516
G1 X138.913 Y71.873 E0.8284
G1 X139.158 Y72.576 E0.84163
G1 X139.326 Y73.301 E0.85486
G1 X139.415 Y74.04 E0.86809
G1 X139.43 Y74.5 E0.87628
G1 X139.43 Y140.5 E2.04949
G1 X139.39 Y141.243 E2.06272
G1 X139.271 Y141.978 E2.07595
G1 X139.073 Y142.696 E2.08919
G1 X138.8 Y143.388 E2.10242
G1 X138.454 Y144.047 E2.11565
G1 X138.039 Y144.665 E2.12888
G1 X137.56 Y145.235 E2.14211
G1 X137.023 Y145.75 E2.15534
G1 X136.434 Y146.205 E2.16857
G1 X135.8 Y146.594 E2.18179
G1 X135.127 Y146.913 E2.19503
G1 X134.424 Y147.158 E2.20827
G1 X133.699 Y147.326 E2.22149
G1 X132.96 Y147.415 E2.23473
G1 X132.5 Y147.43 E2.24291
G1 X100.5 Y147.43 E2.81174
G1 X99.757 Y147.39 E2.82496
G1 X99.022 Y147.271 E2.8382
G1 X98.304 Y147.073 E2.85144
G1 X97.612 Y146.8 E2.86466
G1 X96.953 Y146.454 E2.87789
G1 X96.335 Y146.039 E2.89113
G1 X95.765 Y145.56 E2.90436
G1 X95.25 Y145.023 E2.91759
G1 X94.795 Y144.434 E2.93082
G1 X94.406 Y143.8 E2.94404
G1 X94.087 Y143.127 E2.95728
G1 X93.842 Y142.424 E2.97051
G1 X93.674 Y141.699 E2.98374
G1 X93.585 Y140.96 E2.99697
G1 X93.57 Y140.5 E3.00515
G1 X93.57 Y74.5 E4.17837
G1 X93.61 Y73.757 E4.1916
G1 X93.729 Y73.022 E4.20483
G1 X93.927 Y72.304 E4.21807
G1 X94.2 Y71.612 E4.23129
G1 X94.546 Y70.953 E4.24453
G1 X94.961 Y70.335 E4.25776
M204 S625
M205 X6 Y6
G0 F4285.7 X95.378 Y70.482
M204 S500
M205 X5 Y5
G1 F1200 X95.854 Y69.94 E4.27058
G1 X96.387 Y69.454 E4.2834
G1 X96.971 Y69.03 E4.29623
G1 X97.598 Y68.673 E4.30906
G1 X98.26 Y68.387 E4.32188
G1 X98.95 Y68.177 E4.3347
G1 X99.659 Y68.045 E4.34752
G1 X100.5 Y67.99 E4.3625
G1 X132.5 Y67.99 E4.93133
G1 X133.22 Y68.03 E4.94415
G1 X133.932 Y68.149 E4.95698
G1 X134.626 Y68.347 E4.96981
G1 X135.293 Y68.62 E4.98262
G1 X135.927 Y68.965 E4.99545
G1 X136.518 Y69.378 E5.00827
G1 X137.06 Y69.854 E5.02109
G1 X137.546 Y70.387 E5.03391
G1 X137.97 Y70.971 E5.04674
G1 X138.327 Y71.598 E5.05957
G1 X138.613 Y72.26 E5.07238
G1 X138.823 Y72.95 E5.08521
G1 X138.955 Y73.659 E5.09803
G1 X139.01 Y74.5 E5.11301
G1 X139.01 Y140.5 E6.28622
G1 X138.97 Y141.22 E6.29904
G1 X138.851 Y141.932 E6.31187
G1 X138.653 Y142.626 E6.3247
G1 X138.38 Y143.293 E6.33751
G1 X138.035 Y143.927 E6.35034
G1 X137.622 Y144.518 E6.36316
G1 X137.146 Y145.06 E6.37598
G1 X136.613 Y145.546 E6.3888
G1 X136.029 Y145.97 E6.40163
G1 X135.402 Y146.327 E6.41446
G1 X134.74 Y146.613 E6.42728
G1 X134.05 Y146.823 E6.4401
G1 X133.341 Y146.955 E6.45292
G1 X132.5 Y147.01 E6.4679
G1 X100.5 Y147.01 E7.03673
G1 X99.78 Y146.97 E7.04955
G1 X99.068 Y146.851 E7.06238
G1 X98.374 Y146.653 E7.07521
G1 X97.707 Y146.38 E7.08802
G1 X97.073 Y146.035 E7.10085
G1 X96.482 Y145.622 E7.11367
G1 X95.94 Y145.146 E7.12649
G1 X95.454 Y144.613 E7.13931
G1 X95.03 Y144.029 E7.15214
G1 X94.673 Y143.402 E7.16497
G1 X94.387 Y142.74 E7.17779
G1 X94.177 Y142.05 E7.19061
G1 X94.045 Y141.341 E7.20343
G1 X93.99 Y140.5 E7.21841
G1 X93.99 Y74.5 E8.39162
G1 X94.03 Y73.78 E8.40444
G1 X94.149 Y73.068 E8.41727
G1 X94.347 Y72.374 E8.4301
G1 X94.62 Y71.707 E8.44291
G1 X94.965 Y71.073 E8.45574
G1 X95.378 Y70.482 E8.46856
M204 S625
M205 X6 Y6
G0 F4285.7 X95.795 Y70.634
M204 S500
M205 X5 Y5
G1 F1200 X96.268 Y70.121 E8.48096
G1 X96.796 Y69.666 E8.49335
G1 X97.373 Y69.274 E8.50575
G1 X97.992 Y68.951 E8.51816
G1 X98.643 Y68.7 E8.53057
G1 X99.319 Y68.526 E8.54298
G1 X100.01 Y68.43 E8.55538
G1 X100.5 Y68.41 E8.56409
G1 X132.5 Y68.41 E9.13293
G1 X133.197 Y68.45 E9.14534
G1 X133.884 Y68.569 E9.15773
G1 X134.553 Y68.767 E9.17013
G1 X135.196 Y69.039 E9.18254
G1 X135.802 Y69.383 E9.19493
G1 X136.366 Y69.795 E9.20734
G1 X136.879 Y70.268 E9.21975
G1 X137.334 Y70.796 E9.23214
G1 X137.726 Y71.373 E9.24454
G1 X138.049 Y71.992 E9.25695
G1 X138.3 Y72.643 E9.26935
G1 X138.474 Y73.319 E9.28176
G1 X138.57 Y74.01 E9.29416
G1 X138.59 Y74.5 E9.30288
G1 X138.59 Y140.5 E10.47609
G1 X138.55 Y141.197 E10.4885
G1 X138.431 Y141.884 E10.5009
G1 X138.233 Y142.553 E10.5133
G1 X137.961 Y143.196 E10.52571
G1 X137.617 Y143.802 E10.5381
G1 X137.205 Y144.366 E10.55051
G1 X136.732 Y144.879 E10.56292
G1 X136.204 Y145.334 E10.57531
G1 X135.627 Y145.726 E10.58771
G1 X135.008 Y146.049 E10.60012
G1 X134.357 Y146.3 E10.61252
G1 X133.681 Y146.474 E10.62493
G1 X132.99 Y146.57 E10.63733
G1 X132.5 Y146.59 E10.64605
G1 X100.5 Y146.59 E11.21488
G1 X99.803 Y146.55 E11.22729
G1 X99.116 Y146.431 E11.23968
G1 X98.447 Y146.233 E11.25208
G1 X97.804 Y145.961 E11.26449
G1 X97.198 Y145.617 E11.27688
G1 X96.634 Y145.205 E11.2893
G1 X96.121 Y144.732 E11.3017
G1 X95.666 Y144.204 E11.31409
G1 X95.274 Y143.627 E11.32649
G1 X94.951 Y143.008 E11.3389
G1 X94.7 Y142.357 E11.3513
G1 X94.526 Y141.681 E11.36371
G1 X94.43 Y140.99 E11.37611
G1 X94.41 Y140.5 E11.38483
G1 X94.41 Y74.5 E12.55805
G1 X94.45 Y73.803 E12.57046
G1 X94.569 Y73.116 E12.58285
G1 X94.767 Y72.447 E12.59525
G1 X95.039 Y71.804 E12.60766
G1 X95.383 Y71.198 E12.62005
G1 X95.795 Y70.634 E12.63246
M204 S625
M205 X6 Y6
G0 F4285.7 X95.801 Y71.327
M204 S500
M205 X5 Y5
G1 F1200 X96.21 Y70.792 E12.64444
G1 X96.68 Y70.31 E12.6564
G1 X97.204 Y69.887 E12.66837
G1 X97.774 Y69.528 E12.68035
G1 X98.382 Y69.24 E12.69231
G1 X99.02 Y69.026 E12.70427
G1 X99.68 Y68.89 E12.71625
G1 X100.5 Y68.83 E12.73086
G1 X132.5 Y68.83 E13.29969
G1 X133.172 Y68.87 E13.31166
G1 X133.835 Y68.989 E13.32363
G1 X134.478 Y69.186 E13.33559
G1 X135.094 Y69.458 E13.34756
G1 X135.673 Y69.801 E13.35952
G1 X136.208 Y70.21 E13.37149
G1 X136.69 Y70.68 E13.38346
G1 X137.113 Y71.204 E13.39543
G1 X137.472 Y71.774 E13.40741
G1 X137.76 Y72.382 E13.41936
G1 X137.974 Y73.02 E13.43133
G1 X138.11 Y73.68 E13.4433
G1 X138.17 Y74.5 E13.45792
G1 X138.17 Y140.5 E14.63113
G1 X138.13 Y141.172 E14.6431
G1 X138.011 Y141.835 E14.65507
G1 X137.814 Y142.478 E14.66703
G1 X137.542 Y143.094 E14.679
G1 X137.199 Y143.673 E14.69096
G1 X136.79 Y144.208 E14.70293
G1 X136.32 Y144.69 E14.7149
G1 X135.796 Y145.113 E14.72687
G1 X135.226 Y145.472 E14.73885
G1 X134.618 Y145.76 E14.7508
G1 X133.98 Y145.974 E14.76277
G1 X133.32 Y146.11 E14.77474
G1 X132.5 Y146.17 E14.78936
G1 X100.5 Y146.17 E15.35819
G1 X99.828 Y146.13 E15.37016
G1 X99.165 Y146.011 E15.38213
G1 X98.522 Y145.814 E15.39409
G1 X97.906 Y145.542 E15.40606
G1 X97.327 Y145.199 E15.41802
G1 X96.792 Y144.79 E15.42999
G1 X96.31 Y144.32 E15.44196
G1 X95.887 Y143.796 E15.45393
G1 X95.528 Y143.226 E15.4659
G1 X95.24 Y142.618 E15.47786
G1 X95.026 Y141.98 E15.48982
G1 X94.89 Y141.32 E15.5018
G1 X94.83 Y140.5 E15.51642
G1 X94.83 Y74.5 E16.68963
G1 X94.87 Y73.828 E16.7016
G1 X94.989 Y73.165 E16.71357
G1 X95.186 Y72.522 E16.72553
G1 X95.458 Y71.906 E16.7375
G1 X95.801 Y71.327 E16.74946
M204 S625
M205 X6 Y6
G0 F4285.7 X96.219 Y71.461
M204 S500
M205 X5 Y5
G1 F1200 X96.626 Y70.957 E16.76097
G1 X97.092 Y70.507 E16.77249
G1 X97.609 Y70.118 E16.78399
G1 X98.171 Y69.795 E16.79551
G1 X98.768 Y69.544 E16.80703
G1 X99.392 Y69.368 E16.81855
G1 X100.032 Y69.271 E16.83006
G1 X100.5 Y69.25 E16.83838
G1 X132.5 Y69.25 E17.40722
G1 X133.147 Y69.29 E17.41874
G1 X133.783 Y69.409 E17.43024
G1 X134.4 Y69.606 E17.44175
G1 X134.989 Y69.877 E17.45328
G1 X135.539 Y70.219 E17.46479
G1 X136.043 Y70.626 E17.47631
G1 X136.493 Y71.092 E17.48782
G1 X136.882 Y71.609 E17.49932
G1 X137.205 Y72.171 E17.51085
G1 X137.456 Y72.768 E17.52236
G1 X137.632 Y73.392 E17.53388
G1 X137.729 Y74.032 E17.54539
G1 X137.75 Y74.5 E17.55372
G1 X137.75 Y140.5 E18.72693
G1 X137.71 Y141.147 E18.73845
G1 X137.591 Y141.783 E18.74996
G1 X137.394 Y142.4 E18.76147
G1 X137.123 Y142.989 E18.77299
G1 X136.781 Y143.539 E18.78451
G1 X136.374 Y144.043 E18.79602
G1 X135.908 Y144.493 E18.80754
G1 X135.391 Y144.882 E18.81904
G1 X134.829 Y145.205 E18.83056
G1 X134.232 Y145.456 E18.84207
G1 X133.608 Y145.632 E18.8536
G1 X132.968 Y145.729 E18.86511
G1 X132.5 Y145.75 E18.87343
G1 X100.5 Y145.75 E19.44226
G1 X99.853 Y145.71 E19.45379
G1 X99.217 Y145.591 E19.46529
G1 X98.6 Y145.394 E19.4768
G1 X98.011 Y145.123 E19.48833
G1 X97.461 Y144.781 E19.49984
G1 X96.957 Y144.374 E19.51136
G1 X96.507 Y143.908 E19.52287
G1 X96.118 Y143.391 E19.53437
G1 X95.795 Y142.829 E19.5459
G1 X95.544 Y142.232 E19.55741
G1 X95.368 Y141.608 E19.56893
G1 X95.271 Y140.968 E19.58044
G1 X95.25 Y140.5 E19.58877
G1 X95.25 Y74.5 E20.76198
G1 X95.29 Y73.853 E20.7735
G1 X95.409 Y73.217 E20.78501
G1 X95.606 Y72.6 E20.79652
G1 X95.877 Y72.011 E20.80804
G1 X96.219 Y71.461 E20.81956
M204 S625
M205 X6 Y6
G0 F4285.7 X96.636 Y71.602
M204 S500
M205 X5 Y5
G1 F1200 X97.04 Y71.13 E20.8306
G1 X97.502 Y70.713 E20.84166
G1 X98.012 Y70.36 E20.85269
G1 X98.564 Y70.075 E20.86373
G1 X99.149 Y69.863 E20.87479
G1 X99.755 Y69.728 E20.88583
G1 X100.5 Y69.67 E20.89911
G1 X132.5 Y69.67 E21.46794
G1 X133.12 Y69.71 E21.47899
G1 X133.73 Y69.829 E21.49004
G1 X134.319 Y70.026 E21.50108
G1 X134.878 Y70.296 E21.51211
G1 X135.398 Y70.636 E21.52315
G1 X135.87 Y71.04 E21.5342
G1 X136.287 Y71.502 E21.54526
G1 X136.64 Y72.012 E21.55629
G1 X136.925 Y72.564 E21.56733
G1 X137.137 Y73.149 E21.57839
G1 X137.272 Y73.755 E21.58943
G1 X137.33 Y74.5 E21.60271
G1 X137.33 Y140.5 E22.77592
G1 X137.29 Y141.12 E22.78697
G1 X137.171 Y141.73 E22.79802
G1 X136.974 Y142.319 E22.80906
G1 X136.704 Y142.878 E22.82009
G1 X136.364 Y143.398 E22.83114
G1 X135.96 Y143.87 E22.84218
G1 X135.498 Y144.287 E22.85324
G1 X134.988 Y144.64 E22.86427
G1 X134.436 Y144.925 E22.87531
G1 X133.851 Y145.137 E22.88637
G1 X133.245 Y145.272 E22.89741
G1 X132.5 Y145.33 E22.91069
G1 X100.5 Y145.33 E23.47952
G1 X99.88 Y145.29 E23.49057
G1 X99.27 Y145.171 E23.50161
G1 X98.681 Y144.974 E23.51266
G1 X98.122 Y144.704 E23.52369
G1 X97.602 Y144.364 E23.53473
G1 X97.13 Y143.96 E23.54578
G1 X96.713 Y143.498 E23.55684
G1 X96.36 Y142.988 E23.56787
G1 X96.075 Y142.436 E23.57891
G1 X95.863 Y141.851 E23.58997
G1 X95.728 Y141.245 E23.60101
G1 X95.67 Y140.5 E23.61429
G1 X95.67 Y74.5 E24.7875
G1 X95.71 Y73.88 E24.79855
G1 X95.829 Y73.27 E24.8096
G1 X96.026 Y72.681 E24.82064
G1 X96.296 Y72.122 E24.83167
G1 X96.636 Y71.602 E24.84272
M204 S625
M205 X6 Y6
G0 F4285.7 X97.053 Y71.749
M204 S500
M205 X5 Y5
G1 F1200 X97.454 Y71.311 E24.85327
G1 X97.91 Y70.931 E24.86382
G1 X98.413 Y70.615 E24.87438
G1 X98.953 Y70.37 E24.88492
G1 X99.522 Y70.2 E24.89548
G1 X100.108 Y70.107 E24.90603
G1 X100.5 Y70.09 E24.913
G1 X132.5 Y70.09 E25.48183
G1 X133.092 Y70.13 E25.49238
G1 X133.674 Y70.249 E25.50294
G1 X134.234 Y70.445 E25.51349
G1 X134.763 Y70.715 E25.52404
G1 X135.251 Y71.053 E25.5346
G1 X135.689 Y71.454 E25.54515
G1 X136.069 Y71.91 E25.5557
G1 X136.385 Y72.413 E25.56626
G1 X136.63 Y72.953 E25.5768
G1 X136.8 Y73.522 E25.58736
G1 X136.893 Y74.108 E25.59791
G1 X136.91 Y74.5 E25.60488
G1 X136.91 Y140.5 E26.7781
G1 X136.87 Y141.092 E26.78864
G1 X136.751 Y141.674 E26.7992
G1 X136.555 Y142.234 E26.80975
G1 X136.285 Y142.763 E26.82031
G1 X135.947 Y143.251 E26.83086
G1 X135.546 Y143.689 E26.84142
G1 X135.09 Y144.069 E26.85197
G1 X134.587 Y144.385 E26.86253
G1 X134.047 Y144.63 E26.87307
G1 X133.478 Y144.8 E26.88362
G1 X132.892 Y144.893 E26.89417
G1 X132.5 Y144.91 E26.90115
G1 X100.5 Y144.91 E27.46998
G1 X99.908 Y144.87 E27.48052
G1 X99.326 Y144.751 E27.49108
G1 X98.766 Y144.555 E27.50163
G1 X98.237 Y144.285 E27.51219
G1 X97.749 Y143.947 E27.52274
G1 X97.311 Y143.546 E27.5333
G1 X96.931 Y143.09 E27.54385
G1 X96.615 Y142.587 E27.55441
G1 X96.37 Y142.047 E27.56495
G1 X96.2 Y141.478 E27.5755
G1 X96.107 Y140.892 E27.58605
G1 X96.09 Y140.5 E27.59303
G1 X96.09 Y74.5 E28.76624
G1 X96.13 Y73.908 E28.77679
G1 X96.249 Y73.326 E28.78735
G1 X96.445 Y72.766 E28.79789
G1 X96.715 Y72.237 E28.80845
G1 X97.053 Y71.749 E28.819
M204 S625
M205 X6 Y6
G0 F4285.7 X97.469 Y71.905
M204 S500
M205 X5 Y5
G1 F1200 X97.866 Y71.503 E28.82905
G1 X98.315 Y71.161 E28.83908
G1 X98.809 Y70.886 E28.84913
G1 X99.336 Y70.684 E28.85916
G1 X99.886 Y70.558 E28.86919
G1 X100.5 Y70.51 E28.88014
G1 X132.5 Y70.51 E29.44897
G1 X133.063 Y70.55 E29.45901
G1 X133.615 Y70.669 E29.46904
G1 X134.145 Y70.865 E29.47909
G1 X134.641 Y71.133 E29.48911
G1 X135.095 Y71.469 E29.49915
G1 X135.497 Y71.866 E29.50919
G1 X135.839 Y72.315 E29.51923
G1 X136.114 Y72.809 E29.52928
G1 X136.316 Y73.336 E29.53931
G1 X136.442 Y73.886 E29.54934
G1 X136.49 Y74.5 E29.56029
G1 X136.49 Y140.5 E30.7335
G1 X136.45 Y141.063 E30.74353
G1 X136.331 Y141.615 E30.75357
G1 X136.135 Y142.145 E30.76362
G1 X135.867 Y142.641 E30.77364
G1 X135.531 Y143.095 E30.78368
G1 X135.134 Y143.497 E30.79372
G1 X134.685 Y143.839 E30.80375
G1 X134.191 Y144.114 E30.8138
G1 X133.664 Y144.316 E30.82384
G1 X133.114 Y144.442 E30.83387
G1 X132.5 Y144.49 E30.84481
G1 X100.5 Y144.49 E31.41365
G1 X99.937 Y144.45 E31.42368
G1 X99.385 Y144.331 E31.43372
G1 X98.855 Y144.135 E31.44376
G1 X98.359 Y143.867 E31.45378
G1 X97.905 Y143.531 E31.46382
G1 X97.503 Y143.134 E31.47387
G1 X97.161 Y142.685 E31.4839
G1 X96.886 Y142.191 E31.49395
G1 X96.684 Y141.664 E31.50398
G1 X96.558 Y141.114 E31.51401
G1 X96.51 Y140.5 E31.52496
G1 X96.51 Y74.5 E32.69817
G1 X96.55 Y73.937 E32.70821
G1 X96.669 Y73.385 E32.71825
G1 X96.865 Y72.855 E32.72829
G1 X97.133 Y72.359 E32.73831
G1 X97.469 Y71.905 E32.74835
M204 S625
M205 X6 Y6
G0 F4285.7 X97.551 Y72.487
M204 S500
M205 X5 Y5
G1 F1200 X97.885 Y72.07 E32.75785
G1 X98.276 Y71.707 E32.76733
G1 X98.718 Y71.407 E32.77683
G1 X99.199 Y71.175 E32.78632
G1 X99.71 Y71.019 E32.79582
G1 X100.5 Y70.93 E32.80995
G1 X132.5 Y70.93 E33.37878
G1 X133.033 Y70.97 E33.38828
G1 X133.553 Y71.089 E33.39777
G1 X134.05 Y71.284 E33.40726
G1 X134.513 Y71.551 E33.41676
G1 X134.93 Y71.885 E33.42625
G1 X135.293 Y72.276 E33.43574
G1 X135.593 Y72.718 E33.44523
G1 X135.825 Y73.199 E33.45473
G1 X135.981 Y73.71 E33.46422
G1 X136.07 Y74.5 E33.47836
G1 X136.07 Y140.5 E34.65157
G1 X136.03 Y141.033 E34.66107
G1 X135.911 Y141.553 E34.67055
G1 X135.716 Y142.05 E34.68004
G1 X135.449 Y142.513 E34.68955
G1 X135.115 Y142.93 E34.69904
G1 X134.724 Y143.293 E34.70853
G1 X134.282 Y143.593 E34.71802
G1 X133.801 Y143.825 E34.72752
G1 X133.29 Y143.981 E34.73701
G1 X132.5 Y144.07 E34.75114
G1 X100.5 Y144.07 E35.31998
G1 X99.967 Y144.03 E35.32948
G1 X99.447 Y143.911 E35.33896
G1 X98.95 Y143.716 E35.34845
G1 X98.487 Y143.449 E35.35795
G1 X98.07 Y143.115 E35.36745
G1 X97.707 Y142.724 E35.37693
G1 X97.407 Y142.282 E35.38643
G1 X97.175 Y141.801 E35.39592
G1 X97.019 Y141.29 E35.40542
G1 X96.93 Y140.5 E35.41955
G1 X96.93 Y74.5 E36.59276
G1 X96.97 Y73.967 E36.60227
G1 X97.089 Y73.447 E36.61175
G1 X97.284 Y72.95 E36.62124
G1 X97.551 Y72.487 E36.63074
M204 S625
M205 X6 Y6
G0 F4285.7 X97.969 Y72.625
M204 S500
M205 X5 Y5
G1 F1200 X98.299 Y72.247 E36.63966
G1 X98.684 Y71.926 E36.64857
G1 X99.116 Y71.67 E36.6575
G1 X99.583 Y71.487 E36.66641
G1 X100.072 Y71.379 E36.67531
G1 X100.5 Y71.35 E36.68294
G1 X132.5 Y71.35 E37.25177
