;START_OF_HEADER
;HEADER_VERSION:0.1
;FLAVOR:GRIFFIN:
;GENERATOR.NAME:Cura_SteamEngine
;GENERATOR.VERSION: 2.01 
;GENERATOR.BUILD_DATE:2019-10-25
;;TARGET_MACHINE.NAME:Ultimaker 3
;EXTRUDER_TRAIN.0.INITIAL_TEMPERATURE:205
;EXTRUDER_TRAIN.0.NOZZLE.DIAMETER:0.4
;EXTRUDER_TRAIN.0.NOZZLE.NAME:AA 0.4
;BUILD_PLATE.TYPE:glass
;BUILD_PLATE.INITIAL_TEMPERATURE:60
;BUILD_VOLUME.TEMPERATURE:28
;PRINT.GROUPS:1
;PRINT.SIZE.MIN.X:0
;PRINT.SIZE.MIN.Y:0
;PRINT.SIZE.MIN.Z:0
;PRINT.SIZE.MAX.X:0.01
;PRINT.SIZE.MAX.Y:0.01
;PRINT.SIZE.MAX.Z:0.01
;END_OF_HEADER
;Generated with Cura_SteamEngine 4.2.1
T0
M82 ;absolute extrusion mode
G92 E0
 
G92 E0
M109 S200
G0 F15000 X9 Y6 Z2
G280
G1 F1500.000000 E-6.500000
;LAYER_COUNT:141
;LAYER_COUNT:141
;LAYER:0
M140 S60.000000
M106 S255 P1
M204 S625.000000
M205 X6.000000 Y6.000000
G0 F8571.4 X70.634 Y21.505 Z0.605
M204 S500.000000
M205 X5.000000 Y5.000000
;TYPE:SKIRT
G1 F900 E0
G1 F1200 X70.822 Y20.928 E0.020143
G1 X70.825 Y20.918 E0.020490
G1 X71.021 Y20.32 E0.041378
G1 X71.033 Y20.285 E0.042606
G1 X71.233 Y19.688 E0.063505
G1 X71.49 Y19.05 E0.086335
G1 X71.499 Y19.031 E0.087033
G1 X71.782 Y18.506 E0.106830
G1 X72.136 Y17.923 E0.129469
G1 X72.137 Y17.923 E0.129503
G1 X72.173 Y17.859 E0.131940
G1 X72.419 Y17.465 E0.147358
G1 X72.47 Y17.394 E0.150259
G1 X72.467 Y17.392 E0.150379
G1 X72.598 Y17.189 E0.158398
G1 X72.677 Y17.069 E0.163167
G1 X73.089 Y16.464 E0.187463
G1 X73.091 Y16.465 E0.187537
G1 X73.268 Y16.215 E0.197705
G1 X73.319 Y16.148 E0.200500
G1 X73.484 Y15.959 E0.208827
G1 X73.475 Y15.952 E0.209206
G1 X73.911 Y15.427 E0.231858
G1 X74.025 Y15.305 E0.237400
G1 X74.021 Y15.301 E0.237588
G1 X74.181 Y15.119 E0.245631
G1 X74.186 Y15.124 E0.245866
G1 X74.361 Y14.921 E0.254762
G1 X74.752 Y14.515 E0.273472
G1 X74.828 Y14.437 E0.277087
G1 X74.83 Y14.435 E0.277181
G1 X74.881 Y14.385 E0.279551
G1 X75.086 Y14.185 E0.289058
G1 X75.087 Y14.186 E0.289105
G1 X75.249 Y14.033 E0.296501
G1 X75.694 Y13.631 E0.316407
G1 X75.885 Y13.474 E0.324613
G1 X75.881 Y13.469 E0.324826
G1 X76.028 Y13.347 E0.331167
G1 X76.03 Y13.35 E0.331286
G1 X76.146 Y13.25 E0.336370
G1 X76.723 Y12.796 E0.360740
G1 X77.281 Y12.408 E0.383299
G1 X77.88 Y12.089 E0.405825
G1 X78.345 Y11.899 E0.422499
G1 X78.398 Y11.88 E0.424368
G1 X79.05 Y11.689 E0.446919
G1 X80.045 Y11.549 E0.480271
G1 X80.617 Y11.519 E0.499283
G1 X80.728 Y11.516 E0.502969
G1 X80.728 Y11.514 E0.503035
G1 X81.328 Y11.494 E0.522962
G1 X81.512 Y11.491 E0.529070
G1 X82.104 Y11.49 E0.548721
G1 X82.117 Y11.49 E0.549152
G1 X82.291 Y11.493 E0.554928
G1 X82.889 Y11.511 E0.574787
G1 X82.889 Y11.512 E0.574820
G1 X83.028 Y11.516 E0.579436
G1 X83.622 Y11.548 E0.599181
G1 X84.444 Y11.652 E0.626683
G1 X84.469 Y11.657 E0.627529
G1 X85.068 Y11.811 E0.648058
G1 X85.647 Y11.993 E0.668204
G1 X85.719 Y12.02 E0.670756
G1 X85.72 Y12.017 E0.670861
G1 X86.322 Y12.215 E0.691896
G1 X86.321 Y12.218 E0.692001
G1 X86.395 Y12.239 E0.694555
G1 X86.986 Y12.442 E0.715296
G1 X86.985 Y12.445 E0.715401
G1 X87.274 Y12.561 E0.725738
G1 X87.277 Y12.552 E0.726053
G1 X87.287 Y12.556 E0.726410
G1 X87.409 Y12.615 E0.730909
G1 X87.585 Y12.686 E0.737208
G1 X87.604 Y12.695 E0.737906
G1 X87.598 Y12.707 E0.738351
G1 X88.019 Y12.911 E0.753879
G1 X88.595 Y13.242 E0.775930
G1 X88.603 Y13.246 E0.776227
G1 X89.045 Y13.501 E0.793165
G1 X89.148 Y13.559 E0.797089
G1 X89.686 Y13.857 E0.817503
G1 X90.008 Y14.033 E0.829683
G1 X90.187 Y14.128 E0.836410
G1 X90.786 Y14.44 E0.858828
G1 X91.081 Y14.594 E0.869874
G1 X91.094 Y14.6 E0.870349
G1 X91.394 Y14.757 E0.881588
G1 X91.393 Y14.758 E0.881635
G1 X91.424 Y14.772 E0.882764
G1 X92.018 Y15.087 E0.905081
G1 X92.064 Y15.112 E0.906819
G1 X92.302 Y15.241 E0.915805
G1 X92.301 Y15.243 E0.915879
G1 X92.416 Y15.304 E0.920200
G1 X92.782 Y15.513 E0.934190
G1 X92.845 Y15.55 E0.936615
G1 X93.442 Y15.901 E0.959602
G1 X93.718 Y16.074 E0.970414
G1 X93.724 Y16.078 E0.970653
G1 X93.808 Y16.135 E0.974023
G1 X93.86 Y16.171 E0.976122
G1 X94.038 Y16.299 E0.983400
G1 X94.042 Y16.302 E0.983566
G1 X94.175 Y16.405 E0.989149
G1 X94.716 Y16.836 E1.012109
G1 X94.823 Y16.932 E1.016880
G1 X94.827 Y16.927 E1.017093
G1 X95.018 Y17.087 E1.025363
G1 X95.015 Y17.09 E1.025504
G1 X95.136 Y17.186 E1.030631
G1 X95.536 Y17.539 E1.048339
G1 X95.633 Y17.635 E1.052869
G1 X95.637 Y17.631 E1.053056
G1 X95.903 Y17.877 E1.065083
G1 X95.958 Y17.93 E1.067618
G1 X95.959 Y17.929 E1.067665
G1 X96.251 Y18.206 E1.081024
G1 X96.361 Y17.986 E1.089189
G1 X96.734 Y17.418 E1.111744
G1 X97.281 Y16.785 E1.139513
G1 X97.766 Y16.3 E1.162280
G1 X98.274 Y15.849 E1.184828
G1 X98.832 Y15.461 E1.207387
G1 X99.431 Y15.14 E1.229945
G1 X100.063 Y14.892 E1.252480
G1 X100.721 Y14.72 E1.275054
G1 X101.684 Y14.611 E1.307223
G1 X101.823 Y14.607 E1.311839
G1 X102.502 Y14.628 E1.334388
G1 X103.174 Y14.728 E1.356939
G1 X103.83 Y14.906 E1.379501
G1 X104.46 Y15.16 E1.402048
G1 X105.056 Y15.487 E1.424613
G1 X105.792 Y16.034 E1.455051
G1 X106.321 Y16.497 E1.478385
G1 X106.509 Y16.673 E1.486933
G1 X106.511 Y16.671 E1.487027
G1 X106.579 Y16.736 E1.490150
G1 X106.673 Y16.827 E1.494492
G1 X106.676 Y16.83 E1.494633
G1 X106.785 Y16.943 E1.499844
G1 X107.304 Y17.491 E1.524897
G1 X107.3 Y17.495 E1.525085
G1 X107.634 Y17.87 E1.541753
G1 X107.669 Y17.913 E1.543594
G1 X107.673 Y17.918 E1.543806
G1 X107.917 Y18.247 E1.557402
G1 X108.324 Y18.837 E1.581194
G1 X108.405 Y18.957 E1.585999
G1 X108.552 Y19.182 E1.594920
G1 X108.547 Y19.185 E1.595114
G1 X108.617 Y19.285 E1.599166
G1 X108.851 Y19.66 E1.613837
G1 X108.882 Y19.71 E1.615790
G1 X109.237 Y20.292 E1.638419
G1 X109.556 Y20.892 E1.660974
G1 X109.786 Y21.473 E1.681715
G1 X109.798 Y21.509 E1.682975
G1 X109.974 Y22.165 E1.705519
G1 X110.079 Y22.916 E1.730690
G1 X110.121 Y23.494 E1.749926
G1 X110.125 Y23.606 E1.753646
G1 X110.128 Y23.606 E1.753745
G1 X110.16 Y24.2 E1.773490
G1 X110.165 Y24.409 E1.780429
G1 X110.167 Y24.409 E1.780496
G1 X110.178 Y25.006 E1.800315
G1 X110.179 Y25.112 E1.803834
G1 X110.179 Y25.116 E1.803967
G1 X110.178 Y25.232 E1.807817
G1 X110.166 Y25.829 E1.827637
G1 X110.164 Y25.829 E1.827704
G1 X110.159 Y26.015 E1.833880
G1 X110.128 Y26.613 E1.853756
G1 X110.125 Y26.613 E1.853855
G1 X110.121 Y26.736 E1.857940
G1 X110.081 Y27.284 E1.876178
G1 X109.991 Y27.958 E1.898749
G1 X109.824 Y28.616 E1.921282
G1 X109.58 Y29.25 E1.943831
G1 X109.116 Y30.082 E1.975452
G1 X109.065 Y30.158 E1.978490
G1 X108.654 Y30.699 E2.001041
G1 X108.182 Y31.188 E2.023600
G1 X107.657 Y31.618 E2.046126
G1 X107.009 Y32.01 E2.071264
G1 X107.065 Y32.352 E2.082767
G1 X107.092 Y32.795 E2.097499
G1 X107.106 Y33.376 E2.116789
G1 X107.107 Y33.448 E2.119179
G1 X107.108 Y33.448 E2.119213
G1 X107.115 Y34.046 E2.139063
G1 X107.115 Y34.174 E2.143312
G1 X107.109 Y34.772 E2.163162
G1 X107.108 Y34.772 E2.163195
G1 X107.107 Y34.863 E2.166216
G1 X107.092 Y35.454 E2.185839
G1 X107.035 Y36.131 E2.208390
G1 X106.956 Y36.56 E2.222870
G1 X106.95 Y36.587 E2.223788
G1 X106.82 Y37.074 E2.240519
G1 X106.637 Y37.653 E2.260674
G1 X106.609 Y37.726 E2.263270
G1 X106.612 Y37.727 E2.263374
G1 X106.413 Y38.329 E2.284420
G1 X106.387 Y38.406 E2.287118
G1 X106.182 Y38.998 E2.307913
G1 X105.781 Y39.898 E2.340617
G1 X105.765 Y39.927 E2.341717
G1 X105.245 Y40.711 E2.372943
G1 X104.766 Y41.319 E2.398635
G1 X104.635 Y41.467 E2.405196
G1 X104.64 Y41.471 E2.405408
G1 X104.532 Y41.599 E2.410967
G1 X104.345 Y41.796 E2.419983
G1 X104.351 Y41.802 E2.420265
G1 X103.948 Y42.237 E2.439948
G1 X103.941 Y42.23 E2.440276
G1 X103.771 Y42.422 E2.448788
G1 X103.602 Y42.59 E2.456698
G1 X103.599 Y42.593 E2.456839
G1 X103.419 Y42.765 E2.465103
G1 X102.972 Y43.175 E2.485236
G1 X102.824 Y43.291 E2.491478
G1 X102.831 Y43.299 E2.491831
G1 X102.688 Y43.422 E2.498092
G1 X102.485 Y43.585 E2.506733
G1 X102.487 Y43.587 E2.506827
G1 X101.903 Y44.046 E2.531482
G1 X101.345 Y44.434 E2.554041
G1 X100.975 Y44.642 E2.568130
G1 X100.94 Y44.66 E2.569437
G1 X100.319 Y44.934 E2.591967
G1 X99.803 Y45.1 E2.609958
G1 X99.221 Y45.257 E2.629967
G1 X99.175 Y45.269 E2.631545
G1 X98.581 Y45.424 E2.651922
G1 X98.58 Y45.42 E2.652059
G1 X98.473 Y45.452 E2.655766
G1 X97.877 Y45.596 E2.676118
G1 X97.82 Y45.606 E2.678039
G1 X97.821 Y45.609 E2.678144
G1 X97.239 Y45.744 E2.697975
G1 X96.569 Y45.858 E2.720534
G1 X96.482 Y45.863 E2.723426
G1 X96.482 Y45.866 E2.723526
G1 X96.461 Y45.868 E2.724226
G1 X96.083 Y45.886 E2.736787
G1 X96.083 Y45.891 E2.736953
G1 X95.495 Y45.909 E2.756480
G1 X95.384 Y45.911 E2.760165
G1 X95.384 Y45.912 E2.760198
G1 X94.787 Y45.919 E2.780015
G1 X94.649 Y45.919 E2.784596
G1 X94.052 Y45.912 E2.804413
G1 X94.052 Y45.911 E2.804447
G1 X93.946 Y45.909 E2.807966
G1 X93.345 Y45.891 E2.827923
G1 X92.843 Y45.854 E2.844631
G1 X92.826 Y45.852 E2.845200
G1 X92.263 Y45.758 E2.864146
G1 X91.762 Y45.648 E2.881171
G1 X91.762 Y45.647 E2.881205
G1 X91.669 Y45.629 E2.884349
G1 X90.933 Y45.455 E2.909452
G1 X90.827 Y45.423 E2.913127
G1 X90.826 Y45.427 E2.913264
G1 X90.284 Y45.288 E2.931837
G1 X90.285 Y45.284 E2.931974
G1 X90.206 Y45.269 E2.934643
G1 X89.607 Y45.107 E2.955240
G1 X89.494 Y45.073 E2.959157
G1 X89.487 Y45.071 E2.959398
G1 X89.483 Y45.07 E2.959535
G1 X89.289 Y45.011 E2.966266
G1 X89.283 Y45.009 E2.966476
G1 X89.167 Y44.969 E2.970549
G1 X89.139 Y44.959 E2.971535
G1 X89.143 Y44.949 E2.971893
G1 X88.801 Y44.827 E2.983946
G1 X88.245 Y44.589 E3.004020
G1 X88.164 Y44.548 E3.007034
G1 X88.163 Y44.551 E3.007139
G1 X87.569 Y44.286 E3.028728
G1 X87.572 Y44.278 E3.029012
G1 X87.398 Y44.208 E3.035237
G1 X87.202 Y44.113 E3.042467
G1 X87.136 Y44.08 E3.044916
G1 X87.04 Y44.031 E3.048494
G1 X86.639 Y43.821 E3.063519
G1 X86.56 Y43.779 E3.066489
G1 X86.189 Y43.577 E3.080510
G1 X86.177 Y43.572 E3.080942
G1 X85.849 Y43.391 E3.093377
G1 X85.632 Y43.262 E3.101756
G1 X85.483 Y43.161 E3.107731
G1 X85.48 Y43.166 E3.107925
G1 X85.018 Y42.872 E3.126102
G1 X84.994 Y42.857 E3.127041
G1 X84.554 Y42.574 E3.144406
G1 X84.538 Y42.562 E3.145070
G1 X84.537 Y42.563 E3.145117
G1 X84.378 Y42.46 E3.151405
G1 X84.359 Y42.448 E3.152151
G1 X83.759 Y42.056 E3.175940
G1 X83.757 Y42.054 E3.176034
G1 X83.598 Y41.95 E3.182341
G1 X83.176 Y41.676 E3.199041
G1 X82.765 Y41.412 E3.215256
G1 X82.695 Y41.369 E3.217983
G1 X82.149 Y41.042 E3.239107
G1 X82.142 Y41.038 E3.239375
G1 X81.856 Y40.866 E3.250453
G1 X81.856 Y40.865 E3.250486
G1 X81.808 Y40.838 E3.252314
G1 X81.506 Y40.653 E3.264069
G1 X81.482 Y40.639 E3.264992
G1 X80.888 Y40.272 E3.288168
G1 X80.889 Y40.27 E3.288242
G1 X80.569 Y40.061 E3.300929
G1 X80.51 Y40.019 E3.303332
G1 X80.394 Y39.934 E3.308106
G1 X80.39 Y39.931 E3.308272
G1 X80.251 Y39.824 E3.314094
G1 X79.715 Y39.396 E3.336862
G1 X79.72 Y39.39 E3.337121
G1 X79.57 Y39.278 E3.343335
G1 X79.382 Y39.118 E3.351529
G1 X79.385 Y39.115 E3.351670
G1 X79.288 Y39.038 E3.355781
G1 X78.89 Y38.685 E3.373439
G1 X78.812 Y38.608 E3.377077
G1 X78.809 Y38.611 E3.377218
G1 X78.594 Y38.413 E3.386919
G1 X78.598 Y38.409 E3.387107
G1 X78.512 Y38.34 E3.390767
G1 X78.129 Y37.974 E3.408351
G1 X78.13 Y37.973 E3.408398
G1 X78.092 Y37.939 E3.410091
G1 X77.801 Y37.656 E3.423564
G1 X77.769 Y37.626 E3.425020
G1 X77.461 Y37.322 E3.439385
G1 X77.448 Y37.309 E3.439995
G1 X77.15 Y37.013 E3.453937
G1 X77.129 Y36.993 E3.454899
G1 X76.828 Y36.691 E3.469052
G1 X76.821 Y36.684 E3.469381
G1 X76.525 Y36.386 E3.483323
G1 X76.504 Y36.366 E3.484285
G1 X76.201 Y36.058 E3.498626
G1 X76.186 Y36.043 E3.499330
G1 X75.854 Y35.703 E3.515104
G1 X75.794 Y35.633 E3.518164
G1 X75.792 Y35.635 E3.518258
G1 X75.525 Y35.353 E3.531148
G1 X75.486 Y35.312 E3.533027
G1 X75.239 Y35.046 E3.545075
G1 X75.24 Y35.045 E3.545122
G1 X75.163 Y34.963 E3.548856
G1 X74.811 Y34.569 E3.566393
G1 X74.814 Y34.567 E3.566513
G1 X74.732 Y34.478 E3.570530
G1 X74.557 Y34.274 E3.579451
G1 X74.461 Y34.159 E3.584423
G1 X74.037 Y33.638 E3.606720
G1 X73.889 Y33.448 E3.614714
G1 X73.833 Y33.373 E3.617821
G1 X73.67 Y33.143 E3.627178
G1 X73.264 Y32.54 E3.651307
G1 X73.265 Y32.54 E3.651341
G1 X73.194 Y32.437 E3.655493
G1 X73.059 Y32.227 E3.663779
G1 X73.009 Y32.148 E3.666883
G1 X72.769 Y31.761 E3.681998
G1 X72.746 Y31.719 E3.683588
G1 X72.745 Y31.72 E3.683634
G1 X72.388 Y31.134 E3.706411
G1 X72.012 Y30.404 E3.733667
G1 X72.003 Y30.383 E3.734425
G1 X71.76 Y29.7 E3.758488
G1 X71.567 Y29.027 E3.781727
G1 X71.561 Y29.002 E3.782580
G1 X71.416 Y28.488 E3.800307
G1 X71.408 Y28.452 E3.801532
G1 X71.244 Y27.859 E3.821954
G1 X71.23 Y27.796 E3.824096
G1 X71.229 Y27.796 E3.824129
G1 X71.137 Y27.45 E3.836013
G1 X71.116 Y27.349 E3.839437
G1 X71.113 Y27.35 E3.839542
G1 X71.053 Y27.108 E3.847818
G1 X71.041 Y27.042 E3.850044
G1 X71.038 Y27.043 E3.850149
G1 X70.878 Y26.367 E3.873208
G1 X70.867 Y26.307 E3.875232
G1 X70.866 Y26.307 E3.875266
G1 X70.749 Y25.789 E3.892893
G1 X70.743 Y25.765 E3.893714
G1 X70.61 Y25.164 E3.914145
G1 X70.607 Y25.15 E3.914621
G1 X70.481 Y24.574 E3.934192
G1 X70.376 Y23.903 E3.956735
G1 X70.353 Y23.089 E3.983765
G1 X70.355 Y23.043 E3.985293
G1 X70.425 Y22.367 E4.007851
G1 X70.634 Y21.505 E4.037293
M204 S625.000000
M205 X6.000000 Y6.000000
G0 F8571.4 X70.967 Y21.613
M204 S500.000000
M205 X5.000000 Y5.000000
G1 F1200 X71.155 Y21.036 E4.057436
G1 X71.158 Y21.027 E4.057751
G1 X71.354 Y20.429 E4.078639
G1 X71.365 Y20.396 E4.079794
G1 X71.565 Y19.799 E4.100692
G1 X71.806 Y19.2 E4.122124
G1 X71.815 Y19.181 E4.122821
G1 X72.081 Y18.687 E4.141445
G1 X72.435 Y18.104 E4.164084
G1 X72.436 Y18.105 E4.164131
G1 X72.47 Y18.045 E4.166420
G1 X72.716 Y17.651 E4.181838
G1 X72.764 Y17.583 E4.184601
G1 X72.761 Y17.581 E4.184720
G1 X72.892 Y17.378 E4.192740
G1 X72.966 Y17.266 E4.197195
G1 X73.378 Y16.661 E4.221491
G1 X73.379 Y16.662 E4.221538
G1 X73.546 Y16.427 E4.231108
G1 X73.597 Y16.36 E4.233903
G1 X73.752 Y16.182 E4.241737
G1 X73.745 Y16.176 E4.242043
G1 X74.181 Y15.651 E4.264695
G1 X74.289 Y15.536 E4.269932
G1 X74.284 Y15.532 E4.270144
G1 X74.444 Y15.35 E4.278188
G1 X74.449 Y15.354 E4.278400
G1 X74.613 Y15.164 E4.286731
G1 X75.004 Y14.758 E4.305441
G1 X75.076 Y14.685 E4.308844
G1 X75.078 Y14.683 E4.308938
G1 X75.126 Y14.636 E4.311168
G1 X75.331 Y14.436 E4.320674
G1 X75.332 Y14.437 E4.320721
G1 X75.483 Y14.292 E4.327670
G1 X75.928 Y13.89 E4.347576
G1 X76.108 Y13.742 E4.355311
G1 X76.104 Y13.738 E4.355498
G1 X76.251 Y13.616 E4.361839
G1 X76.253 Y13.619 E4.361959
G1 X76.362 Y13.526 E4.366715
G1 X76.939 Y13.072 E4.391085
G1 X77.481 Y12.697 E4.412962
G1 X78.063 Y12.39 E4.434803
G1 X78.463 Y12.228 E4.449127
G1 X78.516 Y12.209 E4.450996
G1 X79.148 Y12.025 E4.472845
G1 X80.063 Y11.898 E4.503508
G1 X80.635 Y11.868 E4.522520
G1 X80.739 Y11.865 E4.525973
G1 X80.739 Y11.864 E4.526007
G1 X81.339 Y11.844 E4.545933
G1 X81.513 Y11.841 E4.551710
G1 X82.105 Y11.84 E4.571360
G1 X82.117 Y11.84 E4.571758
G1 X82.28 Y11.842 E4.577169
G1 X82.878 Y11.86 E4.597027
G1 X82.878 Y11.862 E4.597094
G1 X83.009 Y11.866 E4.601444
G1 X83.603 Y11.898 E4.621189
G1 X84.375 Y11.995 E4.647015
G1 X84.4 Y12 E4.647862
G1 X84.963 Y12.145 E4.667159
G1 X85.542 Y12.327 E4.687305
G1 X85.61 Y12.353 E4.689721
G1 X85.611 Y12.35 E4.689826
G1 X86.213 Y12.548 E4.710861
G1 X86.212 Y12.55 E4.710936
G1 X86.281 Y12.57 E4.713320
G1 X86.826 Y12.757 E4.732446
G1 X86.829 Y12.758 E4.732551
G1 X86.833 Y12.76 E4.732699
G1 X86.872 Y12.773 E4.734063
G1 X86.871 Y12.775 E4.734138
G1 X87.144 Y12.885 E4.743907
G1 X87.147 Y12.877 E4.744191
G1 X87.157 Y12.881 E4.744548
G1 X87.268 Y12.935 E4.748646
G1 X87.435 Y13.002 E4.754618
G1 X87.454 Y13.011 E4.755316
G1 X87.449 Y13.022 E4.755717
G1 X87.845 Y13.214 E4.770325
G1 X88.421 Y13.545 E4.792376
G1 X88.428 Y13.549 E4.792644
G1 X88.891 Y13.816 E4.810384
G1 X88.976 Y13.864 E4.813624
G1 X89.519 Y14.165 E4.834232
G1 X89.519 Y14.164 E4.834265
G1 X89.867 Y14.354 E4.847426
G1 X90.066 Y14.46 E4.854910
G1 X90.621 Y14.749 E4.875680
G1 X90.919 Y14.904 E4.886829
G1 X90.931 Y14.91 E4.887275
G1 X91.231 Y15.067 E4.898514
G1 X91.231 Y15.068 E4.898547
G1 X91.26 Y15.081 E4.899602
G1 X91.854 Y15.396 E4.921919
G1 X91.897 Y15.42 E4.923554
G1 X92.135 Y15.549 E4.932539
G1 X92.134 Y15.55 E4.932586
G1 X92.242 Y15.608 E4.936655
G1 X92.608 Y15.817 E4.950645
G1 X92.668 Y15.851 E4.952934
G1 X93.265 Y16.202 E4.975921
G1 X93.524 Y16.365 E4.986079
G1 X93.53 Y16.369 E4.986319
G1 X93.609 Y16.423 E4.989495
