;START_OF_HEADER
;HEADER_VERSION:0.1
;FLAVOR:GRIFFIN:
;GENERATOR.NAME:Cura_SteamEngine
;GENERATOR.VERSION: 2.01 
;GENERATOR.BUILD_DATE:2019-10-25
;;TARGET_MACHINE.NAME:Ultimaker 3
;EXTRUDER_TRAIN.0.INITIAL_TEMPERATURE:205
;EXTRUDER_TRAIN.0.NOZZLE.DIAMETER:0.4
;EXTRUDER_TRAIN.0.NOZZLE.NAME:AA 0.4
;BUILD_PLATE.TYPE:glass
;BUILD_PLATE.INITIAL_TEMPERATURE:60
;BUILD_VOLUME.TEMPERATURE:28
;PRINT.GROUPS:1
;PRINT.SIZE.MIN.X:0
;PRINT.SIZE.MIN.Y:0
;PRINT.SIZE.MIN.Z:0
;PRINT.SIZE.MAX.X:0.01
;PRINT.SIZE.MAX.Y:0.01
;PRINT.SIZE.MAX.Z:0.01
;END_OF_HEADER
;Generated with Cura_SteamEngine 4.2.1
T0
M82 ;absolute extrusion mode
G92 E0+
 
G92 E0
M109 S200
G0 F15000.000000 X0.00 Y0.00 Z0.00
G280
G1 F1500.000000 E-6.500000
;ProcessStatingCodeisfinished
;LAYER_COUNT:141
;LAYER:0
;Extrusion:-6.500000
M140 S60.000000
M106 S255 P1
M204 S625.000000
M205 X6.000000 Y6.000000
G0 F8571.428571 X32.582 Y9.826 Z0.302
M204 S500.000000
M205 X5.000000 Y5.000000
;TYPE:SKIRT
;Extrusion:-6.500000
G1 F900 E0
G1 F1200.000000 X32.64 Y9.649 E0.003086
G1 X32.645 Y9.63 E0.003412
G1 X32.772 Y9.246 E0.010113
G1 X32.774 Y9.238 E0.010250
G1 X32.871 Y8.946 E0.015348
G1 X32.909 Y8.85 E0.017059
G1 X32.934 Y8.768 E0.018479
G1 X33.062 Y8.45 E0.024159
G1 X33.069 Y8.434 E0.024448
G1 X33.099 Y8.376 E0.025530
G1 X33.123 Y8.315 E0.026616
G1 X33.33 Y7.933 E0.033815
G1 X33.432 Y7.738 E0.037461
G1 X33.608 Y7.45 E0.043054
G1 X33.609 Y7.45 E0.043070
G1 X33.637 Y7.4 E0.044020
G1 X33.76 Y7.203 E0.047868
G1 X33.8 Y7.146 E0.049022
G1 X33.798 Y7.145 E0.049059
G1 X33.864 Y7.042 E0.051085
G1 X33.958 Y6.9 E0.053907
G1 X34.163 Y6.6 E0.059927
G1 X34.221 Y6.516 E0.061619
G1 X34.243 Y6.485 E0.062249
G1 X34.443 Y6.219 E0.067763
G1 X34.447 Y6.214 E0.067869
G1 X34.54 Y6.102 E0.070281
G1 X34.759 Y5.842 E0.075913
G1 X34.764 Y5.847 E0.076031
G1 X34.773 Y5.837 E0.076254
G1 X34.845 Y5.74 E0.078255
G1 X34.927 Y5.647 E0.080309
G1 X34.933 Y5.652 E0.080439
G1 X35.116 Y5.441 E0.085067
G1 X35.308 Y5.243 E0.089636
G1 X35.37 Y5.179 E0.091113
G1 X35.372 Y5.177 E0.091160
G1 X35.413 Y5.138 E0.092097
G1 X35.516 Y5.037 E0.094487
G1 X35.697 Y4.873 E0.098534
G1 X35.694 Y4.869 E0.098617
G1 X35.911 Y4.673 E0.103462
G1 X35.914 Y4.677 E0.103545
G1 X36.05 Y4.552 E0.106606
G1 X36.122 Y4.491 E0.108169
G1 X36.299 Y4.35 E0.111919
G1 X36.298 Y4.348 E0.111956
G1 X36.575 Y4.131 E0.117786
G1 X37.133 Y3.744 E0.129037
G1 X37.733 Y3.426 E0.140289
G1 X38.187 Y3.241 E0.148412
G1 X38.24 Y3.222 E0.149344
G1 X38.892 Y3.031 E0.160601
G1 X39.87 Y2.892 E0.176969
G1 X40.141 Y2.877 E0.181466
G1 X40.268 Y2.873 E0.183571
G1 X40.268 Y2.871 E0.183604
G1 X40.567 Y2.861 E0.188561
G1 X40.743 Y2.858 E0.191478
G1 X41.035 Y2.857 E0.196316
G1 X41.058 Y2.857 E0.196697
G1 X41.251 Y2.86 E0.199895
G1 X41.55 Y2.87 E0.204852
G1 X41.55 Y2.872 E0.204885
G1 X41.674 Y2.876 E0.206941
G1 X41.966 Y2.892 E0.211786
G1 X42.783 Y2.995 E0.225430
G1 X42.808 Y3 E0.225853
G1 X43.376 Y3.144 E0.235562
G1 X43.655 Y3.23 E0.240399
G1 X43.758 Y3.269 E0.242224
G1 X43.76 Y3.264 E0.242313
G1 X44.064 Y3.364 E0.247615
G1 X44.063 Y3.367 E0.247668
G1 X44.147 Y3.392 E0.249120
G1 X44.442 Y3.494 E0.254292
G1 X45.138 Y3.787 E0.266804
G1 X45.152 Y3.794 E0.267063
G1 X45.438 Y3.947 E0.272437
G1 X45.728 Y4.113 E0.277974
G1 X45.738 Y4.119 E0.278167
G1 X45.941 Y4.236 E0.282049
G1 X45.955 Y4.244 E0.282317
G1 X46.226 Y4.394 E0.287449
G1 X46.334 Y4.453 E0.289488
G1 X46.455 Y4.517 E0.291756
G1 X46.73 Y4.661 E0.296899
G1 X46.737 Y4.665 E0.297033
G1 X46.858 Y4.728 E0.299293
G1 X47.009 Y4.806 E0.302109
G1 X47.044 Y4.824 E0.302761
G1 X47.341 Y4.98 E0.308320
G1 X47.34 Y4.981 E0.308343
G1 X47.463 Y5.046 E0.310648
G1 X47.58 Y5.111 E0.312866
G1 X47.599 Y5.121 E0.313222
G1 X47.822 Y5.246 E0.317457
G1 X47.894 Y5.292 E0.318873
G1 X48.472 Y4.982 E0.329740
G1 X49.104 Y4.734 E0.340989
G1 X49.762 Y4.562 E0.352258
G1 X50.725 Y4.453 E0.368316
G1 X50.864 Y4.449 E0.370620
G1 X51.543 Y4.47 E0.381875
G1 X52.215 Y4.57 E0.393132
G1 X52.871 Y4.748 E0.404395
G1 X53.501 Y5.002 E0.415650
G1 X54.097 Y5.329 E0.426913
G1 X54.83 Y5.874 E0.442048
G1 X55.06 Y6.075 E0.447109
G1 X55.054 Y6.082 E0.447261
G1 X55.349 Y6.342 E0.453777
G1 X55.375 Y6.368 E0.454386
G1 X55.459 Y6.463 E0.456487
G1 X55.462 Y6.46 E0.456557
G1 X55.72 Y6.729 E0.462733
G1 X55.988 Y7.029 E0.469398
G1 X55.993 Y7.035 E0.469528
G1 X56.14 Y7.218 E0.473417
G1 X56.163 Y7.248 E0.474043
G1 X56.2 Y7.297 E0.475061
G1 X56.203 Y7.301 E0.475143
G1 X56.326 Y7.472 E0.478634
G1 X56.526 Y7.76 E0.484443
G1 X56.588 Y7.851 E0.486268
G1 X56.59 Y7.854 E0.486327
G1 X56.648 Y7.943 E0.488088
G1 X56.721 Y8.057 E0.490330
G1 X56.719 Y8.058 E0.490368
G1 X56.755 Y8.109 E0.491402
G1 X56.872 Y8.296 E0.495057
G1 X56.902 Y8.344 E0.495995
G1 X57.074 Y8.625 E0.501453
G1 X57.394 Y9.224 E0.512706
G1 X57.641 Y9.858 E0.523979
G1 X57.653 Y9.895 E0.524624
G1 X57.825 Y10.553 E0.535893
G1 X57.919 Y11.242 E0.547414
G1 X57.94 Y11.52 E0.552034
G1 X57.945 Y11.665 E0.554438
G1 X57.948 Y11.665 E0.554487
G1 X57.963 Y11.959 E0.559365
G1 X57.968 Y12.14 E0.562365
G1 X57.97 Y12.14 E0.562398
G1 X57.976 Y12.437 E0.567320
G1 X57.977 Y12.554 E0.569259
G1 X57.977 Y12.558 E0.569325
G1 X57.976 Y12.675 E0.571264
G1 X57.97 Y12.972 E0.576186
G1 X57.968 Y12.972 E0.576219
G1 X57.963 Y13.167 E0.579451
G1 X57.947 Y13.466 E0.584412
G1 X57.944 Y13.466 E0.584462
G1 X57.94 Y13.579 E0.586335
G1 X57.922 Y13.826 E0.590439
G1 X57.833 Y14.499 E0.601687
G1 X57.665 Y15.158 E0.612955
G1 X57.421 Y15.792 E0.624211
G1 X56.957 Y16.624 E0.639995
G1 X56.906 Y16.7 E0.641511
G1 X56.495 Y17.241 E0.652769
G1 X56.443 Y17.295 E0.654011
G1 X56.442 Y17.414 E0.655982
G1 X56.441 Y17.414 E0.655999
G1 X56.44 Y17.499 E0.657408
G1 X56.433 Y17.786 E0.662164
G1 X56.345 Y18.66 E0.676719
G1 X56.34 Y18.688 E0.677190
G1 X56.162 Y19.411 E0.689527
G1 X56.073 Y19.693 E0.694427
G1 X56.038 Y19.786 E0.696073
G1 X56.042 Y19.787 E0.696141
G1 X55.923 Y20.143 E0.702361
G1 X55.906 Y20.194 E0.703252
G1 X55.825 Y20.429 E0.707370
G1 X55.53 Y21.13 E0.719971
G1 X55.517 Y21.156 E0.720453
G1 X55.178 Y21.744 E0.731699
G1 X54.882 Y22.155 E0.740091
G1 X54.659 Y22.437 E0.746048
G1 X54.649 Y22.429 E0.746260
G1 X54.467 Y22.668 E0.751237
G1 X54.402 Y22.742 E0.752869
G1 X54.395 Y22.736 E0.753022
G1 X54.31 Y22.845 E0.755312
G1 X54.102 Y23.071 E0.760401
G1 X53.937 Y23.244 E0.764363
G1 X53.812 Y23.369 E0.767292
G1 X53.599 Y23.56 E0.772032
G1 X53.603 Y23.564 E0.772126
G1 X53.474 Y23.682 E0.775022
G1 X53.441 Y23.716 E0.775807
G1 X53.087 Y24.019 E0.783528
G1 X52.746 Y24.287 E0.790714
G1 X52.188 Y24.674 E0.801966
G1 X51.818 Y24.882 E0.808998
G1 X51.783 Y24.9 E0.809650
G1 X51.162 Y25.174 E0.820897
G1 X50.668 Y25.334 E0.829501
G1 X50.387 Y25.411 E0.834328
G1 X50.342 Y25.421 E0.835092
G1 X50.342 Y25.422 E0.835108
G1 X50.049 Y25.5 E0.840132
G1 X49.919 Y25.526 E0.842329
G1 X49.92 Y25.531 E0.842413
G1 X49.623 Y25.603 E0.847477
G1 X49.577 Y25.611 E0.848250
G1 X49.577 Y25.613 E0.848284
G1 X49.296 Y25.679 E0.853066
G1 X48.876 Y25.752 E0.860129
G1 X48.877 Y25.76 E0.860263
G1 X48.858 Y25.763 E0.860582
G1 X48.754 Y25.773 E0.862313
G1 X48.627 Y25.795 E0.864448
G1 X48.39 Y25.808 E0.868381
G1 X48.15 Y25.831 E0.872376
G1 X47.851 Y25.841 E0.877333
G1 X47.715 Y25.843 E0.879587
G1 X47.715 Y25.844 E0.879603
G1 X47.419 Y25.847 E0.884508
G1 X47.299 Y25.847 E0.886496
G1 X47.003 Y25.844 E0.891401
G1 X47.003 Y25.843 E0.891417
G1 X46.871 Y25.841 E0.893605
G1 X46.567 Y25.831 E0.898644
G1 X45.994 Y25.783 E0.908172
G1 X45.979 Y25.781 E0.908422
G1 X45.528 Y25.703 E0.916006
G1 X45.328 Y25.66 E0.919395
G1 X45.329 Y25.656 E0.919464
G1 X45.206 Y25.634 E0.921534
G1 X44.768 Y25.53 E0.928993
G1 X44.657 Y25.497 E0.930912
G1 X44.656 Y25.5 E0.930964
G1 X44.416 Y25.438 E0.935071
G1 X44.417 Y25.434 E0.935139
G1 X44.331 Y25.417 E0.936592
G1 X44.035 Y25.336 E0.941677
G1 X43.972 Y25.319 E0.942758
G1 X43.951 Y25.313 E0.943120
G1 X43.272 Y25.072 E0.955058
G1 X42.993 Y24.953 E0.960083
G1 X42.908 Y24.911 E0.961654
G1 X42.907 Y24.913 E0.961691
G1 X42.613 Y24.782 E0.967024
G1 X42.617 Y24.772 E0.967203
G1 X42.396 Y24.682 E0.971157
G1 X42.297 Y24.633 E0.972987
G1 X42.276 Y24.622 E0.973380
G1 X42.272 Y24.62 E0.973454
G1 X42.159 Y24.562 E0.975558
G1 X41.962 Y24.458 E0.979249
G1 X41.906 Y24.428 E0.980302
G1 X41.692 Y24.312 E0.984335
G1 X41.695 Y24.306 E0.984446
G1 X41.446 Y24.176 E0.989100
G1 X41.319 Y24.099 E0.991561
G1 X41.229 Y24.042 E0.993326
G1 X41.228 Y24.043 E0.993350
G1 X40.976 Y23.884 E0.998287
G1 X40.947 Y23.866 E0.998852
G1 X40.728 Y23.726 E1.003159
G1 X40.706 Y23.71 E1.003610
G1 X40.627 Y23.659 E1.005168
G1 X40.593 Y23.634 E1.005867
G1 X40.592 Y23.636 E1.005904
G1 X40.339 Y23.47 E1.010918
G1 X40.258 Y23.418 E1.012512
G1 X40.236 Y23.404 E1.012945
G1 X40.017 Y23.262 E1.017269
G1 X40.017 Y23.261 E1.017286
G1 X39.848 Y23.153 E1.020609
G1 X39.595 Y23.001 E1.025499
G1 X39.454 Y22.917 E1.028219
G1 X39.455 Y22.915 E1.028256
G1 X39.382 Y22.874 E1.029643
G1 X39.228 Y22.779 E1.032641
G1 X39.214 Y22.771 E1.032908
G1 X38.911 Y22.583 E1.038816
G1 X38.753 Y22.481 E1.041932
G1 X38.747 Y22.477 E1.042052
G1 X38.517 Y22.316 E1.046704
G1 X38.494 Y22.299 E1.047177
G1 X38.332 Y22.174 E1.050568
G1 X38.063 Y21.96 E1.056263
G1 X37.954 Y21.863 E1.058681
G1 X37.95 Y21.868 E1.058787
G1 X37.858 Y21.791 E1.060775
G1 X37.862 Y21.786 E1.060881
G1 X37.706 Y21.661 E1.064193
G1 X37.504 Y21.48 E1.068687
G1 X37.489 Y21.467 E1.069016
G1 X37.356 Y21.347 E1.071984
G1 X37.234 Y21.223 E1.074866
G1 X37.23 Y21.228 E1.074972
G1 X37.065 Y21.07 E1.078757
G1 X37.066 Y21.069 E1.078781
G1 X37.018 Y21.026 E1.079849
G1 X36.875 Y20.886 E1.083164
G1 X36.857 Y20.869 E1.083575
G1 X36.702 Y20.716 E1.087183
G1 X36.689 Y20.703 E1.087488
G1 X36.54 Y20.555 E1.090968
G1 X36.52 Y20.536 E1.091425
G1 X36.14 Y20.155 E1.100340
G1 X36.091 Y20.099 E1.101573
G1 X36.088 Y20.102 E1.101644
G1 X36.018 Y20.03 E1.103308
G1 X36.005 Y20.016 E1.103624
G1 X35.864 Y19.87 E1.106987
G1 X35.834 Y19.838 E1.107714
G1 X35.676 Y19.672 E1.111511
G1 X35.65 Y19.645 E1.112132
G1 X35.526 Y19.513 E1.115133
G1 X35.527 Y19.512 E1.115156
G1 X35.414 Y19.391 E1.117899
G1 X35.24 Y19.195 E1.122242
G1 X35.243 Y19.192 E1.122312
G1 X35.142 Y19.082 E1.124787
G1 X35.056 Y18.98 E1.126997
G1 X35.059 Y18.977 E1.127068
G1 X34.994 Y18.905 E1.128675
G1 X34.782 Y18.645 E1.134233
G1 X34.638 Y18.461 E1.138105
G1 X34.632 Y18.453 E1.138270
G1 X34.613 Y18.428 E1.138790
G1 X34.61 Y18.424 E1.138873
G1 X34.442 Y18.188 E1.143673
G1 X34.239 Y17.887 E1.149689
G1 X34.242 Y17.885 E1.149748
G1 X34.171 Y17.785 E1.151780
G1 X34.104 Y17.681 E1.153830
G1 X34.108 Y17.679 E1.153904
G1 X34.058 Y17.608 E1.155343
G1 X33.937 Y17.414 E1.159132
G1 X33.882 Y17.324 E1.160879
G1 X33.706 Y17.03 E1.166557
G1 X33.395 Y16.434 E1.177695
G1 X33.386 Y16.414 E1.178059
G1 X33.1 Y15.633 E1.191839
G1 X32.995 Y15.266 E1.198164
G1 X32.989 Y15.239 E1.198622
G1 X32.988 Y15.239 E1.198639
G1 X32.927 Y15.022 E1.202374
G1 X32.92 Y14.996 E1.202820
G1 X32.838 Y14.699 E1.207925
G1 X32.83 Y14.663 E1.208536
G1 X32.784 Y14.493 E1.211454
G1 X32.758 Y14.368 E1.213570
G1 X32.754 Y14.369 E1.213638
G1 X32.724 Y14.248 E1.215703
G1 X32.71 Y14.192 E1.216660
G1 X32.62 Y13.813 E1.223114
G1 X32.608 Y13.743 E1.224291
G1 X32.606 Y13.743 E1.224324
G1 X32.557 Y13.525 E1.228026
G1 X32.551 Y13.5 E1.228452
G1 X32.424 Y12.923 E1.238241
G1 X32.317 Y12.252 E1.249500
G1 X32.294 Y11.436 E1.263025
G1 X32.296 Y11.389 E1.263805
G1 X32.365 Y10.714 E1.275047
G1 X32.582 Y9.826 E1.290193
;;done with one path
M204 S625.000000
M205 X6.000000 Y6.000000
G0 F8571.428571 X32.914 Y9.936
M204 S500.000000
M205 X5.000000 Y5.000000
;Extrusion:1.290193
G1 F1200.000000 X32.971 Y9.763 E1.293211
G1 X32.977 Y9.74 E1.293605
G1 X33.104 Y9.356 E1.300306
G1 X33.107 Y9.349 E1.300433
G1 X33.204 Y9.057 E1.305531
G1 X33.339 Y8.721 E1.311530
G1 X33.383 Y8.591 E1.313804
G1 X33.39 Y8.575 E1.314094
G1 X33.425 Y8.507 E1.315361
G1 X33.449 Y8.446 E1.316447
G1 X33.605 Y8.163 E1.321801
G1 X33.731 Y7.92 E1.326337
G1 X33.907 Y7.632 E1.331929
G1 X33.934 Y7.586 E1.332813
G1 X34.057 Y7.389 E1.336661
G1 X34.095 Y7.336 E1.337741
G1 X34.092 Y7.334 E1.337801
G1 X34.158 Y7.231 E1.339828
G1 X34.247 Y7.097 E1.342493
G1 X34.452 Y6.797 E1.348514
G1 X34.507 Y6.718 E1.350109
G1 X34.529 Y6.687 E1.350738
G1 X34.717 Y6.438 E1.355908
G1 X34.721 Y6.433 E1.356014
G1 X34.808 Y6.327 E1.358286
G1 X35.027 Y6.067 E1.363919
G1 X35.032 Y6.071 E1.364025
G1 X35.042 Y6.059 E1.364284
G1 X35.108 Y5.971 E1.366106
G1 X35.19 Y5.878 E1.368161
G1 X35.195 Y5.882 E1.368267
G1 X35.367 Y5.684 E1.372612
G1 X35.559 Y5.486 E1.377182
G1 X35.62 Y5.425 E1.378611
G1 X35.658 Y5.388 E1.379490
G1 X35.761 Y5.287 E1.381880
G1 X35.932 Y5.132 E1.385704
G1 X35.929 Y5.129 E1.385775
G1 X36.146 Y4.933 E1.390620
G1 X36.149 Y4.936 E1.390690
G1 X36.276 Y4.819 E1.393551
G1 X36.348 Y4.758 E1.395115
G1 X36.515 Y4.625 E1.398652
G1 X36.513 Y4.623 E1.398699
G1 X36.79 Y4.406 E1.404529
G1 X37.333 Y4.033 E1.415444
G1 X37.916 Y3.727 E1.426354
G1 X38.305 Y3.57 E1.433304
G1 X38.358 Y3.551 E1.434237
G1 X38.99 Y3.367 E1.445143
G1 X39.889 Y3.241 E1.460184
G1 X40.16 Y3.226 E1.464682
G1 X40.28 Y3.223 E1.466670
G1 X40.28 Y3.221 E1.466704
G1 X40.579 Y3.211 E1.471660
G1 X40.744 Y3.208 E1.474395
G1 X41.036 Y3.207 E1.479233
G1 X41.058 Y3.207 E1.479597
G1 X41.239 Y3.21 E1.482597
G1 X41.538 Y3.22 E1.487554
G1 X41.538 Y3.222 E1.487587
G1 X41.655 Y3.225 E1.489526
G1 X41.947 Y3.241 E1.494372
G1 X42.714 Y3.338 E1.507181
G1 X42.739 Y3.343 E1.507604
G1 X43.273 Y3.479 E1.516734
G1 X43.552 Y3.565 E1.521571
G1 X43.649 Y3.601 E1.523285
G1 X43.65 Y3.597 E1.523354
G1 X43.954 Y3.697 E1.528656
G1 X43.953 Y3.699 E1.528693
G1 X44.033 Y3.723 E1.530077
G1 X44.328 Y3.825 E1.535249
G1 X44.981 Y4.1 E1.546989
G1 X44.995 Y4.107 E1.547248
G1 X45.264 Y4.251 E1.552304
G1 X45.554 Y4.417 E1.557840
G1 X45.564 Y4.422 E1.558025
G1 X45.797 Y4.556 E1.562479
G1 X46.059 Y4.701 E1.567440
G1 X46.233 Y4.796 E1.570725
G1 X46.269 Y4.815 E1.571400
G1 X46.568 Y4.971 E1.576987
G1 X46.575 Y4.975 E1.577121
G1 X46.698 Y5.039 E1.579418
G1 X46.849 Y5.117 E1.582234
G1 X46.882 Y5.134 E1.582849
G1 X47.179 Y5.29 E1.588408
G1 X47.178 Y5.292 E1.588445
G1 X47.293 Y5.352 E1.590594
G1 X47.428 Y5.427 E1.593153
G1 X47.651 Y5.552 E1.597389
G1 X47.78 Y5.635 E1.599930
G1 X47.783 Y5.63 E1.600027
G1 X47.908 Y5.705 E1.602442
G1 X48.09 Y5.58 E1.606101
G1 X48.674 Y5.275 E1.617017
G1 X49.29 Y5.043 E1.627923
G1 X49.93 Y4.887 E1.638838
G1 X50.735 Y4.803 E1.652248
G1 X50.874 Y4.799 E1.654553
G1 X51.532 Y4.82 E1.665460
G1 X52.183 Y4.921 E1.676376
G1 X52.817 Y5.1 E1.687291
G1 X53.424 Y5.354 E1.698194
G1 X53.996 Y5.68 E1.709102
G1 X54.6 Y6.137 E1.721652
G1 X54.83 Y6.338 E1.726713
G1 X54.824 Y6.345 E1.726865
G1 X55.101 Y6.59 E1.732993
G1 X55.127 Y6.616 E1.733602
G1 X55.206 Y6.705 E1.735574
G1 X55.209 Y6.702 E1.735644
G1 X55.467 Y6.971 E1.741820
G1 X55.72 Y7.253 E1.748097
G1 X55.725 Y7.259 E1.748226
G1 X55.862 Y7.431 E1.751870
G1 X55.885 Y7.461 E1.752496
G1 X55.92 Y7.507 E1.753454
G1 X55.923 Y7.511 E1.753537
G1 X56.039 Y7.672 E1.756825
G1 X56.239 Y7.96 E1.762634
G1 X56.297 Y8.045 E1.764339
G1 X56.299 Y8.048 E1.764399
G1 X56.354 Y8.131 E1.766049
G1 X56.427 Y8.245 E1.768292
G1 X56.424 Y8.247 E1.768351
G1 X56.458 Y8.295 E1.769326
G1 X56.575 Y8.482 E1.772981
G1 X56.603 Y8.527 E1.773859
G1 X56.775 Y8.808 E1.779318
G1 X57.084 Y9.389 E1.790221
G1 X57.308 Y9.966 E1.800477
G1 X57.32 Y10.003 E1.801121
G1 X57.485 Y10.641 E1.812040
G1 X57.57 Y11.268 E1.822524
G1 X57.591 Y11.546 E1.827143
G1 X57.596 Y11.683 E1.829415
G1 X57.599 Y11.683 E1.829464
G1 X57.614 Y11.977 E1.834342
G1 X57.618 Y12.147 E1.837159
G1 X57.62 Y12.147 E1.837192
G1 X57.626 Y12.444 E1.842114
G1 X57.627 Y12.554 E1.843937
G1 X57.627 Y12.558 E1.844003
G1 X57.626 Y12.668 E1.845826
G1 X57.62 Y12.965 E1.850748
G1 X57.618 Y12.965 E1.850781
G1 X57.613 Y13.148 E1.853814
G1 X57.597 Y13.447 E1.858776
G1 X57.595 Y13.447 E1.858809
G1 X57.591 Y13.553 E1.860566
G1 X57.573 Y13.8 E1.864670
G1 X57.485 Y14.453 E1.875587
G1 X57.319 Y15.09 E1.886494
G1 X57.077 Y15.703 E1.897414
G1 X56.667 Y16.429 E1.911228
G1 X56.616 Y16.505 E1.912745
G1 X56.216 Y17.028 E1.923654
G1 X56.095 Y17.153 E1.926537
G1 X56.092 Y17.411 E1.930812
G1 X56.091 Y17.411 E1.930828
G1 X56.09 Y17.49 E1.932138
G1 X56.083 Y17.777 E1.936894
G1 X56.001 Y18.599 E1.950582
G1 X55.996 Y18.627 E1.951053
G1 X55.828 Y19.306 E1.962642
G1 X55.739 Y19.588 E1.967542
G1 X55.706 Y19.675 E1.969084
G1 X55.71 Y19.676 E1.969152
G1 X55.591 Y20.032 E1.975371
G1 X55.575 Y20.08 E1.976210
G1 X55.494 Y20.315 E1.980328
G1 X55.217 Y20.973 E1.992157
G1 X55.204 Y20.999 E1.992639
G1 X54.875 Y21.569 E2.003544
G1 X54.607 Y21.938 E2.011100
G1 X54.384 Y22.22 E2.017057
G1 X54.375 Y22.213 E2.017246
G1 X54.204 Y22.437 E2.021915
G1 X54.139 Y22.511 E2.023547
G1 X54.133 Y22.506 E2.023676
G1 X54.053 Y22.608 E2.025824
G1 X53.845 Y22.834 E2.030913
G1 X53.689 Y22.996 E2.034640
G1 X53.687 Y22.998 E2.034686
G1 X53.564 Y23.122 E2.037580
G1 X53.363 Y23.301 E2.042040
G1 X53.367 Y23.306 E2.042146
G1 X53.194 Y23.464 E2.046028
G1 X53.085 Y23.549 E2.048318
G1 X53.073 Y23.56 E2.048588
G1 X53.058 Y23.57 E2.048887
G1 X53.033 Y23.59 E2.049417
G1 X52.87 Y23.743 E2.053121
G1 X52.529 Y24.011 E2.060307
G1 X51.988 Y24.386 E2.071214
G1 X51.658 Y24.57 E2.077474
G1 X51.623 Y24.588 E2.078126
G1 X51.02 Y24.853 E2.089040
G1 X50.576 Y24.996 E2.096769
G1 X50.295 Y25.073 E2.101596
G1 X50.252 Y25.082 E2.102324
G1 X50.252 Y25.083 E2.102340
G1 X49.959 Y25.161 E2.107364
G1 X49.836 Y25.186 E2.109444
G1 X49.837 Y25.191 E2.109528
G1 X49.54 Y25.263 E2.114592
G1 X49.497 Y25.271 E2.115317
G1 X49.497 Y25.272 E2.115333
G1 X49.216 Y25.338 E2.120116
G1 X48.821 Y25.406 E2.126757
G1 X48.822 Y25.415 E2.126907
G1 X48.803 Y25.418 E2.127226
G1 X48.691 Y25.429 E2.129090
G1 X48.567 Y25.45 E2.131174
G1 X48.358 Y25.46 E2.134641
G1 X48.138 Y25.481 E2.138303
G1 X47.839 Y25.491 E2.143260
G1 X47.711 Y25.493 E2.145381
G1 X47.711 Y25.494 E2.145397
G1 X47.415 Y25.497 E2.150302
G1 X47.303 Y25.497 E2.152158
G1 X47.007 Y25.494 E2.157062
G1 X47.007 Y25.493 E2.157079
G1 X46.883 Y25.491 E2.159134
G1 X46.579 Y25.481 E2.164173
G1 X46.04 Y25.436 E2.173135
G1 X46.025 Y25.434 E2.173386
G1 X45.602 Y25.361 E2.180498
G1 X45.402 Y25.318 E2.183888
G1 X45.403 Y25.315 E2.183940
G1 X45.287 Y25.293 E2.185896
G1 X44.849 Y25.189 E2.193355
G1 X44.744 Y25.157 E2.195174
G1 X44.743 Y25.162 E2.195258
G1 X44.503 Y25.1 E2.199366
G1 X44.504 Y25.096 E2.199434
G1 X44.423 Y25.08 E2.200802
G1 X44.127 Y24.999 E2.205887
G1 X44.069 Y24.982 E2.206888
G1 X44.048 Y24.976 E2.207250
G1 X43.41 Y24.75 E2.218465
G1 X43.131 Y24.631 E2.223490
G1 X43.05 Y24.59 E2.224994
G1 X43.049 Y24.593 E2.225047
G1 X42.755 Y24.462 E2.230380
G1 X42.759 Y24.453 E2.230543
G1 X42.552 Y24.368 E2.234251
G1 X42.453 Y24.319 E2.236081
G1 X42.429 Y24.307 E2.236525
G1 X42.322 Y24.253 E2.238511
G1 X42.125 Y24.149 E2.242202
G1 X42.073 Y24.12 E2.243189
G1 X41.859 Y24.004 E2.247222
G1 X41.859 Y24.003 E2.247239
G1 X41.627 Y23.877 E2.251613
G1 X41.5 Y23.8 E2.254074
G1 X41.416 Y23.746 E2.255728
G1 X41.415 Y23.747 E2.255752
G1 X41.163 Y23.588 E2.260689
G1 X41.136 Y23.571 E2.261217
G1 X40.917 Y23.431 E2.265524
G1 X40.896 Y23.416 E2.265952
G1 X40.817 Y23.365 E2.267510
G1 X40.785 Y23.341 E2.268172
G1 X40.784 Y23.343 E2.268210
G1 X40.528 Y23.175 E2.273283
G1 X40.447 Y23.123 E2.274878
G1 X40.427 Y23.11 E2.275273
G1 X40.208 Y22.968 E2.279598
G1 X40.031 Y22.854 E2.283086
G1 X39.777 Y22.702 E2.287991
G1 X39.777 Y22.703 E2.288007
G1 X39.633 Y22.617 E2.290786
G1 X39.634 Y22.615 E2.290823
G1 X39.566 Y22.576 E2.292122
G1 X39.422 Y22.487 E2.294927
G1 X39.399 Y22.474 E2.295365
G1 X39.096 Y22.286 E2.301273
G1 X38.947 Y22.19 E2.304210
G1 X38.941 Y22.186 E2.304329
G1 X38.725 Y22.035 E2.308696
G1 X38.702 Y22.018 E2.309170
G1 X38.55 Y21.9 E2.312358
G1 X38.281 Y21.686 E2.318054
G1 X38.179 Y21.594 E2.320329
G1 X38.175 Y21.599 E2.320436
G1 X38.083 Y21.522 E2.322423
G1 X38.086 Y21.518 E2.322506
G1 X37.94 Y21.4 E2.325617
G1 X37.738 Y21.219 E2.330111
G1 X37.724 Y21.207 E2.330416
G1 X37.591 Y21.087 E2.333384
G1 X37.477 Y20.97 E2.336091
G1 X37.472 Y20.975 E2.336208
G1 X37.307 Y20.817 E2.339993
G1 X37.309 Y20.814 E2.340053
G1 X37.263 Y20.776 E2.341041
G1 X37.12 Y20.636 E2.344357
G1 X37.121 Y20.635 E2.344381
G1 X37.103 Y20.62 E2.344769
G1 X36.948 Y20.467 E2.348378
G1 X36.936 Y20.455 E2.348659
G1 X36.787 Y20.307 E2.352138
G1 X36.788 Y20.306 E2.352162
G1 X36.768 Y20.289 E2.352597
G1 X36.388 Y19.908 E2.361513
G1 X36.342 Y19.855 E2.362675
G1 X36.339 Y19.858 E2.362746
G1 X36.269 Y19.786 E2.364410
G1 X36.257 Y19.773 E2.364703
G1 X36.116 Y19.627 E2.368066
G1 X36.087 Y19.597 E2.368757
G1 X35.929 Y19.431 E2.372554
G1 X35.905 Y19.405 E2.373140
G1 X35.781 Y19.273 E2.376141
G1 X35.782 Y19.272 E2.376165
G1 X35.676 Y19.159 E2.378732
G1 X35.502 Y18.963 E2.383074
G1 X35.505 Y18.96 E2.383145
G1 X35.409 Y18.856 E2.385490
G1 X35.323 Y18.754 E2.387700
G1 X35.326 Y18.751 E2.387771
G1 X35.266 Y18.684 E2.389261
G1 X35.054 Y18.424 E2.394819
G1 X34.933 Y18.271 E2.398051
G1 X34.911 Y18.242 E2.398654
G1 X34.89 Y18.214 E2.399234
G1 X34.732 Y17.992 E2.403749
G1 X34.529 Y17.691 E2.409765
G1 X34.532 Y17.689 E2.409824
G1 X34.465 Y17.595 E2.411737
G1 X34.398 Y17.491 E2.413787
G1 X34.401 Y17.489 E2.413847
G1 X34.355 Y17.423 E2.415179
G1 X34.234 Y17.229 E2.418968
G1 X34.182 Y17.144 E2.420619
G1 X34.006 Y16.85 E2.426296
G1 X33.714 Y16.29 E2.436761
G1 X33.705 Y16.27 E2.437124
G1 X33.436 Y15.536 E2.450077
G1 X33.331 Y15.169 E2.456401
G1 X33.325 Y15.144 E2.456827
G1 X33.264 Y14.927 E2.460562
G1 X33.258 Y14.903 E2.460972
G1 X33.176 Y14.606 E2.466077
G1 X33.169 Y14.572 E2.466652
G1 X33.168 Y14.572 E2.466669
G1 X33.122 Y14.402 E2.469587
G1 X33.098 Y14.284 E2.471582
G1 X33.093 Y14.285 E2.471666
G1 X33.063 Y14.164 E2.473732
G1 X33.051 Y14.111 E2.474632
G1 X32.961 Y13.732 E2.481087
G1 X32.95 Y13.666 E2.482195
G1 X32.947 Y13.667 E2.482248
G1 X32.898 Y13.449 E2.485950
G1 X32.893 Y13.425 E2.486356
G1 X32.766 Y12.848 E2.496145
G1 X32.664 Y12.198 E2.507047
G1 X32.644 Y11.451 E2.519428
G1 X32.646 Y11.404 E2.520208
G1 X32.714 Y10.749 E2.531119
G1 X32.914 Y9.936 E2.544991
;;done with one path
M204 S625.000000
M205 X6.000000 Y6.000000
G0 F8571.428571 X33.246 Y10.045
M204 S500.000000
M205 X5.000000 Y5.000000
;Extrusion:2.544991
G1 F1200.000000 X33.309 Y9.854 E2.548323
G1 X33.31 Y9.849 E2.548408
G1 X33.437 Y9.465 E2.555109
G1 X33.439 Y9.459 E2.555214
G1 X33.536 Y9.167 E2.560312
G1 X33.658 Y8.863 E2.565740
G1 X33.704 Y8.731 E2.568056
G1 X33.711 Y8.715 E2.568345
G1 X33.743 Y8.653 E2.569501
G1 X33.774 Y8.576 E2.570876
G1 X33.928 Y8.299 E2.576128
G1 X34.03 Y8.103 E2.579789
G1 X34.206 Y7.815 E2.585381
G1 X34.208 Y7.816 E2.585418
G1 X34.231 Y7.771 E2.586255
G1 X34.354 Y7.574 E2.590103
G1 X34.389 Y7.525 E2.591101
G1 X34.387 Y7.523 E2.591148
G1 X34.453 Y7.42 E2.593175
G1 X34.536 Y7.295 E2.595661
G1 X34.741 Y6.995 E2.601681
G1 X34.792 Y6.921 E2.603170
G1 X34.814 Y6.89 E2.603800
G1 X34.99 Y6.657 E2.608638
G1 X34.994 Y6.652 E2.608745
G1 X35.075 Y6.553 E2.610864
G1 X35.294 Y6.293 E2.616496
G1 X35.297 Y6.296 E2.616567
G1 X35.314 Y6.277 E2.616989
G1 X35.37 Y6.203 E2.618527
G1 X35.452 Y6.11 E2.620581
G1 X35.456 Y6.114 E2.620675
G1 X35.619 Y5.928 E2.624773
G1 X35.811 Y5.73 E2.629342
G1 X35.865 Y5.674 E2.630631
G1 X35.867 Y5.672 E2.630678
G1 X35.903 Y5.637 E2.631510
G1 X36.006 Y5.536 E2.633900
G1 X36.165 Y5.392 E2.637455
G1 X36.163 Y5.389 E2.637514
G1 X36.38 Y5.193 E2.642359
G1 X36.383 Y5.196 E2.642430
G1 X36.502 Y5.086 E2.645115
G1 X36.574 Y5.025 E2.646678
G1 X36.73 Y4.901 E2.649980
G1 X36.729 Y4.899 E2.650017
G1 X37.006 Y4.682 E2.655847
G1 X37.531 Y4.321 E2.666404
G1 X38.097 Y4.029 E2.676957
G1 X38.423 Y3.9 E2.682766
G1 X38.476 Y3.881 E2.683698
G1 X39.088 Y3.704 E2.694254
G1 X39.909 Y3.591 E2.707986
G1 X40.18 Y3.576 E2.712483
G1 X40.291 Y3.573 E2.714323
G1 X40.291 Y3.571 E2.714356
G1 X40.59 Y3.561 E2.719313
G1 X40.746 Y3.558 E2.721898
G1 X41.038 Y3.557 E2.726736
G1 X41.058 Y3.557 E2.727067
G1 X41.228 Y3.56 E2.729884
G1 X41.527 Y3.57 E2.734841
G1 X41.527 Y3.572 E2.734875
G1 X41.636 Y3.575 E2.736681
G1 X41.928 Y3.591 E2.741527
G1 X42.645 Y3.682 E2.753502
G1 X42.67 Y3.687 E2.753924
G1 X43.17 Y3.813 E2.762468
G1 X43.449 Y3.899 E2.767305
G1 X43.54 Y3.933 E2.768915
G1 X43.541 Y3.929 E2.768983
G1 X43.845 Y4.029 E2.774286
G1 X43.844 Y4.032 E2.774338
G1 X43.918 Y4.054 E2.775617
G1 X44.213 Y4.156 E2.780789
G1 X44.825 Y4.413 E2.791787
G1 X44.839 Y4.42 E2.792046
G1 X45.09 Y4.555 E2.796768
G1 X45.38 Y4.721 E2.802305
G1 X45.389 Y4.726 E2.802475
G1 X45.596 Y4.845 E2.806432
G1 X45.616 Y4.856 E2.806810
G1 X45.916 Y5.022 E2.812491
G1 X46.001 Y5.069 E2.814100
G1 X46.128 Y5.136 E2.816479
G1 X46.407 Y5.282 E2.821697
G1 X46.413 Y5.285 E2.821808
G1 X46.537 Y5.35 E2.824127
G1 X46.688 Y5.428 E2.826943
G1 X46.719 Y5.444 E2.827521
G1 X47.016 Y5.6 E2.833080
G1 X47.015 Y5.601 E2.833103
G1 X47.123 Y5.658 E2.835127
G1 X47.24 Y5.723 E2.837344
G1 X47.256 Y5.732 E2.837649
G1 X47.479 Y5.857 E2.841884
G1 X47.601 Y5.936 E2.844293
G1 X47.604 Y5.931 E2.844389
G1 X47.86 Y6.084 E2.849331
G1 X47.86 Y6.085 E2.849347
G1 X47.891 Y6.101 E2.849925
G1 X47.92 Y6.121 E2.850509
G1 X48.307 Y5.858 E2.858262
G1 X48.874 Y5.569 E2.868806
G1 X49.473 Y5.353 E2.879357
G1 X50.095 Y5.214 E2.889917
G1 X50.745 Y5.153 E2.900734
G1 X50.884 Y5.149 E2.903038
G1 X51.521 Y5.171 E2.913599
G1 X52.149 Y5.272 E2.924138
G1 X52.76 Y5.451 E2.934687
G1 X53.344 Y5.705 E2.945239
G1 X53.892 Y6.031 E2.955804
G1 X54.37 Y6.401 E2.965819
G1 X54.6 Y6.602 E2.970880
G1 X54.595 Y6.608 E2.971010
G1 X54.854 Y6.837 E2.976738
G1 X54.88 Y6.863 E2.977347
G1 X54.954 Y6.947 E2.979202
G1 X54.957 Y6.944 E2.979272
G1 X55.215 Y7.213 E2.985448
G1 X55.451 Y7.477 E2.991315
G1 X55.456 Y7.483 E2.991444
G1 X55.585 Y7.644 E2.994863
G1 X55.608 Y7.674 E2.995489
G1 X55.64 Y7.717 E2.996377
G1 X55.643 Y7.721 E2.996460
G1 X55.751 Y7.871 E2.999522
G1 X55.951 Y8.159 E3.005332
G1 X56.006 Y8.239 E3.006941
G1 X56.008 Y8.242 E3.007000
G1 X56.059 Y8.32 E3.008545
G1 X56.132 Y8.434 E3.010787
G1 X56.13 Y8.435 E3.010825
G1 X56.161 Y8.48 E3.011730
G1 X56.278 Y8.667 E3.015385
G1 X56.305 Y8.71 E3.016226
G1 X56.477 Y8.991 E3.021685
G1 X56.774 Y9.554 E3.032232
G1 X56.975 Y10.074 E3.041469
G1 X56.987 Y10.111 E3.042113
G1 X57.146 Y10.728 E3.052670
G1 X57.221 Y11.295 E3.062147
G1 X57.242 Y11.573 E3.066766
G1 X57.247 Y11.7 E3.068872
G1 X57.249 Y11.7 E3.068905
G1 X57.264 Y11.994 E3.073783
G1 X57.268 Y12.154 E3.076435
G1 X57.27 Y12.154 E3.076468
G1 X57.276 Y12.451 E3.081390
G1 X57.277 Y12.554 E3.083096
G1 X57.277 Y12.558 E3.083163
G1 X57.276 Y12.661 E3.084869
G1 X57.27 Y12.958 E3.089791
G1 X57.268 Y12.958 E3.089824
G1 X57.264 Y13.129 E3.092658
G1 X57.248 Y13.428 E3.097620
G1 X57.246 Y13.428 E3.097653
G1 X57.242 Y13.528 E3.099311
G1 X57.224 Y13.775 E3.103414
G1 X57.138 Y14.406 E3.113966
G1 X56.973 Y15.021 E3.124516
G1 X56.733 Y15.611 E3.135070
G1 X56.376 Y16.234 E3.146967
G1 X56.325 Y16.31 E3.148484
G1 X55.938 Y16.815 E3.159025
G1 X55.745 Y17.01 E3.163571
G1 X55.745 Y17.109 E3.165212
G1 X55.742 Y17.407 E3.170149
G1 X55.741 Y17.407 E3.170166
G1 X55.74 Y17.482 E3.171409
G1 X55.733 Y17.769 E3.176165
G1 X55.656 Y18.537 E3.188954
G1 X55.651 Y18.565 E3.189425
G1 X55.495 Y19.2 E3.200260
G1 X55.406 Y19.482 E3.205159
G1 X55.374 Y19.564 E3.206618
G1 X55.378 Y19.565 E3.206686
G1 X55.259 Y19.921 E3.212905
G1 X55.244 Y19.966 E3.213691
G1 X55.163 Y20.201 E3.217810
G1 X54.904 Y20.817 E3.228882
G1 X54.891 Y20.843 E3.229363
G1 X54.571 Y21.393 E3.239906
G1 X54.333 Y21.721 E3.246621
G1 X54.11 Y22.003 E3.252578
G1 X54.102 Y21.997 E3.252744
G1 X53.941 Y22.206 E3.257115
G1 X53.876 Y22.28 E3.258747
G1 X53.87 Y22.275 E3.258876
G1 X53.795 Y22.371 E3.260895
G1 X53.587 Y22.597 E3.265984
G1 X53.442 Y22.749 E3.269464
G1 X53.316 Y22.875 E3.272417
G1 X53.127 Y23.043 E3.276607
G1 X53.131 Y23.047 E3.276700
G1 X52.981 Y23.184 E3.280066
G1 X52.958 Y23.205 E3.280582
G1 X52.843 Y23.295 E3.283002
G1 X52.654 Y23.468 E3.287247
G1 X52.313 Y23.736 E3.294433
G1 X51.789 Y24.098 E3.304986
G1 X51.498 Y24.259 E3.310496
G1 X51.463 Y24.277 E3.311148
G1 X50.88 Y24.532 E3.321692
G1 X50.483 Y24.659 E3.328598
G1 X50.202 Y24.736 E3.333425
G1 X50.162 Y24.744 E3.334101
G1 X50.162 Y24.745 E3.334118
G1 X49.869 Y24.823 E3.339142
G1 X49.754 Y24.846 E3.341085
G1 X49.755 Y24.851 E3.341169
G1 X49.458 Y24.923 E3.346233
G1 X49.417 Y24.93 E3.346922
G1 X49.417 Y24.932 E3.346955
G1 X49.136 Y24.998 E3.351738
G1 X48.767 Y25.06 E3.357937
G1 X48.768 Y25.069 E3.358087
G1 X48.749 Y25.072 E3.358406
G1 X48.633 Y25.083 E3.360337
G1 X48.509 Y25.104 E3.362421
G1 X48.333 Y25.111 E3.365339
G1 X48.127 Y25.131 E3.368768
G1 X47.828 Y25.141 E3.373725
G1 X47.707 Y25.143 E3.375730
G1 X47.707 Y25.144 E3.375747
G1 X47.411 Y25.147 E3.380652
G1 X47.307 Y25.147 E3.382375
G1 X47.011 Y25.144 E3.387279
G1 X47.011 Y25.143 E3.387296
G1 X46.894 Y25.141 E3.389235
G1 X46.59 Y25.131 E3.394274
G1 X46.086 Y25.089 E3.402654
G1 X46.071 Y25.087 E3.402905
G1 X45.675 Y25.019 E3.409562
G1 X45.475 Y24.976 E3.412952
G1 X45.475 Y24.975 E3.412968
G1 X45.368 Y24.953 E3.414778
G1 X44.93 Y24.849 E3.422237
G1 X44.832 Y24.819 E3.423935
G1 X44.831 Y24.823 E3.424004
G1 X44.591 Y24.761 E3.428111
G1 X44.592 Y24.757 E3.428179
G1 X44.515 Y24.742 E3.429479
G1 X44.219 Y24.661 E3.434564
G1 X44.165 Y24.646 E3.435492
G1 X44.144 Y24.64 E3.435854
G1 X43.547 Y24.428 E3.446351
G1 X43.268 Y24.309 E3.451377
G1 X43.192 Y24.271 E3.452785
G1 X43.191 Y24.274 E3.452837
G1 X42.897 Y24.143 E3.458170
G1 X42.901 Y24.134 E3.458333
G1 X42.707 Y24.054 E3.461810
G1 X42.608 Y24.005 E3.463640
G1 X42.589 Y23.996 E3.463989
G1 X42.585 Y23.994 E3.464063
G1 X42.486 Y23.943 E3.465908
G1 X42.289 Y23.839 E3.469599
G1 X42.24 Y23.813 E3.470518
G1 X42.026 Y23.697 E3.474551
G1 X42.032 Y23.686 E3.474759
G1 X41.809 Y23.578 E3.478864
G1 X41.682 Y23.501 E3.481325
G1 X41.602 Y23.45 E3.482897
G1 X41.602 Y23.451 E3.482914
G1 X41.35 Y23.292 E3.487851
G1 X41.325 Y23.276 E3.488342
G1 X41.106 Y23.136 E3.492649
G1 X41.086 Y23.121 E3.493063
G1 X41.085 Y23.122 E3.493087
G1 X41.006 Y23.071 E3.494645
G1 X40.977 Y23.049 E3.495248
G1 X40.976 Y23.05 E3.495271
G1 X40.717 Y22.88 E3.500404
G1 X40.717 Y22.881 E3.500421
G1 X40.636 Y22.829 E3.502016
G1 X40.617 Y22.816 E3.502397
G1 X40.408 Y22.681 E3.506520
G1 X40.227 Y22.564 E3.510091
G1 X39.954 Y22.401 E3.515359
G1 X39.954 Y22.4 E3.515376
G1 X39.813 Y22.316 E3.518095
G1 X39.816 Y22.311 E3.518192
G1 X39.75 Y22.278 E3.519414
G1 X39.596 Y22.183 E3.522412
G1 X39.583 Y22.176 E3.522657
G1 X39.28 Y21.988 E3.528565
G1 X39.141 Y21.899 E3.531300
G1 X39.135 Y21.895 E3.531419
G1 X38.933 Y21.753 E3.535511
G1 X38.91 Y21.736 E3.535984
G1 X38.767 Y21.627 E3.538964
G1 X38.498 Y21.413 E3.544659
G1 X38.403 Y21.327 E3.546782
G1 X38.4 Y21.331 E3.546865
G1 X38.308 Y21.254 E3.548853
G1 X38.31 Y21.251 E3.548913
G1 X38.173 Y21.14 E3.551834
G1 X37.971 Y20.959 E3.556328
G1 X37.958 Y20.947 E3.556621
G1 X37.825 Y20.827 E3.559589
G1 X37.718 Y20.718 E3.562120
G1 X37.714 Y20.722 E3.562214
G1 X37.549 Y20.564 E3.565999
G1 X37.551 Y20.562 E3.566046
G1 X37.508 Y20.525 E3.566986
G1 X37.365 Y20.385 E3.570302
G1 X37.349 Y20.371 E3.570654
G1 X37.194 Y20.218 E3.574263
G1 X37.183 Y20.207 E3.574520
G1 X37.034 Y20.059 E3.578000
G1 X37.035 Y20.058 E3.578023
G1 X37.016 Y20.042 E3.578435
G1 X36.636 Y19.661 E3.587351
G1 X36.592 Y19.612 E3.588442
G1 X36.59 Y19.614 E3.588489
G1 X36.52 Y19.542 E3.590153
G1 X36.508 Y19.53 E3.590434
G1 X36.367 Y19.384 E3.593797
G1 X36.368 Y19.383 E3.593820
G1 X36.341 Y19.356 E3.594453
G1 X36.183 Y19.19 E3.598250
G1 X36.16 Y19.166 E3.598801
G1 X36.036 Y19.034 E3.601802
G1 X36.038 Y19.032 E3.601849
G1 X35.938 Y18.926 E3.604263
G1 X35.764 Y18.73 E3.608606
G1 X35.766 Y18.728 E3.608653
G1 X35.677 Y18.63 E3.610846
G1 X35.591 Y18.528 E3.613057
G1 X35.594 Y18.526 E3.613116
G1 X35.537 Y18.463 E3.614524
G1 X35.325 Y18.203 E3.620082
G1 X35.198 Y18.041 E3.623493
G1 X35.195 Y18.037 E3.623576
G1 X35.19 Y18.03 E3.623718
G1 X35.173 Y18.008 E3.624179
G1 X35.17 Y18.004 E3.624262
G1 X35.022 Y17.797 E3.628478
G1 X34.819 Y17.496 E3.634494
G1 X34.823 Y17.494 E3.634568
G1 X34.76 Y17.405 E3.636375
G1 X34.693 Y17.301 E3.638424
G1 X34.695 Y17.3 E3.638461
G1 X34.652 Y17.238 E3.639712
G1 X34.531 Y17.044 E3.643500
G1 X34.483 Y16.965 E3.645032
G1 X34.307 Y16.671 E3.650709
G1 X34.033 Y16.147 E3.660506
G1 X34.024 Y16.127 E3.660870
G1 X33.773 Y15.44 E3.672989
G1 X33.668 Y15.073 E3.679313
G1 X33.663 Y15.049 E3.679720
G1 X33.662 Y15.049 E3.679736
G1 X33.601 Y14.832 E3.683471
G1 X33.595 Y14.81 E3.683849
G1 X33.513 Y14.513 E3.688954
G1 X33.506 Y14.481 E3.689497
G1 X33.46 Y14.311 E3.692415
G1 X33.437 Y14.199 E3.694309
G1 X33.433 Y14.2 E3.694377
G1 X33.403 Y14.079 E3.696443
G1 X33.391 Y14.031 E3.697263
G1 X33.301 Y13.652 E3.703717
G1 X33.29 Y13.59 E3.704760
G1 X33.289 Y13.59 E3.704777
G1 X33.24 Y13.372 E3.708479
G1 X33.235 Y13.35 E3.708853
G1 X33.108 Y12.773 E3.718642
G1 X33.01 Y12.144 E3.729190
G1 X32.994 Y11.466 E3.740427
G1 X32.996 Y11.419 E3.741206
G1 X33.063 Y10.786 E3.751753
G1 X33.246 Y10.045 E3.764399
;;done with one path
M204 S625.000000
M205 X6.000000 Y6.000000
G0 F8571.428571 X33.579 Y10.155
M204 S500.000000
M205 X5.000000 Y5.000000
;Extrusion:3.764399
G1 F1200.000000 X33.638 Y9.975 E3.767538
G1 X33.642 Y9.959 E3.767811
G1 X33.769 Y9.575 E3.774512
G1 X33.771 Y9.569 E3.774617
G1 X33.868 Y9.277 E3.779715
G1 X33.97 Y9.025 E3.784220
G1 X34.024 Y8.871 E3.786924
G1 X34.031 Y8.855 E3.787213
G1 X34.069 Y8.782 E3.788577
G1 X34.099 Y8.708 E3.789900
G1 X34.204 Y8.523 E3.793424
G1 X34.328 Y8.285 E3.797871
G1 X34.504 Y7.997 E3.803463
G1 X34.507 Y7.999 E3.803523
G1 X34.528 Y7.957 E3.804301
G1 X34.651 Y7.76 E3.808149
G1 X34.684 Y7.714 E3.809087
G1 X34.682 Y7.712 E3.809134
G1 X34.748 Y7.609 E3.811161
G1 X34.825 Y7.492 E3.813481
G1 X35.03 Y7.192 E3.819502
G1 X35.078 Y7.123 E3.820895
G1 X35.1 Y7.092 E3.821524
G1 X35.263 Y6.875 E3.826021
G1 X35.267 Y6.87 E3.826127
G1 X35.343 Y6.778 E3.828104
G1 X35.562 Y6.518 E3.833737
G1 X35.564 Y6.52 E3.833784
G1 X35.587 Y6.494 E3.834359
G1 X35.633 Y6.434 E3.835612
G1 X35.715 Y6.341 E3.837666
G1 X35.719 Y6.344 E3.837749
G1 X35.87 Y6.172 E3.841541
G1 X36.062 Y5.974 E3.846111
G1 X36.113 Y5.922 E3.847318
G1 X36.148 Y5.887 E3.848138
G1 X36.251 Y5.786 E3.850528
G1 X36.4 Y5.651 E3.853859
G1 X36.398 Y5.649 E3.853906
G1 X36.615 Y5.453 E3.858751
G1 X36.617 Y5.456 E3.858811
G1 X36.729 Y5.353 E3.861332
G1 X36.801 Y5.292 E3.862896
G1 X36.946 Y5.176 E3.865972
G1 X36.945 Y5.174 E3.866009
G1 X37.222 Y4.957 E3.871840
G1 X37.729 Y4.611 E3.882010
G1 X38.541 Y4.229 E3.896878
G1 X38.594 Y4.21 E3.897811
G1 X39.185 Y4.041 E3.907996
G1 X39.928 Y3.94 E3.920420
G1 X40.199 Y3.925 E3.924917
G1 X40.303 Y3.922 E3.926641
G1 X40.303 Y3.921 E3.926658
G1 X40.602 Y3.911 E3.931614
G1 X40.747 Y3.908 E3.934017
G1 X41.039 Y3.907 E3.938856
G1 X41.058 Y3.907 E3.939170
G1 X41.216 Y3.91 E3.941789
G1 X41.515 Y3.92 E3.946746
G1 X41.515 Y3.921 E3.946762
G1 X41.617 Y3.924 E3.948453
G1 X41.909 Y3.94 E3.953298
G1 X42.577 Y4.025 E3.964456
G1 X42.602 Y4.03 E3.964878
G1 X43.067 Y4.148 E3.972827
G1 X43.346 Y4.234 E3.977664
G1 X43.43 Y4.266 E3.979154
G1 X43.431 Y4.262 E3.979222
G1 X43.735 Y4.362 E3.984524
G1 X43.735 Y4.363 E3.984541
G1 X43.804 Y4.384 E3.985736
G1 X44.099 Y4.486 E3.990908
G1 X44.668 Y4.726 E4.001140
G1 X44.682 Y4.733 E4.001399
G1 X44.916 Y4.858 E4.005795
G1 X45.206 Y5.024 E4.011331
G1 X45.215 Y5.029 E4.011502
G1 X45.432 Y5.154 E4.015651
G1 X45.467 Y5.174 E4.016319
G1 X45.747 Y5.329 E4.021622
G1 X45.838 Y5.379 E4.023342
G1 X45.946 Y5.436 E4.025366
G1 X46.245 Y5.592 E4.030954
G1 X46.25 Y5.595 E4.031050
G1 X46.377 Y5.661 E4.033422
G1 X46.528 Y5.739 E4.036238
G1 X46.556 Y5.754 E4.036764
G1 X46.853 Y5.91 E4.042322
G1 X46.852 Y5.911 E4.042346
G1 X46.953 Y5.964 E4.044236
G1 X47.07 Y6.029 E4.046453
G1 X47.085 Y6.037 E4.046735
G1 X47.308 Y6.162 E4.050971
G1 X47.421 Y6.236 E4.053209
G1 X47.424 Y6.231 E4.053305
G1 X47.68 Y6.384 E4.058247
G1 X47.679 Y6.386 E4.058284
G1 X47.728 Y6.412 E4.059203
G1 X47.846 Y6.495 E4.061593
G1 X47.935 Y6.547 E4.063301
G1 X48.012 Y6.48 E4.064993
G1 X48.522 Y6.138 E4.075167
G1 X49.073 Y5.865 E4.085355
G1 X49.654 Y5.666 E4.095531
G1 X50.257 Y5.544 E4.105725
G1 X50.755 Y5.503 E4.114004
G1 X50.894 Y5.499 E4.116308
G1 X51.508 Y5.521 E4.126488
G1 X52.114 Y5.623 E4.136670
G1 X52.702 Y5.803 E4.146859
G1 X53.261 Y6.057 E4.157032
G1 X53.783 Y6.382 E4.167220
G1 X54.139 Y6.664 E4.174745
G1 X54.369 Y6.865 E4.179806
G1 X54.365 Y6.87 E4.179912
G1 X54.606 Y7.085 E4.185263
G1 X54.632 Y7.111 E4.185873
G1 X54.701 Y7.189 E4.187598
G1 X54.704 Y7.186 E4.187668
G1 X54.962 Y7.455 E4.193844
G1 X55.182 Y7.701 E4.199312
G1 X55.187 Y7.707 E4.199442
G1 X55.307 Y7.857 E4.202625
G1 X55.33 Y7.887 E4.203251
G1 X55.363 Y7.931 E4.204162
G1 X55.464 Y8.071 E4.207022
G1 X55.664 Y8.359 E4.212832
G1 X55.714 Y8.433 E4.214312
G1 X55.716 Y8.436 E4.214372
G1 X55.764 Y8.509 E4.215819
G1 X55.837 Y8.623 E4.218062
G1 X55.836 Y8.624 E4.218086
G1 X55.865 Y8.666 E4.218931
G1 X55.982 Y8.853 E4.222586
G1 X56.006 Y8.892 E4.223345
G1 X56.178 Y9.173 E4.228804
G1 X56.464 Y9.717 E4.238987
G1 X56.643 Y10.182 E4.247243
G1 X56.655 Y10.219 E4.247887
G1 X56.806 Y10.815 E4.258074
G1 X56.872 Y11.321 E4.266529
G1 X56.893 Y11.599 E4.271148
G1 X56.897 Y11.718 E4.273121
G1 X56.9 Y11.718 E4.273171
G1 X56.915 Y12.012 E4.278049
G1 X56.919 Y12.162 E4.280535
G1 X56.92 Y12.162 E4.280551
G1 X56.926 Y12.459 E4.285473
G1 X56.927 Y12.554 E4.287048
G1 X56.927 Y12.558 E4.287114
G1 X56.926 Y12.653 E4.288688
G1 X56.92 Y12.95 E4.293610
G1 X56.918 Y12.95 E4.293643
G1 X56.914 Y13.11 E4.296295
G1 X56.898 Y13.409 E4.301256
G1 X56.896 Y13.409 E4.301289
G1 X56.893 Y13.502 E4.302831
G1 X56.875 Y13.749 E4.306934
G1 X56.79 Y14.358 E4.317123
G1 X56.627 Y14.951 E4.327313
G1 X56.389 Y15.517 E4.337486
G1 X56.085 Y16.039 E4.347495
G1 X56.034 Y16.115 E4.349011
G1 X55.66 Y16.602 E4.359185
G1 X55.394 Y16.868 E4.365418
G1 X55.395 Y17.008 E4.367738
G1 X55.395 Y17.106 E4.369362
G1 X55.392 Y17.404 E4.374299
G1 X55.391 Y17.473 E4.375443
G1 X55.384 Y17.76 E4.380199
G1 X55.311 Y18.476 E4.392124
G1 X55.306 Y18.504 E4.392596
G1 X55.161 Y19.095 E4.402678
G1 X55.072 Y19.377 E4.407578
G1 X55.042 Y19.453 E4.408932
G1 X55.046 Y19.454 E4.409000
G1 X54.927 Y19.81 E4.415219
G1 X54.913 Y19.852 E4.415953
G1 X54.832 Y20.087 E4.420071
G1 X54.591 Y20.66 E4.430371
G1 X54.578 Y20.686 E4.430853
G1 X54.268 Y21.217 E4.441040
G1 X54.058 Y21.504 E4.446933
G1 X53.835 Y21.786 E4.452890
G1 X53.828 Y21.781 E4.453032
G1 X53.678 Y21.975 E4.457095
G1 X53.613 Y22.049 E4.458727
G1 X53.608 Y22.045 E4.458833
G1 X53.538 Y22.134 E4.460709
G1 X53.33 Y22.36 E4.465799
G1 X53.194 Y22.501 E4.469044
G1 X53.192 Y22.503 E4.469091
G1 X53.067 Y22.629 E4.472032
G1 X52.891 Y22.785 E4.475929
G1 X52.895 Y22.789 E4.476022
G1 X52.722 Y22.947 E4.479904
G1 X52.659 Y22.996 E4.481227
G1 X52.438 Y23.193 E4.486132
G1 X52.097 Y23.461 E4.493318
G1 X51.338 Y23.948 E4.508260
G1 X51.303 Y23.966 E4.508912
G1 X50.739 Y24.211 E4.519101
G1 X50.391 Y24.321 E4.525148
G1 X50.11 Y24.398 E4.529976
G1 X50.072 Y24.406 E4.530619
G1 X50.072 Y24.407 E4.530636
G1 X49.779 Y24.485 E4.535659
G1 X49.671 Y24.506 E4.537482
G1 X49.672 Y24.511 E4.537567
G1 X49.375 Y24.583 E4.542630
G1 X49.337 Y24.59 E4.543271
G1 X49.337 Y24.591 E4.543287
G1 X49.056 Y24.657 E4.548070
G1 X48.712 Y24.714 E4.553847
G1 X48.713 Y24.723 E4.553997
G1 X48.694 Y24.726 E4.554316
G1 X48.573 Y24.737 E4.556329
G1 X48.45 Y24.758 E4.558397
G1 X48.301 Y24.763 E4.560867
G1 X48.115 Y24.781 E4.563963
G1 X47.816 Y24.791 E4.568920
G1 X47.704 Y24.793 E4.570776
G1 X47.704 Y24.794 E4.570792
G1 X47.408 Y24.797 E4.575697
G1 X47.31 Y24.797 E4.577321
G1 X47.014 Y24.794 E4.582226
G1 X47.014 Y24.793 E4.582242
G1 X46.906 Y24.791 E4.584032
G1 X46.602 Y24.781 E4.589072
G1 X46.133 Y24.743 E4.596868
G1 X46.118 Y24.741 E4.597119
G1 X45.749 Y24.676 E4.603327
G1 X45.549 Y24.633 E4.606716
G1 X45.55 Y24.627 E4.606817
G1 X45.448 Y24.612 E4.608525
G1 X45.01 Y24.508 E4.615984
G1 X44.919 Y24.48 E4.617562
G1 X44.918 Y24.484 E4.617630
G1 X44.678 Y24.422 E4.621737
G1 X44.679 Y24.418 E4.621805
G1 X44.608 Y24.404 E4.623004
G1 X44.312 Y24.323 E4.628089
G1 X44.261 Y24.309 E4.628965
G1 X44.24 Y24.303 E4.629327
G1 X43.684 Y24.106 E4.639101
G1 X43.405 Y23.987 E4.644127
G1 X43.335 Y23.952 E4.645423
G1 X43.334 Y23.954 E4.645460
G1 X43.04 Y23.823 E4.650793
G1 X43.043 Y23.816 E4.650919
G1 X42.862 Y23.741 E4.654166
G1 X42.763 Y23.692 E4.655996
G1 X42.746 Y23.683 E4.656315
G1 X42.742 Y23.681 E4.656389
G1 X42.649 Y23.633 E4.658123
G1 X42.452 Y23.529 E4.661814
G1 X42.406 Y23.505 E4.662674
G1 X42.192 Y23.389 E4.666707
G1 X42.195 Y23.383 E4.666818
G1 X41.99 Y23.278 E4.670634
G1 X41.863 Y23.201 E4.673095
G1 X41.79 Y23.154 E4.674533
G1 X41.789 Y23.155 E4.674557
G1 X41.537 Y22.996 E4.679494
G1 X41.513 Y22.981 E4.679963
G1 X41.294 Y22.841 E4.684270
G1 X41.275 Y22.827 E4.684661
G1 X41.275 Y22.828 E4.684677
G1 X41.196 Y22.777 E4.686235
G1 X41.169 Y22.757 E4.686792
G1 X41.168 Y22.758 E4.686815
G1 X40.869 Y22.562 E4.692739
G1 X40.825 Y22.534 E4.693603
G1 X40.807 Y22.523 E4.693953
G1 X40.588 Y22.381 E4.698277
G1 X40.404 Y22.262 E4.701908
G1 X40.396 Y22.257 E4.702064
G1 X40.395 Y22.256 E4.702088
G1 X40.136 Y22.101 E4.707089
G1 X40.136 Y22.102 E4.707105
G1 X39.992 Y22.016 E4.709884
G1 X39.995 Y22.011 E4.709981
G1 X39.933 Y21.98 E4.711130
G1 X39.779 Y21.885 E4.714128
G1 X39.768 Y21.879 E4.714335
G1 X39.465 Y21.691 E4.720244
G1 X39.335 Y21.607 E4.722808
G1 X39.329 Y21.603 E4.722927
G1 X39.142 Y21.472 E4.726711
G1 X39.119 Y21.455 E4.727184
G1 X38.985 Y21.353 E4.729975
G1 X38.716 Y21.139 E4.735670
G1 X38.641 Y21.071 E4.737347
G1 X38.626 Y21.059 E4.737666
G1 X38.624 Y21.062 E4.737726
G1 X38.532 Y20.985 E4.739713
G1 X38.534 Y20.983 E4.739760
G1 X38.407 Y20.879 E4.742480
G1 X38.205 Y20.698 E4.746974
G1 X38.193 Y20.687 E4.747244
G1 X38.06 Y20.567 E4.750212
G1 X37.961 Y20.465 E4.752567
G1 X37.956 Y20.47 E4.752684
G1 X37.791 Y20.312 E4.756469
G1 X37.793 Y20.31 E4.756516
G1 X37.753 Y20.275 E4.757397
G1 X37.61 Y20.135 E4.760713
G1 X37.595 Y20.122 E4.761041
G1 X37.44 Y19.969 E4.764650
G1 X37.429 Y19.958 E4.764908
G1 X37.28 Y19.81 E4.768388
G1 X37.281 Y19.809 E4.768411
G1 X37.264 Y19.795 E4.768776
G1 X36.884 Y19.414 E4.777692
G1 X36.843 Y19.368 E4.778713
G1 X36.841 Y19.37 E4.778760
G1 X36.771 Y19.298 E4.780423
G1 X36.76 Y19.286 E4.780693
G1 X36.619 Y19.14 E4.784056
G1 X36.594 Y19.115 E4.784642
G1 X36.436 Y18.949 E4.788439
G1 X36.415 Y18.926 E4.788955
G1 X36.291 Y18.794 E4.791956
G1 X36.293 Y18.792 E4.792003
G1 X36.2 Y18.694 E4.794241
G1 X36.026 Y18.498 E4.798584
G1 X36.028 Y18.496 E4.798631
G1 X35.945 Y18.405 E4.800671
G1 X35.859 Y18.303 E4.802882
G1 X35.861 Y18.301 E4.802929
G1 X35.808 Y18.242 E4.804243
G1 X35.596 Y17.982 E4.809801
G1 X35.478 Y17.831 E4.812977
G1 X35.469 Y17.819 E4.813225
G1 X35.453 Y17.798 E4.813663
G1 X35.45 Y17.794 E4.813746
G1 X35.313 Y17.601 E4.817667
G1 X35.11 Y17.3 E4.823683
G1 X35.112 Y17.298 E4.823729
G1 X35.054 Y17.216 E4.825394
G1 X34.987 Y17.112 E4.827443
G1 X34.989 Y17.111 E4.827480
G1 X34.949 Y17.053 E4.828648
G1 X34.828 Y16.859 E4.832436
G1 X34.783 Y16.785 E4.833871
G1 X34.607 Y16.491 E4.839549
G1 X34.352 Y16.003 E4.848672
G1 X34.343 Y15.983 E4.849035
G1 X34.109 Y15.344 E4.860310
G1 X34.004 Y14.977 E4.866635
G1 X33.999 Y14.955 E4.867009
G1 X33.938 Y14.738 E4.870744
G1 X33.932 Y14.716 E4.871121
G1 X33.85 Y14.419 E4.876227
G1 X33.844 Y14.389 E4.876733
G1 X33.798 Y14.219 E4.879651
G1 X33.777 Y14.115 E4.881409
G1 X33.773 Y14.116 E4.881478
G1 X33.743 Y13.995 E4.883543
G1 X33.732 Y13.95 E4.884311
G1 X33.642 Y13.571 E4.890765
G1 X33.632 Y13.513 E4.891740
G1 X33.63 Y13.513 E4.891773
G1 X33.581 Y13.295 E4.895476
G1 X33.576 Y13.275 E4.895817
G1 X33.449 Y12.698 E4.905606
G1 X33.357 Y12.09 E4.915795
G1 X33.343 Y11.481 E4.925888
G1 X33.345 Y11.434 E4.926667
G1 X33.411 Y10.823 E4.936850
G1 X33.579 Y10.155 E4.948263
;;done with one path
M204 S625.000000
M205 X6.000000 Y6.000000
G0 F8571.428571 X33.911 Y10.265
M204 S500.000000
M205 X5.000000 Y5.000000
;Extrusion:4.948263
G1 F1200.000000 X33.969 Y10.088 E4.951349
G1 X33.974 Y10.069 E4.951674
G1 X34.101 Y9.685 E4.958376
G1 X34.103 Y9.68 E4.958465
G1 X34.2 Y9.388 E4.963563
G1 X34.286 Y9.177 E4.967338
G1 X34.345 Y9.011 E4.970257
G1 X34.352 Y8.995 E4.970547
G1 X34.394 Y8.915 E4.972044
G1 X34.424 Y8.841 E4.973367
G1 X34.514 Y8.685 E4.976351
G1 X34.627 Y8.468 E4.980405
G1 X34.803 Y8.18 E4.985997
G1 X34.805 Y8.181 E4.986034
G1 X34.825 Y8.142 E4.986760
G1 X34.948 Y7.945 E4.990608
G1 X34.979 Y7.903 E4.991473
G1 X34.976 Y7.901 E4.991533
G1 X35.042 Y7.798 E4.993560
G1 X35.114 Y7.69 E4.995711
G1 X35.319 Y7.39 E5.001731
G1 X35.363 Y7.326 E5.003018
G1 X35.385 Y7.295 E5.003648
G1 X35.537 Y7.094 E5.007823
G1 X35.541 Y7.089 E5.007929
G1 X35.611 Y7.004 E5.009754
G1 X35.83 Y6.744 E5.015386
G1 X35.833 Y6.746 E5.015446
G1 X35.835 Y6.744 E5.015493
G1 X35.848 Y6.725 E5.015874
G1 X35.86 Y6.711 E5.016180
G1 X35.895 Y6.666 E5.017124
G1 X35.977 Y6.573 E5.019179
G1 X35.98 Y6.575 E5.019238
G1 X36.121 Y6.415 E5.022772
G1 X36.313 Y6.217 E5.027342
G1 X36.36 Y6.169 E5.028455
G1 X36.362 Y6.167 E5.028502
G1 X36.393 Y6.137 E5.029216
G1 X36.496 Y6.036 E5.031607
G1 X36.634 Y5.911 E5.034692
G1 X36.632 Y5.908 E5.034751
G1 X36.849 Y5.712 E5.039596
G1 X36.852 Y5.715 E5.039667
G1 X36.955 Y5.62 E5.041988
G1 X37.027 Y5.559 E5.043552
G1 X37.162 Y5.451 E5.046416
G1 X37.161 Y5.45 E5.046440
G1 X37.438 Y5.233 E5.052270
G1 X37.927 Y4.901 E5.062063
G1 X38.66 Y4.559 E5.075465
G1 X38.713 Y4.54 E5.076398
G1 X39.281 Y4.378 E5.086185
G1 X39.947 Y4.29 E5.097315
G1 X40.218 Y4.275 E5.101813
G1 X40.315 Y4.272 E5.103421
G1 X40.315 Y4.27 E5.103454
G1 X40.614 Y4.26 E5.108411
G1 X40.748 Y4.258 E5.110631
G1 X41.04 Y4.257 E5.115469
G1 X41.058 Y4.257 E5.115767
G1 X41.204 Y4.259 E5.118187
G1 X41.503 Y4.269 E5.123144
G1 X41.503 Y4.271 E5.123177
G1 X41.597 Y4.274 E5.124735
G1 X41.889 Y4.29 E5.129580
G1 X42.508 Y4.368 E5.139918
G1 X42.533 Y4.373 E5.140340
G1 X42.964 Y4.482 E5.147706
G1 X43.243 Y4.568 E5.152544
G1 X43.321 Y4.598 E5.153928
G1 X43.322 Y4.594 E5.153997
G1 X43.626 Y4.694 E5.159299
G1 X43.624 Y4.699 E5.159388
G1 X43.69 Y4.715 E5.160513
G1 X43.985 Y4.817 E5.165685
G1 X44.512 Y5.039 E5.175160
G1 X44.526 Y5.046 E5.175420
G1 X44.742 Y5.162 E5.179482
G1 X45.032 Y5.328 E5.185018
G1 X45.04 Y5.332 E5.185167
G1 X45.25 Y5.453 E5.189182
G1 X45.306 Y5.485 E5.190251
G1 X45.556 Y5.623 E5.194982
G1 X45.697 Y5.7 E5.197644
G1 X45.784 Y5.746 E5.199275
G1 X46.083 Y5.902 E5.204863
G1 X46.088 Y5.905 E5.204959
G1 X46.216 Y5.972 E5.207353
G1 X46.367 Y6.05 E5.210169
G1 X46.393 Y6.064 E5.210658
G1 X46.69 Y6.22 E5.216217
G1 X46.69 Y6.221 E5.216234
G1 X46.783 Y6.27 E5.217975
G1 X46.9 Y6.335 E5.220193
G1 X46.914 Y6.343 E5.220460
G1 X47.137 Y6.468 E5.224696
G1 X47.241 Y6.536 E5.226755
G1 X47.244 Y6.532 E5.226838
G1 X47.5 Y6.685 E5.231779
G1 X47.499 Y6.687 E5.231816
G1 X47.565 Y6.722 E5.233054
G1 X47.682 Y6.805 E5.235431
G1 X47.76 Y6.851 E5.236931
G1 X47.954 Y6.995 E5.240934
G1 X48.243 Y6.744 E5.247276
G1 X48.737 Y6.418 E5.257083
G1 X49.27 Y6.163 E5.266873
G1 X49.832 Y5.981 E5.276661
G1 X50.414 Y5.877 E5.286457
G1 X50.765 Y5.853 E5.292286
G1 X50.904 Y5.849 E5.294590
G1 X51.495 Y5.872 E5.304390
G1 X52.077 Y5.974 E5.314180
G1 X52.641 Y6.154 E5.323989
G1 X53.174 Y6.409 E5.333779
G1 X53.669 Y6.732 E5.343572
G1 X53.909 Y6.928 E5.348707
G1 X54.139 Y7.129 E5.353768
G1 X54.136 Y7.133 E5.353850
G1 X54.359 Y7.332 E5.358803
G1 X54.385 Y7.358 E5.359412
G1 X54.449 Y7.431 E5.361020
G1 X54.451 Y7.429 E5.361067
G1 X54.709 Y7.698 E5.367243
G1 X54.913 Y7.925 E5.372300
G1 X54.918 Y7.931 E5.372429
G1 X55.029 Y8.07 E5.375376
G1 X55.052 Y8.1 E5.376003
G1 X55.08 Y8.137 E5.376772
G1 X55.083 Y8.141 E5.376854
G1 X55.176 Y8.271 E5.379503
G1 X55.376 Y8.559 E5.385312
G1 X55.423 Y8.627 E5.386682
G1 X55.425 Y8.63 E5.386742
G1 X55.469 Y8.698 E5.388084
G1 X55.542 Y8.812 E5.390327
G1 X55.541 Y8.812 E5.390343
G1 X55.568 Y8.851 E5.391129
G1 X55.685 Y9.038 E5.394784
G1 X55.707 Y9.075 E5.395497
G1 X55.879 Y9.356 E5.400956
G1 X56.153 Y9.88 E5.410754
G1 X56.31 Y10.29 E5.418028
G1 X56.322 Y10.327 E5.418672
G1 X56.466 Y10.901 E5.428478
G1 X56.523 Y11.347 E5.435928
G1 X56.544 Y11.625 E5.440547
G1 X56.548 Y11.736 E5.442387
G1 X56.55 Y11.736 E5.442420
G1 X56.565 Y12.03 E5.447298
G1 X56.569 Y12.169 E5.449602
G1 X56.57 Y12.169 E5.449619
G1 X56.576 Y12.466 E5.454541
G1 X56.577 Y12.554 E5.455999
G1 X56.577 Y12.558 E5.456065
G1 X56.576 Y12.646 E5.457523
G1 X56.57 Y12.943 E5.462445
G1 X56.569 Y12.943 E5.462462
G1 X56.565 Y13.092 E5.464931
G1 X56.549 Y13.391 E5.469893
G1 X56.546 Y13.391 E5.469942
G1 X56.543 Y13.477 E5.471368
G1 X56.525 Y13.724 E5.475472
G1 X56.443 Y14.309 E5.485259
G1 X56.282 Y14.878 E5.495057
G1 X56.046 Y15.42 E5.504852
G1 X55.795 Y15.844 E5.513016
G1 X55.744 Y15.92 E5.514532
G1 X55.382 Y16.387 E5.524322
G1 X55.042 Y16.722 E5.532231
G1 X55.042 Y16.759 E5.532844
G1 X55.045 Y17.012 E5.537036
G1 X55.045 Y17.102 E5.538527
G1 X55.042 Y17.4 E5.543465
G1 X55.041 Y17.465 E5.544542
G1 X55.034 Y17.752 E5.549299
G1 X54.967 Y18.414 E5.560324
G1 X54.962 Y18.442 E5.560795
G1 X54.827 Y18.99 E5.570146
G1 X54.738 Y19.272 E5.575046
G1 X54.711 Y19.342 E5.576289
G1 X54.714 Y19.343 E5.576341
G1 X54.595 Y19.699 E5.582561
G1 X54.582 Y19.738 E5.583242
G1 X54.501 Y19.973 E5.587360
G1 X54.278 Y20.504 E5.596903
G1 X54.265 Y20.53 E5.597385
G1 X53.966 Y21.039 E5.607166
G1 X53.784 Y21.287 E5.612262
G1 X53.561 Y21.569 E5.618219
G1 X53.555 Y21.564 E5.618349
G1 X53.415 Y21.744 E5.622127
G1 X53.35 Y21.818 E5.623759
G1 X53.345 Y21.814 E5.623865
G1 X53.28 Y21.897 E5.625612
G1 X53.072 Y22.123 E5.630701
G1 X52.947 Y22.254 E5.633701
G1 X52.819 Y22.382 E5.636700
G1 X52.655 Y22.526 E5.640317
G1 X52.659 Y22.53 E5.640410
G1 X52.548 Y22.631 E5.642897
G1 X52.53 Y22.651 E5.643343
G1 X52.221 Y22.918 E5.650109
G1 X51.88 Y23.186 E5.657295
G1 X51.178 Y23.637 E5.671120
G1 X51.143 Y23.655 E5.671772
G1 X50.6 Y23.889 E5.681569
G1 X50.298 Y23.983 E5.686810
G1 X50.017 Y24.06 E5.691637
G1 X49.981 Y24.067 E5.692245
G1 X49.981 Y24.069 E5.692278
G1 X49.688 Y24.147 E5.697302
G1 X49.589 Y24.166 E5.698972
G1 X49.59 Y24.171 E5.699056
G1 X49.293 Y24.243 E5.704120
G1 X49.257 Y24.249 E5.704725
G1 X49.257 Y24.25 E5.704741
G1 X48.976 Y24.316 E5.709524
G1 X48.657 Y24.369 E5.714882
G1 X48.658 Y24.377 E5.715015
G1 X48.639 Y24.38 E5.715334
G1 X48.513 Y24.392 E5.717431
G1 X48.393 Y24.412 E5.719447
G1 X48.274 Y24.415 E5.721419
G1 X48.103 Y24.432 E5.724266
G1 X47.804 Y24.442 E5.729223
G1 X47.7 Y24.443 E5.730947
G1 X47.7 Y24.444 E5.730963
G1 X47.404 Y24.447 E5.735868
G1 X47.314 Y24.447 E5.737359
G1 X47.018 Y24.444 E5.742264
G1 X47.018 Y24.443 E5.742280
G1 X46.917 Y24.442 E5.743954
G1 X46.613 Y24.432 E5.748994
G1 X46.179 Y24.396 E5.756209
G1 X46.164 Y24.394 E5.756460
G1 X45.822 Y24.334 E5.762213
G1 X45.622 Y24.291 E5.765603
G1 X45.623 Y24.287 E5.765671
G1 X45.529 Y24.272 E5.767248
G1 X45.091 Y24.168 E5.774707
G1 X45.007 Y24.142 E5.776164
G1 X45.006 Y24.145 E5.776216
G1 X44.766 Y24.083 E5.780323
G1 X44.767 Y24.081 E5.780361
G1 X44.7 Y24.067 E5.781495
G1 X44.404 Y23.986 E5.786579
G1 X44.357 Y23.973 E5.787387
G1 X44.336 Y23.967 E5.787749
G1 X43.822 Y23.784 E5.796789
G1 X43.543 Y23.665 E5.801815
G1 X43.477 Y23.631 E5.803045
G1 X43.476 Y23.634 E5.803098
G1 X43.182 Y23.503 E5.808430
G1 X43.185 Y23.497 E5.808542
G1 X43.017 Y23.427 E5.811557
G1 X42.918 Y23.378 E5.813387
G1 X42.898 Y23.368 E5.813758
G1 X42.813 Y23.324 E5.815344
G1 X42.616 Y23.22 E5.819035
G1 X42.573 Y23.197 E5.819843
G1 X42.359 Y23.081 E5.823876
G1 X42.36 Y23.08 E5.823899
G1 X42.172 Y22.979 E5.827435
G1 X42.045 Y22.902 E5.829896
G1 X41.976 Y22.858 E5.831252
G1 X41.975 Y22.859 E5.831276
G1 X41.723 Y22.7 E5.836213
G1 X41.702 Y22.686 E5.836631
G1 X41.483 Y22.546 E5.840937
G1 X41.466 Y22.533 E5.841292
G1 X41.465 Y22.534 E5.841316
G1 X41.386 Y22.483 E5.842874
G1 X41.36 Y22.464 E5.843407
G1 X41.359 Y22.465 E5.843431
G1 X41.095 Y22.292 E5.848660
G1 X41.014 Y22.24 E5.850255
G1 X40.998 Y22.229 E5.850577
G1 X40.779 Y22.087 E5.854901
G1 X40.58 Y21.959 E5.858822
G1 X40.314 Y21.8 E5.863957
G1 X40.172 Y21.715 E5.866699
G1 X40.174 Y21.712 E5.866758
G1 X40.117 Y21.683 E5.867818
G1 X39.963 Y21.588 E5.870816
G1 X39.952 Y21.582 E5.871024
G1 X39.649 Y21.394 E5.876932
G1 X39.529 Y21.316 E5.879303
G1 X39.523 Y21.312 E5.879423
G1 X39.35 Y21.19 E5.882930
G1 X39.327 Y21.173 E5.883404
G1 X39.203 Y21.079 E5.885982
G1 X38.934 Y20.865 E5.891678
G1 X38.885 Y20.821 E5.892769
G1 X38.851 Y20.792 E5.893509
G1 X38.849 Y20.794 E5.893556
G1 X38.757 Y20.717 E5.895544
G1 X38.758 Y20.716 E5.895567
G1 X38.64 Y20.618 E5.898109
G1 X38.438 Y20.437 E5.902603
G1 X38.427 Y20.427 E5.902849
G1 X38.294 Y20.307 E5.905817
G1 X38.202 Y20.212 E5.908008
G1 X38.198 Y20.217 E5.908115
G1 X38.033 Y20.059 E5.911900
G1 X38.034 Y20.058 E5.911923
G1 X37.997 Y20.025 E5.912745
G1 X37.854 Y19.885 E5.916060
G1 X37.841 Y19.873 E5.916354
G1 X37.686 Y19.72 E5.919962
G1 X37.676 Y19.71 E5.920197
G1 X37.527 Y19.562 E5.923676
G1 X37.511 Y19.548 E5.924028
G1 X37.131 Y19.167 E5.932944
G1 X37.094 Y19.124 E5.933884
G1 X37.092 Y19.126 E5.933931
G1 X37.022 Y19.054 E5.935595
G1 X37.012 Y19.043 E5.935841
G1 X36.871 Y18.897 E5.939204
G1 X36.848 Y18.873 E5.939755
G1 X36.69 Y18.707 E5.943552
G1 X36.67 Y18.686 E5.944033
G1 X36.546 Y18.554 E5.947033
G1 X36.547 Y18.553 E5.947057
G1 X36.461 Y18.462 E5.949131
G1 X36.287 Y18.266 E5.953474
G1 X36.29 Y18.264 E5.953534
G1 X36.212 Y18.179 E5.955445
G1 X36.126 Y18.077 E5.957656
G1 X36.128 Y18.075 E5.957703
G1 X36.079 Y18.021 E5.958911
G1 X35.867 Y17.761 E5.964469
G1 X35.769 Y17.636 E5.967101
G1 X35.747 Y17.607 E5.967704
G1 X35.733 Y17.588 E5.968095
G1 X35.73 Y17.584 E5.968178
G1 X35.603 Y17.405 E5.971815
G1 X35.4 Y17.104 E5.977830
G1 X35.402 Y17.103 E5.977867
G1 X35.348 Y17.026 E5.979425
G1 X35.281 Y16.922 E5.981475
G1 X35.283 Y16.921 E5.981512
G1 X35.246 Y16.867 E5.982597
G1 X35.125 Y16.673 E5.986385
G1 X35.083 Y16.605 E5.987710
G1 X34.907 Y16.311 E5.993387
G1 X34.671 Y15.859 E6.001836
G1 X34.662 Y15.839 E6.002199
G1 X34.446 Y15.247 E6.012640
G1 X34.341 Y14.88 E6.018965
G1 X34.337 Y14.86 E6.019303
G1 X34.336 Y14.86 E6.019320
G1 X34.275 Y14.643 E6.023054
G1 X34.27 Y14.623 E6.023396
G1 X34.188 Y14.326 E6.028501
G1 X34.182 Y14.298 E6.028975
G1 X34.136 Y14.128 E6.031894
G1 X34.117 Y14.031 E6.033531
G1 X34.113 Y14.032 E6.033600
G1 X34.083 Y13.911 E6.035665
G1 X34.072 Y13.869 E6.036384
G1 X33.982 Y13.49 E6.042839
G1 X33.973 Y13.436 E6.043746
G1 X33.971 Y13.436 E6.043779
G1 X33.922 Y13.218 E6.047481
G1 X33.918 Y13.199 E6.047803
G1 X33.791 Y12.622 E6.057592
G1 X33.703 Y12.038 E6.067377
G1 X33.693 Y11.496 E6.076359
G1 X33.695 Y11.449 E6.077139
G1 X33.76 Y10.861 E6.086941
G1 X33.911 Y10.265 E6.097128
;;done with one path
M204 S625.000000
M205 X6.000000 Y6.000000
G0 F8571.428571 X34.244 Y10.374
M204 S500.000000
M205 X5.000000 Y5.000000
;Extrusion:6.097128
G1 F1200.000000 X34.302 Y10.199 E6.100182
G1 X34.307 Y10.179 E6.100524
G1 X34.434 Y9.795 E6.107225
G1 X34.435 Y9.79 E6.107310
G1 X34.532 Y9.498 E6.112408
G1 X34.597 Y9.34 E6.115239
G1 X34.665 Y9.152 E6.118551
G1 X34.672 Y9.136 E6.118841
G1 X34.716 Y9.051 E6.120427
G1 X34.748 Y8.974 E6.121808
G1 X34.825 Y8.843 E6.124326
G1 X34.926 Y8.65 E6.127935
G1 X35.102 Y8.362 E6.133527
G1 X35.103 Y8.363 E6.133551
G1 X35.122 Y8.327 E6.134225
G1 X35.245 Y8.13 E6.138073
G1 X35.274 Y8.091 E6.138879
G1 X35.271 Y8.089 E6.138938
G1 X35.337 Y7.986 E6.140965
G1 X35.403 Y7.887 E6.142937
G1 X35.608 Y7.587 E6.148957
G1 X35.649 Y7.529 E6.150134
G1 X35.671 Y7.498 E6.150764
G1 X35.81 Y7.313 E6.154598
G1 X35.814 Y7.308 E6.154704
G1 X35.879 Y7.229 E6.156399
G1 X36.098 Y6.969 E6.162032
G1 X36.1 Y6.971 E6.162078
G1 X36.158 Y6.897 E6.163636
G1 X36.24 Y6.804 E6.165691
G1 X36.242 Y6.806 E6.165737
G1 X36.372 Y6.659 E6.168989
G1 X36.564 Y6.461 E6.173559
G1 X36.638 Y6.387 E6.175293
G1 X36.741 Y6.286 E6.177683
G1 X36.869 Y6.17 E6.180545
G1 X36.867 Y6.168 E6.180592
G1 X37.084 Y5.972 E6.185437
G1 X37.086 Y5.974 E6.185484
G1 X37.181 Y5.887 E6.187618
G1 X37.253 Y5.826 E6.189182
G1 X37.378 Y5.726 E6.191834
G1 X37.377 Y5.725 E6.191857
G1 X37.654 Y5.508 E6.197688
G1 X38.124 Y5.191 E6.207081
G1 X38.778 Y4.888 E6.219023
G1 X38.831 Y4.869 E6.219956
G1 X39.377 Y4.716 E6.229351
G1 X39.967 Y4.639 E6.239210
G1 X40.238 Y4.624 E6.243707
G1 X40.326 Y4.622 E6.245165
G1 X40.326 Y4.62 E6.245199
G1 X40.625 Y4.61 E6.250156
G1 X40.749 Y4.608 E6.252210
G1 X41.041 Y4.607 E6.257049
G1 X41.058 Y4.607 E6.257330
G1 X41.193 Y4.609 E6.259567
G1 X41.492 Y4.619 E6.264524
G1 X41.492 Y4.621 E6.264557
G1 X41.578 Y4.623 E6.265983
G1 X41.87 Y4.639 E6.270828
G1 X42.439 Y4.711 E6.280331
G1 X42.464 Y4.716 E6.280753
G1 X42.861 Y4.817 E6.287541
G1 X43.14 Y4.903 E6.292378
G1 X43.212 Y4.931 E6.293658
G1 X43.213 Y4.927 E6.293726
G1 X43.517 Y5.027 E6.299029
G1 X43.515 Y5.032 E6.299118
G1 X43.575 Y5.046 E6.300139
G1 X43.87 Y5.148 E6.305311
G1 X44.355 Y5.352 E6.314029
G1 X44.369 Y5.359 E6.314288
G1 X44.569 Y5.466 E6.318046
G1 X44.859 Y5.632 E6.323583
G1 X44.866 Y5.636 E6.323716
G1 X45.078 Y5.758 E6.327769
G1 X45.108 Y5.775 E6.328340
G1 X45.388 Y5.93 E6.333643
G1 X45.557 Y6.022 E6.336831
G1 X45.622 Y6.056 E6.338047
G1 X45.921 Y6.212 E6.343635
G1 X45.926 Y6.215 E6.343731
G1 X46.075 Y6.293 E6.346518
G1 X46.206 Y6.361 E6.348963
G1 X46.231 Y6.374 E6.349430
G1 X46.528 Y6.53 E6.354989
G1 X46.528 Y6.531 E6.355005
G1 X46.613 Y6.576 E6.356599
G1 X46.73 Y6.641 E6.358816
G1 X46.743 Y6.648 E6.359061
G1 X46.966 Y6.773 E6.363297
G1 X47.062 Y6.836 E6.365199
G1 X47.065 Y6.832 E6.365282
G1 X47.321 Y6.985 E6.370224
G1 X47.319 Y6.989 E6.370298
G1 X47.4 Y7.032 E6.371817
G1 X47.793 Y7.312 E6.379813
G1 X47.808 Y7.322 E6.380111
G1 X47.972 Y7.453 E6.383589
G1 X48.045 Y7.38 E6.385300
G1 X48.473 Y7.008 E6.394695
G1 X48.949 Y6.7 E6.404089
G1 X49.464 Y6.462 E6.413489
G1 X50.007 Y6.299 E6.422883
G1 X50.775 Y6.203 E6.435707
G1 X50.914 Y6.199 E6.438011
G1 X51.481 Y6.222 E6.447413
G1 X52.038 Y6.325 E6.456799
G1 X52.576 Y6.506 E6.466204
G1 X53.083 Y6.76 E6.475599
G1 X53.679 Y7.191 E6.487786
G1 X53.909 Y7.392 E6.492847
G1 X53.906 Y7.395 E6.492917
G1 X54.111 Y7.58 E6.497493
G1 X54.137 Y7.606 E6.498102
G1 X54.196 Y7.674 E6.499594
G1 X54.199 Y7.671 E6.499664
G1 X54.457 Y7.94 E6.505840
G1 X54.644 Y8.149 E6.510486
G1 X54.649 Y8.155 E6.510616
G1 X54.751 Y8.283 E6.513328
G1 X54.774 Y8.313 E6.513954
G1 X54.8 Y8.347 E6.514663
G1 X54.803 Y8.351 E6.514746
G1 X54.889 Y8.47 E6.517179
G1 X55.089 Y8.758 E6.522988
G1 X55.132 Y8.821 E6.524252
G1 X55.134 Y8.824 E6.524312
G1 X55.175 Y8.886 E6.525543
G1 X55.248 Y9 E6.527786
G1 X55.246 Y9.001 E6.527823
G1 X55.271 Y9.037 E6.528550
G1 X55.388 Y9.224 E6.532204
G1 X55.409 Y9.258 E6.532867
G1 X55.581 Y9.539 E6.538325
G1 X55.842 Y10.042 E6.547715
G1 X55.977 Y10.398 E6.554023
G1 X55.989 Y10.435 E6.554668
G1 X56.125 Y10.986 E6.564071
G1 X56.174 Y11.374 E6.570551
G1 X56.195 Y11.652 E6.575170
G1 X56.199 Y11.754 E6.576862
G1 X56.201 Y11.754 E6.576895
G1 X56.216 Y12.048 E6.581772
G1 X56.219 Y12.176 E6.583894
G1 X56.22 Y12.176 E6.583910
G1 X56.226 Y12.473 E6.588832
G1 X56.227 Y12.554 E6.590175
G1 X56.227 Y12.558 E6.590241
G1 X56.226 Y12.639 E6.591583
G1 X56.22 Y12.936 E6.596505
G1 X56.219 Y12.936 E6.596522
G1 X56.215 Y13.073 E6.598792
G1 X56.199 Y13.372 E6.603754
G1 X56.197 Y13.372 E6.603787
G1 X56.194 Y13.452 E6.605113
G1 X56.176 Y13.699 E6.609217
G1 X56.095 Y14.26 E6.618608
G1 X55.936 Y14.804 E6.627999
G1 X55.702 Y15.321 E6.637402
G1 X55.504 Y15.649 E6.643750
G1 X55.453 Y15.725 E6.645266
G1 X55.105 Y16.172 E6.654652
G1 X54.697 Y16.566 E6.664050
G1 X54.689 Y16.572 E6.664216
G1 X54.691 Y16.658 E6.665641
G1 X54.692 Y16.757 E6.667281
G1 X54.692 Y16.759 E6.667315
G1 X54.695 Y17.015 E6.671556
G1 X54.695 Y17.099 E6.672948
G1 X54.692 Y17.397 E6.677886
G1 X54.691 Y17.456 E6.678864
G1 X54.684 Y17.743 E6.683620
G1 X54.622 Y18.353 E6.693780
G1 X54.617 Y18.381 E6.694251
G1 X54.493 Y18.884 E6.702835
G1 X54.404 Y19.166 E6.707734
G1 X54.378 Y19.231 E6.708894
G1 X54.382 Y19.232 E6.708962
G1 X54.263 Y19.588 E6.715182
G1 X54.251 Y19.624 E6.715811
G1 X54.17 Y19.859 E6.719929
G1 X53.965 Y20.347 E6.728699
G1 X53.952 Y20.373 E6.729181
G1 X53.509 Y21.07 E6.742865
G1 X53.286 Y21.352 E6.748821
G1 X53.281 Y21.348 E6.748928
G1 X53.152 Y21.513 E6.752398
G1 X53.087 Y21.587 E6.754030
G1 X53.083 Y21.584 E6.754113
G1 X53.023 Y21.66 E6.755717
G1 X52.815 Y21.886 E6.760806
G1 X52.699 Y22.006 E6.763571
G1 X52.697 Y22.008 E6.763618
G1 X52.57 Y22.136 E6.766606
G1 X52.419 Y22.268 E6.769929
G1 X52.423 Y22.272 E6.770023
G1 X52.25 Y22.43 E6.773905
G1 X52.122 Y22.531 E6.776606
G1 X52.005 Y22.643 E6.779290
G1 X51.664 Y22.911 E6.786476
G1 X51.018 Y23.325 E6.799189
G1 X50.983 Y23.343 E6.799841
G1 X50.206 Y23.646 E6.813659
G1 X49.925 Y23.723 E6.818487
G1 X49.891 Y23.73 E6.819062
G1 X49.891 Y23.731 E6.819079
G1 X49.598 Y23.809 E6.824103
G1 X49.506 Y23.827 E6.825656
G1 X49.507 Y23.831 E6.825724
G1 X49.21 Y23.903 E6.830788
G1 X49.177 Y23.909 E6.831343
G1 X48.896 Y23.975 E6.836126
G1 X48.603 Y24.023 E6.841045
G1 X48.604 Y24.032 E6.841195
G1 X48.585 Y24.035 E6.841514
G1 X48.444 Y24.048 E6.843860
G1 X48.336 Y24.066 E6.845674
G1 X48.24 Y24.068 E6.847265
G1 X48.092 Y24.082 E6.849728
G1 X47.793 Y24.092 E6.854685
G1 X47.697 Y24.093 E6.856276
G1 X47.697 Y24.094 E6.856293
G1 X47.401 Y24.097 E6.861197
G1 X47.317 Y24.097 E6.862589
G1 X47.021 Y24.094 E6.867494
G1 X47.021 Y24.093 E6.867510
G1 X46.929 Y24.092 E6.869035
G1 X46.625 Y24.082 E6.874074
G1 X46.225 Y24.049 E6.880725
G1 X46.21 Y24.047 E6.880975
G1 X45.896 Y23.992 E6.886257
G1 X45.696 Y23.949 E6.889647
G1 X45.697 Y23.946 E6.889699
G1 X45.61 Y23.931 E6.891162
G1 X45.172 Y23.827 E6.898621
G1 X45.094 Y23.803 E6.899973
G1 X45.093 Y23.806 E6.900025
G1 X44.853 Y23.744 E6.904132
G1 X44.854 Y23.742 E6.904170
G1 X44.793 Y23.729 E6.905203
G1 X44.497 Y23.648 E6.910288
G1 X44.453 Y23.636 E6.911043
G1 X44.432 Y23.63 E6.911405
G1 X43.959 Y23.462 E6.919722
G1 X43.68 Y23.343 E6.924748
G1 X43.62 Y23.312 E6.925867
G1 X43.619 Y23.315 E6.925919
G1 X43.325 Y23.184 E6.931252
G1 X43.328 Y23.178 E6.931363
G1 X43.173 Y23.113 E6.934148
G1 X43.074 Y23.064 E6.935978
G1 X43.059 Y23.057 E6.936253
G1 X43.055 Y23.055 E6.936327
G1 X42.976 Y23.014 E6.937801
G1 X42.779 Y22.91 E6.941492
G1 X42.74 Y22.89 E6.942219
G1 X42.526 Y22.774 E6.946252
G1 X42.531 Y22.765 E6.946422
G1 X42.353 Y22.68 E6.949691
G1 X42.226 Y22.603 E6.952151
G1 X42.162 Y22.562 E6.953411
G1 X42.162 Y22.563 E6.953427
G1 X41.91 Y22.404 E6.958364
G1 X41.89 Y22.391 E6.958760
G1 X41.671 Y22.251 E6.963066
G1 X41.655 Y22.239 E6.963398
G1 X41.655 Y22.24 E6.963414
G1 X41.576 Y22.189 E6.964972
G1 X41.552 Y22.171 E6.965469
G1 X41.551 Y22.172 E6.965493
G1 X41.252 Y21.976 E6.971416
G1 X41.204 Y21.945 E6.972363
G1 X41.188 Y21.935 E6.972676
G1 X40.969 Y21.793 E6.977000
G1 X40.761 Y21.659 E6.981100
G1 X40.495 Y21.5 E6.986235
G1 X40.495 Y21.501 E6.986251
G1 X40.351 Y21.415 E6.989030
G1 X40.353 Y21.412 E6.989090
G1 X40.301 Y21.385 E6.990061
G1 X40.147 Y21.29 E6.993059
G1 X40.147 Y21.289 E6.993076
G1 X40.137 Y21.284 E6.993261
G1 X39.834 Y21.096 E6.999169
G1 X39.723 Y21.025 E7.001352
G1 X39.717 Y21.021 E7.001472
G1 X39.558 Y20.909 E7.004694
G1 X39.535 Y20.892 E7.005168
G1 X39.421 Y20.805 E7.007544
G1 X39.152 Y20.591 E7.013240
G1 X39.077 Y20.522 E7.014928
G1 X39.074 Y20.526 E7.015011
G1 X38.982 Y20.449 E7.016999
G1 X38.989 Y20.441 E7.017175
G1 X38.988 Y20.44 E7.017198
G1 X38.874 Y20.358 E7.019525
G1 X38.672 Y20.177 E7.024019
G1 X38.662 Y20.167 E7.024253
G1 X38.529 Y20.047 E7.027221
G1 X38.444 Y19.959 E7.029249
G1 X38.44 Y19.964 E7.029355
G1 X38.275 Y19.806 E7.033140
G1 X38.278 Y19.803 E7.033210
G1 X38.242 Y19.775 E7.033966
G1 X38.106 Y19.642 E7.037118
G1 X38.086 Y19.624 E7.037563
G1 X37.931 Y19.471 E7.041172
G1 X37.922 Y19.462 E7.041383
G1 X37.773 Y19.314 E7.044863
G1 X37.774 Y19.313 E7.044886
G1 X37.759 Y19.3 E7.045215
G1 X37.379 Y18.919 E7.054131
G1 X37.345 Y18.88 E7.054988
G1 X37.343 Y18.882 E7.055035
G1 X37.273 Y18.81 E7.056699
G1 X37.264 Y18.8 E7.056922
G1 X37.123 Y18.654 E7.060285
G1 X37.102 Y18.632 E7.060789
G1 X36.944 Y18.466 E7.064586
G1 X36.925 Y18.447 E7.065031
G1 X36.801 Y18.315 E7.068032
G1 X36.803 Y18.313 E7.068079
G1 X36.723 Y18.229 E7.070001
G1 X36.549 Y18.033 E7.074343
G1 X36.551 Y18.031 E7.074390
G1 X36.48 Y17.954 E7.076125
G1 X36.394 Y17.852 E7.078336
G1 X36.396 Y17.85 E7.078383
G1 X36.351 Y17.8 E7.079497
G1 X36.139 Y17.54 E7.085056
G1 X36.049 Y17.425 E7.087476
G1 X36.048 Y17.425 E7.087492
G1 X36.026 Y17.396 E7.088095
G1 X36.013 Y17.378 E7.088463
G1 X36.01 Y17.374 E7.088546
G1 X35.893 Y17.21 E7.091884
G1 X35.69 Y16.909 E7.097899
G1 X35.692 Y16.908 E7.097936
G1 X35.642 Y16.837 E7.099375
G1 X35.575 Y16.733 E7.101425
G1 X35.577 Y16.732 E7.101462
G1 X35.543 Y16.682 E7.102464
G1 X35.422 Y16.488 E7.106252
G1 X35.384 Y16.425 E7.107471
G1 X35.208 Y16.131 E7.113149
G1 X34.991 Y15.716 E7.120908
G1 X34.982 Y15.696 E7.121272
G1 X34.782 Y15.151 E7.130890
G1 X34.677 Y14.784 E7.137215
G1 X34.673 Y14.765 E7.137537
G1 X34.612 Y14.548 E7.141272
G1 X34.607 Y14.53 E7.141581
G1 X34.525 Y14.233 E7.146686
G1 X34.52 Y14.206 E7.147141
G1 X34.474 Y14.036 E7.150059
G1 X34.457 Y13.947 E7.151561
G1 X34.452 Y13.948 E7.151645
G1 X34.422 Y13.827 E7.153711
G1 X34.413 Y13.788 E7.154374
G1 X34.323 Y13.409 E7.160828
G1 X34.315 Y13.36 E7.161651
G1 X34.313 Y13.36 E7.161684
G1 X34.264 Y13.142 E7.165386
G1 X34.26 Y13.124 E7.165692
G1 X34.133 Y12.547 E7.175481
G1 X34.051 Y11.986 E7.184875
G1 X34.043 Y11.511 E7.192746
G1 X34.045 Y11.464 E7.193526
G1 X34.109 Y10.9 E7.202930
G1 X34.244 Y10.374 E7.211928
;;done with one path
M204 S625.000000
M205 X6.000000 Y6.000000
G0 F8571.428571 X34.576 Y10.484
M204 S500.000000
M205 X5.000000 Y5.000000
;Extrusion:7.211928
G1 F1200.000000 X34.637 Y10.3 E7.215140
G1 X34.639 Y10.289 E7.215325
G1 X34.766 Y9.905 E7.222027
G1 X34.767 Y9.9 E7.222111
G1 X34.864 Y9.608 E7.227209
G1 X34.911 Y9.496 E7.229222
G1 X34.986 Y9.292 E7.232823
G1 X34.993 Y9.276 E7.233112
G1 X35.042 Y9.181 E7.234883
G1 X35.073 Y9.108 E7.236198
G1 X35.13 Y9.013 E7.238033
G1 X35.224 Y8.833 E7.241398
G1 X35.4 Y8.545 E7.246990
G1 X35.401 Y8.546 E7.247014
G1 X35.419 Y8.513 E7.247636
G1 X35.542 Y8.316 E7.251485
G1 X35.569 Y8.28 E7.252230
G1 X35.566 Y8.278 E7.252290
G1 X35.632 Y8.175 E7.254317
G1 X35.692 Y8.085 E7.256109
G1 X35.897 Y7.785 E7.262129
G1 X35.934 Y7.731 E7.263214
G1 X35.956 Y7.7 E7.263844
G1 X36.083 Y7.531 E7.267346
G1 X36.087 Y7.526 E7.267453
G1 X36.146 Y7.454 E7.268995
G1 X36.365 Y7.194 E7.274627
G1 X36.367 Y7.196 E7.274674
G1 X36.42 Y7.129 E7.276090
G1 X36.502 Y7.036 E7.278144
G1 X36.503 Y7.037 E7.278168
G1 X36.624 Y6.903 E7.281159
G1 X36.816 Y6.705 E7.285729
G1 X36.855 Y6.664 E7.286666
G1 X36.857 Y6.662 E7.286713
G1 X36.883 Y6.637 E7.287311
G1 X36.986 Y6.536 E7.289701
G1 X37.104 Y6.43 E7.292329
G1 X37.102 Y6.428 E7.292376
G1 X37.319 Y6.232 E7.297221
G1 X37.32 Y6.234 E7.297258
G1 X37.407 Y6.154 E7.299216
G1 X37.479 Y6.093 E7.300780
G1 X37.594 Y6.002 E7.303210
G1 X37.593 Y6.001 E7.303233
G1 X37.87 Y5.784 E7.309063
G1 X38.32 Y5.482 E7.318043
G1 X38.896 Y5.218 E7.328541
G1 X38.949 Y5.199 E7.329474
G1 X39.471 Y5.054 E7.338451
G1 X39.986 Y4.989 E7.347051
G1 X40.257 Y4.974 E7.351548
G1 X40.338 Y4.972 E7.352891
G1 X40.338 Y4.97 E7.352924
G1 X40.637 Y4.96 E7.357881
G1 X40.75 Y4.958 E7.359754
G1 X41.042 Y4.957 E7.364592
G1 X41.058 Y4.957 E7.364857
G1 X41.181 Y4.959 E7.366895
G1 X41.48 Y4.969 E7.371852
G1 X41.48 Y4.971 E7.371885
G1 X41.559 Y4.973 E7.373194
G1 X41.851 Y4.989 E7.378040
G1 X42.371 Y5.054 E7.386723
G1 X42.396 Y5.059 E7.387145
G1 X42.758 Y5.151 E7.393334
G1 X43.037 Y5.237 E7.398171
G1 X43.102 Y5.262 E7.399325
G1 X43.103 Y5.259 E7.399377
G1 X43.407 Y5.359 E7.404680
G1 X43.406 Y5.363 E7.404748
G1 X43.461 Y5.377 E7.405689
G1 X43.756 Y5.479 E7.410860
G1 X44.199 Y5.665 E7.418821
G1 X44.213 Y5.672 E7.419081
G1 X44.395 Y5.77 E7.422505
G1 X44.685 Y5.936 E7.428042
G1 X44.691 Y5.939 E7.428153
G1 X44.905 Y6.062 E7.432243
G1 X44.938 Y6.081 E7.432874
G1 X45.22 Y6.237 E7.438213
G1 X45.394 Y6.332 E7.441498
G1 X45.46 Y6.367 E7.442736
G1 X45.759 Y6.523 E7.448324
G1 X45.763 Y6.525 E7.448398
G1 X45.895 Y6.594 E7.450866
G1 X46.046 Y6.672 E7.453682
G1 X46.068 Y6.684 E7.454097
G1 X46.3 Y6.806 E7.458440
G1 X46.302 Y6.807 E7.458477
G1 X46.443 Y6.881 E7.461116
G1 X46.56 Y6.946 E7.463333
G1 X46.572 Y6.953 E7.463563
G1 X46.795 Y7.078 E7.467799
G1 X46.883 Y7.136 E7.469545
G1 X46.885 Y7.132 E7.469620
G1 X47.141 Y7.285 E7.474561
G1 X47.138 Y7.29 E7.474658
G1 X47.235 Y7.342 E7.476481
G1 X47.559 Y7.575 E7.483094
G1 X47.59 Y7.595 E7.483705
G1 X47.855 Y7.807 E7.489328
G1 X47.92 Y7.865 E7.490771
G1 X47.922 Y7.862 E7.490831
G1 X48.006 Y7.932 E7.492643
G1 X48.107 Y7.812 E7.495241
G1 X48.292 Y7.627 E7.499576
G1 X48.703 Y7.274 E7.508553
G1 X49.161 Y6.984 E7.517535
G1 X49.656 Y6.765 E7.526504
G1 X50.179 Y6.621 E7.535492
G1 X50.785 Y6.553 E7.545595
G1 X50.924 Y6.549 E7.547899
G1 X51.466 Y6.573 E7.556889
G1 X51.997 Y6.677 E7.565854
G1 X52.508 Y6.857 E7.574831
G1 X52.987 Y7.111 E7.583814
G1 X53.448 Y7.455 E7.593344
G1 X53.678 Y7.656 E7.598405
G1 X53.677 Y7.657 E7.598429
G1 X53.864 Y7.827 E7.602616
G1 X53.89 Y7.853 E7.603225
G1 X53.944 Y7.915 E7.604588
G1 X53.946 Y7.913 E7.604635
G1 X54.204 Y8.182 E7.610810
G1 X54.375 Y8.373 E7.615058
G1 X54.38 Y8.379 E7.615187
G1 X54.474 Y8.496 E7.617674
G1 X54.497 Y8.526 E7.618300
G1 X54.52 Y8.557 E7.618940
G1 X54.523 Y8.561 E7.619023
G1 X54.602 Y8.67 E7.621253
G1 X54.802 Y8.958 E7.627063
G1 X54.841 Y9.015 E7.628207
G1 X54.843 Y9.018 E7.628267
G1 X54.88 Y9.075 E7.629393
G1 X54.953 Y9.189 E7.631636
G1 X54.951 Y9.19 E7.631673
G1 X54.974 Y9.223 E7.632339
G1 X55.091 Y9.41 E7.635994
G1 X55.11 Y9.44 E7.636583
G1 X55.282 Y9.721 E7.642042
G1 X55.53 Y10.203 E7.651023
G1 X55.644 Y10.506 E7.656387
G1 X55.656 Y10.543 E7.657031
G1 X55.784 Y11.07 E7.666017
G1 X55.825 Y11.4 E7.671527
G1 X55.846 Y11.678 E7.676146
G1 X55.849 Y11.772 E7.677704
G1 X55.851 Y11.772 E7.677738
G1 X55.866 Y12.066 E7.682615
G1 X55.869 Y12.183 E7.684554
G1 X55.87 Y12.183 E7.684571
G1 X55.87 Y12.199 E7.684836
G1 X55.871 Y12.253 E7.685731
G1 X55.871 Y12.257 E7.685797
G1 X55.876 Y12.48 E7.689493
G1 X55.877 Y12.554 E7.690719
G1 X55.877 Y12.558 E7.690786
G1 X55.876 Y12.632 E7.692012
G1 X55.87 Y12.929 E7.696934
G1 X55.869 Y12.929 E7.696950
G1 X55.866 Y13.054 E7.699022
G1 X55.85 Y13.353 E7.703983
G1 X55.848 Y13.353 E7.704016
G1 X55.845 Y13.426 E7.705227
G1 X55.827 Y13.673 E7.709330
G1 X55.748 Y14.209 E7.718307
G1 X55.591 Y14.728 E7.727291
G1 X55.359 Y15.218 E7.736274
G1 X55.214 Y15.454 E7.740864
G1 X55.163 Y15.53 E7.742380
G1 X54.828 Y15.956 E7.751359
G1 X54.435 Y16.329 E7.760337
G1 X54.334 Y16.394 E7.762327
G1 X54.341 Y16.666 E7.766835
G1 X54.342 Y16.757 E7.768343
G1 X54.342 Y16.759 E7.768376
G1 X54.345 Y17.019 E7.772685
G1 X54.345 Y17.095 E7.773944
G1 X54.342 Y17.393 E7.778882
G1 X54.341 Y17.448 E7.779793
G1 X54.334 Y17.735 E7.784550
G1 X54.278 Y18.291 E7.793809
G1 X54.273 Y18.319 E7.794280
G1 X54.16 Y18.779 E7.802128
G1 X54.071 Y19.061 E7.807028
G1 X54.047 Y19.12 E7.808083
G1 X54.05 Y19.121 E7.808136
G1 X53.931 Y19.477 E7.814355
G1 X53.92 Y19.51 E7.814931
G1 X53.839 Y19.745 E7.819050
G1 X53.652 Y20.191 E7.827063
G1 X53.639 Y20.217 E7.827545
G1 X53.235 Y20.853 E7.840029
G1 X53.012 Y21.135 E7.845986
G1 X53.008 Y21.132 E7.846068
G1 X52.889 Y21.282 E7.849241
G1 X52.824 Y21.356 E7.850873
G1 X52.82 Y21.353 E7.850956
G1 X52.765 Y21.423 E7.852431
G1 X52.557 Y21.649 E7.857520
G1 X52.452 Y21.759 E7.860039
G1 X52.322 Y21.889 E7.863086
G1 X52.183 Y22.01 E7.866139
G1 X52.187 Y22.014 E7.866233
G1 X52.03 Y22.157 E7.869751
G1 X52.026 Y22.161 E7.869845
G1 X52.014 Y22.172 E7.870115
G1 X51.916 Y22.249 E7.872180
G1 X51.789 Y22.367 E7.875052
G1 X51.448 Y22.635 E7.882238
G1 X50.858 Y23.014 E7.893857
G1 X50.823 Y23.032 E7.894509
G1 X50.113 Y23.308 E7.907131
G1 X49.832 Y23.385 E7.911958
G1 X49.801 Y23.391 E7.912482
G1 X49.801 Y23.392 E7.912498
G1 X49.508 Y23.47 E7.917522
G1 X49.424 Y23.486 E7.918939
G1 X49.425 Y23.491 E7.919023
G1 X49.128 Y23.563 E7.924087
G1 X49.097 Y23.568 E7.924607
G1 X49.097 Y23.569 E7.924624
G1 X48.816 Y23.635 E7.929406
G1 X48.548 Y23.677 E7.933901
G1 X48.549 Y23.686 E7.934051
G1 X48.53 Y23.689 E7.934370
G1 X48.382 Y23.703 E7.936833
G1 X48.281 Y23.719 E7.938527
G1 X48.209 Y23.72 E7.939720
G1 X48.08 Y23.732 E7.941867
G1 X47.781 Y23.742 E7.946824
G1 X47.693 Y23.743 E7.948282
G1 X47.693 Y23.744 E7.948298
G1 X47.397 Y23.747 E7.953203
G1 X47.321 Y23.747 E7.954462
G1 X47.025 Y23.744 E7.959367
G1 X47.025 Y23.743 E7.959384
G1 X46.94 Y23.742 E7.960792
G1 X46.636 Y23.732 E7.965832
G1 X46.271 Y23.702 E7.971900
G1 X46.256 Y23.7 E7.972150
G1 X45.97 Y23.65 E7.976961
G1 X45.77 Y23.607 E7.980351
G1 X45.77 Y23.605 E7.980384
G1 X45.691 Y23.591 E7.981713
G1 X45.253 Y23.487 E7.989172
G1 X45.182 Y23.464 E7.990409
G1 X45.181 Y23.467 E7.990461
G1 X44.941 Y23.405 E7.994568
G1 X44.941 Y23.404 E7.994585
G1 X44.885 Y23.392 E7.995534
G1 X44.589 Y23.311 E8.000618
G1 X44.549 Y23.3 E8.001306
G1 X44.528 Y23.294 E8.001668
G1 X44.096 Y23.14 E8.009267
G1 X43.817 Y23.021 E8.014292
G1 X43.762 Y22.993 E8.015315
G1 X43.761 Y22.995 E8.015352
G1 X43.467 Y22.864 E8.020685
G1 X43.469 Y22.86 E8.020759
G1 X43.328 Y22.8 E8.023298
G1 X43.229 Y22.751 E8.025128
G1 X43.211 Y22.742 E8.025462
G1 X43.139 Y22.705 E8.026803
G1 X42.942 Y22.601 E8.030494
G1 X42.907 Y22.582 E8.031154
G1 X42.693 Y22.466 E8.035187
G1 X42.695 Y22.462 E8.035261
G1 X42.535 Y22.381 E8.038232
G1 X42.408 Y22.304 E8.040693
G1 X42.349 Y22.267 E8.041847
G1 X42.097 Y22.108 E8.046784
G1 X42.079 Y22.096 E8.047143
G1 X41.86 Y21.956 E8.051449
G1 X41.846 Y21.945 E8.051744
G1 X41.845 Y21.946 E8.051768
G1 X41.766 Y21.895 E8.053326
G1 X41.745 Y21.878 E8.053773
G1 X41.743 Y21.88 E8.053820
G1 X41.444 Y21.684 E8.059744
G1 X41.393 Y21.651 E8.060750
G1 X41.379 Y21.642 E8.061026
G1 X41.16 Y21.5 E8.065351
G1 X40.968 Y21.376 E8.069138
G1 X40.944 Y21.361 E8.069607
G1 X40.673 Y21.199 E8.074838
G1 X40.531 Y21.114 E8.077580
G1 X40.532 Y21.112 E8.077617
G1 X40.485 Y21.087 E8.078499
G1 X40.337 Y20.996 E8.081378
G1 X40.321 Y20.987 E8.081682
G1 X40.018 Y20.799 E8.087590
G1 X39.917 Y20.734 E8.089580
G1 X39.911 Y20.73 E8.089700
G1 X39.766 Y20.627 E8.092647
G1 X39.743 Y20.61 E8.093121
G1 X39.639 Y20.531 E8.095285
G1 X39.37 Y20.317 E8.100980
G1 X39.301 Y20.253 E8.102539
G1 X39.298 Y20.257 E8.102622
G1 X39.206 Y20.18 E8.104610
G1 X39.212 Y20.173 E8.104763
G1 X39.108 Y20.097 E8.106897
G1 X38.906 Y19.916 E8.111391
G1 X38.896 Y19.908 E8.111603
G1 X38.763 Y19.788 E8.114571
G1 X38.686 Y19.707 E8.116423
G1 X38.682 Y19.711 E8.116517
G1 X38.517 Y19.553 E8.120302
G1 X38.519 Y19.551 E8.120349
G1 X38.487 Y19.525 E8.121032
G1 X38.344 Y19.385 E8.124348
G1 X38.345 Y19.384 E8.124371
G1 X38.332 Y19.374 E8.124643
G1 X38.177 Y19.221 E8.128252
G1 X38.169 Y19.213 E8.128439
G1 X38.02 Y19.065 E8.131919
G1 X38.021 Y19.064 E8.131942
G1 X38.007 Y19.053 E8.132237
G1 X37.627 Y18.672 E8.141153
G1 X37.596 Y18.636 E8.141940
G1 X37.594 Y18.638 E8.141987
G1 X37.524 Y18.566 E8.143651
G1 X37.516 Y18.557 E8.143850
G1 X37.418 Y18.456 E8.146182
G1 X37.355 Y18.391 E8.147682
G1 X37.197 Y18.225 E8.151479
G1 X37.18 Y18.207 E8.151889
G1 X37.056 Y18.075 E8.154890
G1 X37.057 Y18.074 E8.154914
G1 X36.985 Y17.997 E8.156660
G1 X36.811 Y17.801 E8.161003
G1 X36.813 Y17.8 E8.161040
G1 X36.747 Y17.728 E8.162658
G1 X36.661 Y17.626 E8.164869
G1 X36.663 Y17.624 E8.164916
G1 X36.622 Y17.578 E8.165937
G1 X36.41 Y17.318 E8.171495
G1 X36.327 Y17.212 E8.173726
G1 X36.305 Y17.184 E8.174316
G1 X36.29 Y17.164 E8.174730
G1 X36.183 Y17.014 E8.177783
G1 X35.98 Y16.713 E8.183798
G1 X35.985 Y16.71 E8.183895
G1 X35.973 Y16.692 E8.184253
G1 X35.937 Y16.647 E8.185208
G1 X35.87 Y16.543 E8.187258
G1 X35.871 Y16.542 E8.187281
G1 X35.84 Y16.497 E8.188187
G1 X35.719 Y16.303 E8.191975
G1 X35.684 Y16.246 E8.193083
G1 X35.508 Y15.952 E8.198761
G1 X35.31 Y15.572 E8.205861
G1 X35.301 Y15.552 E8.206224
G1 X35.119 Y15.055 E8.214993
G1 X35.014 Y14.688 E8.221318
G1 X35.01 Y14.671 E8.221608
G1 X34.949 Y14.454 E8.225342
G1 X34.945 Y14.437 E8.225632
G1 X34.863 Y14.14 E8.230737
G1 X34.858 Y14.115 E8.231159
G1 X34.812 Y13.945 E8.234077
G1 X34.796 Y13.862 E8.235478
G1 X34.792 Y13.863 E8.235546
G1 X34.762 Y13.742 E8.237612
G1 X34.753 Y13.707 E8.238211
G1 X34.663 Y13.328 E8.244665
G1 X34.656 Y13.283 E8.245419
G1 X34.654 Y13.283 E8.245453
G1 X34.605 Y13.065 E8.249155
G1 X34.602 Y13.049 E8.249424
G1 X34.475 Y12.472 E8.259214
G1 X34.398 Y11.936 E8.268186
G1 X34.392 Y11.526 E8.274980
G1 X34.394 Y11.479 E8.275759
G1 X34.457 Y10.941 E8.284734
G1 X34.576 Y10.484 E8.292559
;;done with one path
M204 S625.000000
M205 X6.000000 Y6.000000
G0 F8571.428571 X34.908 Y10.593
M204 S500.000000
M205 X5.000000 Y5.000000
;Extrusion:8.292559
G1 F1200.000000 X34.969 Y10.407 E8.295802
G1 X34.971 Y10.399 E8.295939
G1 X35.098 Y10.015 E8.302640
G1 X35.1 Y10.011 E8.302714
G1 X35.197 Y9.719 E8.307812
G1 X35.216 Y9.673 E8.308637
G1 X35.307 Y9.432 E8.312905
G1 X35.314 Y9.416 E8.313195
G1 X35.366 Y9.316 E8.315062
G1 X35.396 Y9.244 E8.316354
G1 X35.445 Y9.164 E8.317909
G1 X35.523 Y9.015 E8.320695
G1 X35.699 Y8.727 E8.326288
G1 X35.7 Y8.727 E8.326304
G1 X35.716 Y8.698 E8.326853
G1 X35.839 Y8.501 E8.330701
G1 X35.864 Y8.47 E8.331361
G1 X35.86 Y8.467 E8.331444
G1 X35.926 Y8.364 E8.333471
G1 X35.981 Y8.282 E8.335107
G1 X36.186 Y7.982 E8.341127
G1 X36.219 Y7.934 E8.342092
G1 X36.241 Y7.903 E8.342722
G1 X36.357 Y7.75 E8.345903
G1 X36.361 Y7.745 E8.346010
G1 X36.414 Y7.68 E8.347399
G1 X36.633 Y7.42 E8.353032
G1 X36.634 Y7.421 E8.353055
G1 X36.683 Y7.36 E8.354351
G1 X36.765 Y7.267 E8.356406
G1 X36.775 Y7.276 E8.356629
G1 X36.875 Y7.146 E8.359346
G1 X37.067 Y6.948 E8.363916
G1 X37.128 Y6.887 E8.365345
G1 X37.231 Y6.786 E8.367736
G1 X37.338 Y6.69 E8.370117
G1 X37.336 Y6.688 E8.370164
G1 X37.553 Y6.492 E8.375009
G1 X37.555 Y6.494 E8.375056
G1 X37.634 Y6.421 E8.376838
G1 X37.706 Y6.36 E8.378402
G1 X37.809 Y6.277 E8.380594
G1 X37.857 Y6.239 E8.381608
G1 X37.86 Y6.237 E8.381668
G1 X37.864 Y6.234 E8.381751
G1 X38.086 Y6.06 E8.386424
G1 X38.515 Y5.774 E8.394967
G1 X39.014 Y5.547 E8.404050
G1 X39.067 Y5.528 E8.404983
G1 X39.564 Y5.392 E8.413521
G1 X40.005 Y5.338 E8.420882
G1 X40.276 Y5.323 E8.425379
G1 X40.35 Y5.321 E8.426606
G1 X40.35 Y5.32 E8.426622
G1 X40.649 Y5.31 E8.431579
G1 X40.752 Y5.308 E8.433286
G1 X41.044 Y5.307 E8.438124
G1 X41.058 Y5.307 E8.438356
G1 X41.169 Y5.309 E8.440196
G1 X41.468 Y5.319 E8.445153
G1 X41.468 Y5.32 E8.445169
G1 X41.54 Y5.322 E8.446363
G1 X41.832 Y5.338 E8.451208
G1 X42.302 Y5.398 E8.459059
G1 X42.327 Y5.403 E8.459481
G1 X42.654 Y5.486 E8.465071
G1 X42.933 Y5.572 E8.469908
G1 X42.993 Y5.595 E8.470973
G1 X42.994 Y5.591 E8.471041
G1 X43.298 Y5.691 E8.476344
G1 X43.297 Y5.695 E8.476412
G1 X43.347 Y5.708 E8.477268
G1 X43.642 Y5.81 E8.482440
G1 X44.042 Y5.978 E8.489628
G1 X44.056 Y5.985 E8.489887
G1 X44.221 Y6.073 E8.492986
G1 X44.511 Y6.239 E8.498522
G1 X44.517 Y6.243 E8.498642
G1 X44.75 Y6.377 E8.503095
G1 X44.769 Y6.388 E8.503459
G1 X45.069 Y6.554 E8.509140
G1 X45.184 Y6.617 E8.511313
G1 X45.298 Y6.677 E8.513447
G1 X45.597 Y6.833 E8.519035
G1 X45.601 Y6.835 E8.519109
G1 X45.75 Y6.913 E8.521896
G1 X45.885 Y6.983 E8.524415
G1 X45.905 Y6.993 E8.524786
G1 X46.202 Y7.149 E8.530344
G1 X46.202 Y7.15 E8.530361
G1 X46.273 Y7.187 E8.531687
G1 X46.39 Y7.252 E8.533905
G1 X46.401 Y7.259 E8.534121
G1 X46.624 Y7.384 E8.538357
G1 X46.704 Y7.437 E8.539947
G1 X46.706 Y7.433 E8.540021
G1 X46.962 Y7.586 E8.544962
G1 X46.959 Y7.591 E8.545059
G1 X47.069 Y7.651 E8.547135
G1 X47.357 Y7.86 E8.553031
G1 X47.371 Y7.869 E8.553307
G1 X47.636 Y8.081 E8.558930
G1 X47.694 Y8.133 E8.560221
G1 X47.697 Y8.13 E8.560291
G1 X47.79 Y8.208 E8.562302
G1 X47.786 Y8.213 E8.562408
G1 X47.866 Y8.272 E8.564055
G1 X48.04 Y8.426 E8.567905
G1 X48.355 Y8.06 E8.575906
G1 X48.54 Y7.875 E8.580241
G1 X48.931 Y7.54 E8.588772
G1 X49.37 Y7.269 E8.597320
G1 X49.845 Y7.07 E8.605853
G1 X50.346 Y6.946 E8.614405
G1 X50.795 Y6.902 E8.621880
G1 X50.934 Y6.898 E8.624184
G1 X51.449 Y6.924 E8.632728
G1 X51.954 Y7.028 E8.641271
G1 X52.436 Y7.209 E8.649801
G1 X52.885 Y7.463 E8.658349
G1 X53.218 Y7.718 E8.665298
G1 X53.393 Y7.871 E8.669150
G1 X53.396 Y7.873 E8.669209
G1 X53.398 Y7.875 E8.669256
G1 X53.448 Y7.919 E8.670360
G1 X53.447 Y7.92 E8.670383
G1 X53.616 Y8.075 E8.674183
G1 X53.642 Y8.101 E8.674792
G1 X53.691 Y8.158 E8.676037
G1 X53.694 Y8.155 E8.676108
G1 X53.952 Y8.424 E8.682283
G1 X54.106 Y8.597 E8.686121
G1 X54.111 Y8.603 E8.686250
G1 X54.196 Y8.709 E8.688502
G1 X54.219 Y8.739 E8.689128
G1 X54.243 Y8.771 E8.689791
G1 X54.314 Y8.869 E8.691796
G1 X54.514 Y9.157 E8.697606
G1 X54.55 Y9.21 E8.698667
G1 X54.552 Y9.213 E8.698727
G1 X54.585 Y9.264 E8.699733
G1 X54.658 Y9.378 E8.701976
G1 X54.655 Y9.38 E8.702036
G1 X54.678 Y9.408 E8.702636
G1 X54.795 Y9.595 E8.706291
G1 X54.812 Y9.623 E8.706834
G1 X54.984 Y9.904 E8.712293
G1 X55.218 Y10.363 E8.720829
G1 X55.311 Y10.614 E8.725264
G1 X55.323 Y10.651 E8.725909
G1 X55.443 Y11.152 E8.734445
G1 X55.476 Y11.427 E8.739034
G1 X55.497 Y11.705 E8.743653
G1 X55.5 Y11.79 E8.745062
G1 X55.502 Y11.79 E8.745096
G1 X55.517 Y12.084 E8.749973
G1 X55.52 Y12.19 E8.751730
G1 X55.521 Y12.238 E8.752526
G1 X55.521 Y12.257 E8.752840
G1 X55.526 Y12.487 E8.756652
G1 X55.527 Y12.554 E8.757762
G1 X55.527 Y12.558 E8.757829
G1 X55.526 Y12.625 E8.758939
G1 X55.52 Y12.922 E8.763861
G1 X55.519 Y12.922 E8.763878
G1 X55.516 Y13.036 E8.765767
G1 X55.5 Y13.335 E8.770728
G1 X55.498 Y13.335 E8.770761
G1 X55.496 Y13.401 E8.771855
G1 X55.478 Y13.648 E8.775959
G1 X55.401 Y14.157 E8.784488
G1 X55.246 Y14.649 E8.793035
G1 X54.923 Y15.259 E8.804472
G1 X54.872 Y15.335 E8.805988
G1 X54.552 Y15.739 E8.814528
G1 X54.174 Y16.089 E8.823063
G1 X53.964 Y16.223 E8.827191
G1 X53.984 Y16.391 E8.829994
G1 X53.991 Y16.675 E8.834701
G1 X53.992 Y16.757 E8.836060
G1 X53.992 Y16.759 E8.836093
G1 X53.995 Y17.022 E8.840451
G1 X53.995 Y17.091 E8.841594
G1 X53.992 Y17.389 E8.846532
G1 X53.991 Y17.439 E8.847360
G1 X53.984 Y17.726 E8.852117
G1 X53.933 Y18.23 E8.860511
G1 X53.928 Y18.258 E8.860982
G1 X53.826 Y18.674 E8.868079
G1 X53.737 Y18.956 E8.872978
G1 X53.716 Y19.009 E8.873923
G1 X53.718 Y19.01 E8.873960
G1 X53.599 Y19.366 E8.880179
G1 X53.59 Y19.396 E8.880698
G1 X53.509 Y19.631 E8.884817
G1 X53.339 Y20.034 E8.892064
G1 X53.326 Y20.06 E8.892545
G1 X52.96 Y20.635 E8.903839
G1 X52.737 Y20.917 E8.909796
G1 X52.734 Y20.915 E8.909856
G1 X52.626 Y21.051 E8.912733
G1 X52.561 Y21.125 E8.914365
G1 X52.558 Y21.122 E8.914435
G1 X52.508 Y21.186 E8.915781
G1 X52.3 Y21.412 E8.920870
G1 X52.21 Y21.504 E8.923002
G1 X52.211 Y21.505 E8.923026
G1 X52.074 Y21.643 E8.926248
G1 X51.948 Y21.751 E8.928997
G1 X51.951 Y21.755 E8.929080
G1 X51.802 Y21.891 E8.932423
G1 X51.787 Y21.905 E8.932763
G1 X51.778 Y21.913 E8.932962
G1 X51.735 Y21.946 E8.933860
G1 X51.573 Y22.092 E8.937474
G1 X51.232 Y22.36 E8.944660
G1 X50.698 Y22.703 E8.955176
G1 X50.663 Y22.721 E8.955828
G1 X50.021 Y22.971 E8.967243
G1 X49.74 Y23.048 E8.972071
G1 X49.711 Y23.054 E8.972561
G1 X49.418 Y23.132 E8.977585
G1 X49.341 Y23.146 E8.978882
G1 X49.342 Y23.15 E8.978950
G1 X49.045 Y23.222 E8.984014
G1 X49.017 Y23.227 E8.984485
G1 X49.017 Y23.228 E8.984502
G1 X48.736 Y23.294 E8.989284
G1 X48.494 Y23.332 E8.993343
G1 X48.495 Y23.34 E8.993477
G1 X48.476 Y23.343 E8.993795
G1 X48.331 Y23.357 E8.996209
G1 X48.227 Y23.373 E8.997952
G1 X48.165 Y23.373 E8.998980
G1 X48.068 Y23.382 E9.000594
G1 X47.769 Y23.392 E9.005551
G1 X47.69 Y23.393 E9.006860
G1 X47.69 Y23.394 E9.006876
G1 X47.394 Y23.397 E9.011781
G1 X47.324 Y23.397 E9.012941
G1 X47.028 Y23.394 E9.017845
G1 X47.028 Y23.393 E9.017862
G1 X46.952 Y23.392 E9.019121
G1 X46.648 Y23.382 E9.024161
G1 X46.318 Y23.355 E9.029647
G1 X46.303 Y23.353 E9.029898
G1 X46.043 Y23.308 E9.034270
G1 X45.843 Y23.265 E9.037659
G1 X45.844 Y23.259 E9.037760
G1 X45.772 Y23.25 E9.038962
G1 X45.334 Y23.146 E9.046421
G1 X45.269 Y23.125 E9.047553
G1 X45.268 Y23.128 E9.047606
G1 X45.028 Y23.066 E9.051713
G1 X45.028 Y23.065 E9.051729
G1 X44.977 Y23.054 E9.052594
G1 X44.681 Y22.973 E9.057678
G1 X44.625 Y22.957 E9.058643
G1 X44.234 Y22.818 E9.065519
G1 X43.955 Y22.699 E9.070545
G1 X43.905 Y22.673 E9.071478
G1 X43.904 Y22.675 E9.071515
G1 X43.61 Y22.544 E9.076848
G1 X43.611 Y22.541 E9.076901
G1 X43.483 Y22.486 E9.079209
G1 X43.384 Y22.437 E9.081039
G1 X43.368 Y22.429 E9.081336
G1 X43.303 Y22.395 E9.082551
G1 X43.106 Y22.291 E9.086242
G1 X43.073 Y22.274 E9.086857
G1 X42.944 Y22.204 E9.089289
G1 X42.716 Y22.081 E9.093582
G1 X42.589 Y22.004 E9.096042
G1 X42.536 Y21.971 E9.097077
G1 X42.284 Y21.812 E9.102014
G1 X42.267 Y21.801 E9.102349
G1 X42.048 Y21.661 E9.106656
G1 X42.035 Y21.651 E9.106928
G1 X41.956 Y21.6 E9.108486
G1 X41.937 Y21.584 E9.108897
G1 X41.935 Y21.587 E9.108957
G1 X41.636 Y21.391 E9.114881
G1 X41.582 Y21.356 E9.115947
G1 X41.569 Y21.348 E9.116200
G1 X41.35 Y21.206 E9.120524
G1 X41.153 Y21.079 E9.124408
G1 X40.852 Y20.899 E9.130219
G1 X40.71 Y20.814 E9.132961
G1 X40.711 Y20.813 E9.132985
G1 X40.668 Y20.789 E9.133801
G1 X40.514 Y20.694 E9.136799
G1 X40.506 Y20.689 E9.136955
G1 X40.203 Y20.501 E9.142863
G1 X40.112 Y20.443 E9.144651
G1 X40.106 Y20.439 E9.144771
G1 X39.974 Y20.346 E9.147446
G1 X39.951 Y20.329 E9.147920
G1 X39.857 Y20.257 E9.149882
G1 X39.588 Y20.043 E9.155577
G1 X39.526 Y19.985 E9.156984
G1 X39.523 Y19.989 E9.157067
G1 X39.431 Y19.912 E9.159055
G1 X39.436 Y19.906 E9.159184
G1 X39.341 Y19.836 E9.161139
G1 X39.139 Y19.655 E9.165633
G1 X39.131 Y19.648 E9.165809
G1 X38.998 Y19.528 E9.168777
G1 X38.928 Y19.455 E9.170453
G1 X38.924 Y19.459 E9.170547
G1 X38.759 Y19.301 E9.174332
G1 X38.761 Y19.299 E9.174379
G1 X38.732 Y19.275 E9.175003
G1 X38.589 Y19.135 E9.178318
G1 X38.578 Y19.125 E9.178565
G1 X38.423 Y18.972 E9.182173
G1 X38.416 Y18.965 E9.182337
G1 X38.267 Y18.817 E9.185817
G1 X38.255 Y18.806 E9.186087
G1 X37.875 Y18.425 E9.195003
G1 X37.847 Y18.392 E9.195720
G1 X37.845 Y18.394 E9.195767
G1 X37.775 Y18.322 E9.197430
G1 X37.767 Y18.314 E9.197618
G1 X37.626 Y18.168 E9.200981
G1 X37.627 Y18.167 E9.201004
G1 X37.609 Y18.149 E9.201426
G1 X37.451 Y17.983 E9.205223
G1 X37.436 Y17.968 E9.205575
G1 X37.312 Y17.836 E9.208575
G1 X37.313 Y17.835 E9.208599
G1 X37.246 Y17.764 E9.210216
G1 X37.072 Y17.568 E9.214559
G1 X37.074 Y17.566 E9.214606
G1 X37.015 Y17.502 E9.216048
G1 X36.929 Y17.4 E9.218259
G1 X36.931 Y17.399 E9.218296
G1 X36.893 Y17.357 E9.219234
G1 X36.681 Y17.097 E9.224793
G1 X36.606 Y17.002 E9.226798
G1 X36.584 Y16.973 E9.227401
G1 X36.573 Y16.958 E9.227709
G1 X36.57 Y16.954 E9.227792
G1 X36.473 Y16.818 E9.230560
G1 X36.27 Y16.517 E9.236576
G1 X36.276 Y16.513 E9.236695
G1 X36.231 Y16.458 E9.237873
G1 X36.164 Y16.354 E9.239922
G1 X36.168 Y16.351 E9.240005
G1 X36.137 Y16.312 E9.240831
G1 X36.016 Y16.118 E9.244619
G1 X35.984 Y16.066 E9.245631
G1 X35.808 Y15.772 E9.251308
G1 X35.629 Y15.428 E9.257733
G1 X35.62 Y15.408 E9.258097
G1 X35.455 Y14.959 E9.266023
G1 X35.35 Y14.592 E9.272347
G1 X35.347 Y14.576 E9.272617
G1 X35.286 Y14.359 E9.276352
G1 X35.282 Y14.344 E9.276609
G1 X35.2 Y14.047 E9.281714
G1 X35.195 Y14.023 E9.282120
G1 X35.149 Y13.853 E9.285038
G1 X35.135 Y13.778 E9.286303
G1 X35.132 Y13.779 E9.286355
G1 X35.102 Y13.658 E9.288420
G1 X35.094 Y13.626 E9.288967
G1 X35.004 Y13.247 E9.295421
G1 X34.998 Y13.206 E9.296108
G1 X34.996 Y13.206 E9.296141
G1 X34.947 Y12.988 E9.299843
G1 X34.944 Y12.974 E9.300080
G1 X34.817 Y12.397 E9.309869
G1 X34.745 Y11.886 E9.318420
G1 X34.742 Y11.541 E9.324136
G1 X34.744 Y11.494 E9.324916
G1 X34.806 Y10.982 E9.333461
G1 X34.908 Y10.593 E9.340124
;;done with one path
M204 S625.000000
M205 X6.000000 Y6.000000
G0 F8571.428571 X35.241 Y10.703
M204 S500.000000
M205 X5.000000 Y5.000000
;Extrusion:9.340124
G1 F1200.000000 X35.295 Y10.538 E9.343001
G1 X35.303 Y10.509 E9.343499
G1 X35.43 Y10.125 E9.350201
G1 X35.432 Y10.121 E9.350275
G1 X35.529 Y9.829 E9.355373
G1 X35.535 Y9.814 E9.355641
G1 X35.537 Y9.806 E9.355777
G1 X35.627 Y9.573 E9.359916
G1 X35.634 Y9.557 E9.360205
G1 X35.694 Y9.441 E9.362369
G1 X35.72 Y9.381 E9.363453
G1 X35.752 Y9.331 E9.364436
G1 X35.821 Y9.198 E9.366919
G1 X35.997 Y8.91 E9.372511
G1 X35.999 Y8.911 E9.372548
G1 X36.012 Y8.883 E9.373060
G1 X36.135 Y8.686 E9.376908
G1 X36.158 Y8.658 E9.377508
G1 X36.155 Y8.656 E9.377568
G1 X36.221 Y8.553 E9.379595
G1 X36.27 Y8.48 E9.381051
G1 X36.475 Y8.18 E9.387072
G1 X36.505 Y8.136 E9.387954
G1 X36.527 Y8.105 E9.388584
G1 X36.63 Y7.969 E9.391411
G1 X36.634 Y7.964 E9.391517
G1 X36.682 Y7.905 E9.392777
G1 X36.901 Y7.645 E9.398410
G1 X36.906 Y7.649 E9.398516
G1 X36.946 Y7.591 E9.399683
G1 X37.028 Y7.498 E9.401737
G1 X37.037 Y7.506 E9.401937
G1 X37.126 Y7.39 E9.404359
G1 X37.35 Y7.159 E9.409691
G1 X37.352 Y7.157 E9.409738
G1 X37.373 Y7.137 E9.410218
G1 X37.476 Y7.036 E9.412608
G1 X37.573 Y6.949 E9.414767
G1 X37.571 Y6.947 E9.414814
G1 X37.788 Y6.751 E9.419659
G1 X37.789 Y6.753 E9.419696
G1 X37.86 Y6.688 E9.421291
G1 X37.932 Y6.627 E9.422855
G1 X38.025 Y6.553 E9.424824
G1 X38.024 Y6.552 E9.424847
G1 X38.301 Y6.335 E9.430678
G1 X38.708 Y6.067 E9.438752
G1 X39.132 Y5.877 E9.446450
G1 X39.185 Y5.858 E9.447383
G1 X39.656 Y5.731 E9.455466
G1 X40.025 Y5.688 E9.461621
G1 X40.296 Y5.673 E9.466118
G1 X40.362 Y5.671 E9.467212
G1 X40.362 Y5.67 E9.467229
G1 X40.661 Y5.66 E9.472186
G1 X40.753 Y5.658 E9.473710
G1 X41.045 Y5.657 E9.478548
G1 X41.058 Y5.657 E9.478764
G1 X41.157 Y5.659 E9.480405
G1 X41.456 Y5.669 E9.485361
G1 X41.521 Y5.671 E9.486439
G1 X41.813 Y5.687 E9.491284
G1 X42.233 Y5.741 E9.498301
G1 X42.258 Y5.746 E9.498723
G1 X42.551 Y5.82 E9.503730
G1 X42.83 Y5.906 E9.508568
G1 X42.884 Y5.928 E9.509534
G1 X42.885 Y5.924 E9.509602
G1 X43.189 Y6.024 E9.514904
G1 X43.188 Y6.027 E9.514957
G1 X43.232 Y6.038 E9.515708
G1 X43.527 Y6.14 E9.520880
G1 X43.885 Y6.291 E9.527318
G1 X43.899 Y6.298 E9.527577
G1 X44.047 Y6.377 E9.530357
G1 X44.337 Y6.543 E9.535893
G1 X44.342 Y6.546 E9.535990
G1 X44.56 Y6.671 E9.540154
G1 X44.627 Y6.709 E9.541430
G1 X44.885 Y6.852 E9.546317
G1 X45.059 Y6.947 E9.549602
G1 X45.136 Y6.988 E9.551048
G1 X45.136 Y6.987 E9.551064
G1 X45.435 Y7.143 E9.556652
G1 X45.439 Y7.145 E9.556726
G1 X45.588 Y7.223 E9.559513
G1 X45.588 Y7.224 E9.559529
G1 X45.724 Y7.294 E9.562064
G1 X45.742 Y7.303 E9.562397
G1 X46.039 Y7.459 E9.567956
G1 X46.103 Y7.493 E9.569156
G1 X46.22 Y7.558 E9.571374
G1 X46.23 Y7.564 E9.571567
G1 X46.453 Y7.689 E9.575803
G1 X46.524 Y7.737 E9.577223
G1 X46.526 Y7.733 E9.577297
G1 X46.782 Y7.886 E9.582239
G1 X46.778 Y7.892 E9.582358
G1 X46.901 Y7.959 E9.584679
G1 X47.137 Y8.132 E9.589527
G1 X47.139 Y8.134 E9.589574
G1 X47.152 Y8.142 E9.589827
G1 X47.417 Y8.354 E9.595450
G1 X47.47 Y8.401 E9.596624
G1 X47.472 Y8.399 E9.596670
G1 X47.565 Y8.477 E9.598682
G1 X47.562 Y8.481 E9.598764
G1 X47.634 Y8.534 E9.600246
G1 X47.831 Y8.709 E9.604612
G1 X47.873 Y8.753 E9.605620
G1 X47.876 Y8.755 E9.605679
G1 X47.878 Y8.753 E9.605726
G1 X47.932 Y8.803 E9.606945
G1 X47.979 Y8.843 E9.607968
G1 X48.109 Y8.965 E9.610922
G1 X48.361 Y8.58 E9.618546
G1 X48.602 Y8.307 E9.624580
G1 X48.787 Y8.122 E9.628915
G1 X49.159 Y7.807 E9.636991
G1 X49.577 Y7.557 E9.645061
G1 X50.031 Y7.378 E9.653147
G1 X50.507 Y7.276 E9.661213
G1 X50.805 Y7.252 E9.666167
G1 X50.944 Y7.248 E9.668471
G1 X51.431 Y7.274 E9.676551
G1 X51.907 Y7.379 E9.684628
G1 X52.36 Y7.561 E9.692716
G1 X52.776 Y7.813 E9.700775
G1 X52.988 Y7.982 E9.705267
G1 X53.218 Y8.183 E9.710328
G1 X53.207 Y8.196 E9.710611
G1 X53.369 Y8.322 E9.714011
G1 X53.395 Y8.348 E9.714620
G1 X53.437 Y8.402 E9.715754
G1 X53.441 Y8.398 E9.715847
G1 X53.699 Y8.667 E9.722023
G1 X53.837 Y8.821 E9.725449
G1 X53.842 Y8.827 E9.725579
G1 X53.918 Y8.922 E9.727595
G1 X53.941 Y8.952 E9.728221
G1 X53.96 Y8.977 E9.728741
G1 X53.963 Y8.981 E9.728824
G1 X54.027 Y9.069 E9.730627
G1 X54.227 Y9.357 E9.736437
G1 X54.258 Y9.404 E9.737369
G1 X54.26 Y9.407 E9.737429
G1 X54.29 Y9.453 E9.738339
G1 X54.363 Y9.567 E9.740582
G1 X54.361 Y9.568 E9.740619
G1 X54.381 Y9.594 E9.741163
G1 X54.498 Y9.781 E9.744817
G1 X54.513 Y9.806 E9.745301
G1 X54.685 Y10.087 E9.750759
G1 X54.978 Y10.722 E9.762347
G1 X54.99 Y10.759 E9.762991
G1 X55.127 Y11.453 E9.774712
G1 X55.148 Y11.731 E9.779331
G1 X55.151 Y11.807 E9.780591
G1 X55.152 Y11.807 E9.780608
G1 X55.167 Y12.101 E9.785486
G1 X55.17 Y12.197 E9.787077
G1 X55.171 Y12.252 E9.787988
G1 X55.171 Y12.257 E9.788071
G1 X55.176 Y12.494 E9.791999
G1 X55.177 Y12.554 E9.792993
G1 X55.177 Y12.558 E9.793060
G1 X55.176 Y12.618 E9.794054
G1 X55.17 Y12.915 E9.798976
G1 X55.167 Y13.017 E9.800667
G1 X55.151 Y13.316 E9.805628
G1 X55.149 Y13.316 E9.805661
G1 X55.147 Y13.375 E9.806639
G1 X55.129 Y13.622 E9.810742
G1 X55.054 Y14.104 E9.818825
G1 X54.901 Y14.567 E9.826904
G1 X54.632 Y15.064 E9.836268
G1 X54.581 Y15.14 E9.837784
G1 X54.277 Y15.521 E9.845860
G1 X53.915 Y15.847 E9.853932
G1 X53.591 Y16.049 E9.860258
G1 X53.634 Y16.4 E9.866117
G1 X53.641 Y16.684 E9.870824
G1 X53.642 Y16.757 E9.872034
G1 X53.642 Y16.759 E9.872067
G1 X53.645 Y17.026 E9.876491
G1 X53.645 Y17.088 E9.877519
G1 X53.642 Y17.386 E9.882456
G1 X53.641 Y17.431 E9.883202
G1 X53.634 Y17.718 E9.887959
G1 X53.589 Y18.168 E9.895452
G1 X53.584 Y18.196 E9.895923
G1 X53.492 Y18.568 E9.902273
G1 X53.403 Y18.85 E9.907172
G1 X53.384 Y18.898 E9.908028
G1 X53.387 Y18.899 E9.908080
G1 X53.268 Y19.255 E9.914300
G1 X53.259 Y19.281 E9.914755
G1 X53.178 Y19.516 E9.918874
G1 X53.026 Y19.877 E9.925364
G1 X53.013 Y19.903 E9.925846
G1 X52.686 Y20.418 E9.935953
G1 X52.463 Y20.7 E9.941910
G1 X52.461 Y20.698 E9.941957
G1 X52.363 Y20.82 E9.944550
G1 X52.298 Y20.894 E9.946182
G1 X52.295 Y20.891 E9.946252
G1 X52.25 Y20.949 E9.947468
G1 X52.042 Y21.175 E9.952558
G1 X51.957 Y21.264 E9.954597
G1 X51.825 Y21.396 E9.957690
G1 X51.712 Y21.493 E9.960157
G1 X51.715 Y21.497 E9.960240
G1 X51.561 Y21.638 E9.963700
G1 X51.547 Y21.653 E9.964040
G1 X51.356 Y21.817 E9.968211
G1 X51.015 Y22.085 E9.975397
G1 X50.538 Y22.392 E9.984796
G1 X50.503 Y22.41 E9.985448
G1 X49.928 Y22.633 E9.995666
G1 X49.647 Y22.71 E10.000494
G1 X49.621 Y22.715 E10.000933
G1 X49.621 Y22.716 E10.000949
G1 X49.328 Y22.794 E10.005973
G1 X49.259 Y22.806 E10.007133
G1 X49.26 Y22.81 E10.007202
G1 X48.963 Y22.882 E10.012265
G1 X48.937 Y22.885 E10.012699
G1 X48.937 Y22.887 E10.012732
G1 X48.656 Y22.953 E10.017515
G1 X48.438 Y22.985 E10.021165
G1 X48.44 Y22.995 E10.021334
G1 X48.421 Y22.998 E10.021653
G1 X48.245 Y23.014 E10.024581
G1 X48.174 Y23.025 E10.025772
G1 X48.137 Y23.024 E10.026385
G1 X48.056 Y23.032 E10.027734
G1 X47.757 Y23.042 E10.032690
G1 X47.686 Y23.043 E10.033867
G1 X47.686 Y23.044 E10.033884
G1 X47.39 Y23.047 E10.038788
G1 X47.328 Y23.047 E10.039815
G1 X47.032 Y23.044 E10.044720
G1 X47.032 Y23.043 E10.044737
G1 X46.963 Y23.042 E10.045880
G1 X46.659 Y23.032 E10.050920
G1 X46.364 Y23.008 E10.055824
G1 X46.349 Y23.006 E10.056074
G1 X46.117 Y22.966 E10.059975
G1 X45.917 Y22.923 E10.063365
G1 X45.918 Y22.919 E10.063433
G1 X45.853 Y22.91 E10.064520
G1 X45.415 Y22.806 E10.071979
G1 X45.357 Y22.787 E10.072991
G1 X45.356 Y22.789 E10.073028
G1 X45.116 Y22.727 E10.077135
G1 X45.07 Y22.717 E10.077915
G1 X44.774 Y22.636 E10.082999
G1 X44.742 Y22.627 E10.083550
G1 X44.721 Y22.621 E10.083912
G1 X44.371 Y22.496 E10.090070
G1 X44.092 Y22.377 E10.095096
G1 X44.047 Y22.353 E10.095941
G1 X44.046 Y22.355 E10.095978
G1 X43.752 Y22.224 E10.101311
G1 X43.753 Y22.222 E10.101348
G1 X43.638 Y22.172 E10.103425
G1 X43.539 Y22.123 E10.105256
G1 X43.525 Y22.116 E10.105515
G1 X43.466 Y22.086 E10.106612
G1 X43.269 Y21.982 E10.110303
G1 X43.24 Y21.966 E10.110851
G1 X43.026 Y21.85 E10.114885
G1 X43.029 Y21.844 E10.114996
G1 X42.898 Y21.782 E10.117397
G1 X42.771 Y21.705 E10.119858
G1 X42.723 Y21.674 E10.120805
G1 X42.722 Y21.675 E10.120828
G1 X42.47 Y21.516 E10.125765
G1 X42.456 Y21.507 E10.126041
G1 X42.237 Y21.367 E10.130348
G1 X42.224 Y21.357 E10.130619
G1 X42.145 Y21.306 E10.132177
G1 X42.128 Y21.292 E10.132542
G1 X42.127 Y21.294 E10.132579
G1 X41.852 Y21.114 E10.138025
G1 X41.771 Y21.062 E10.139620
G1 X41.759 Y21.054 E10.139859
G1 X41.54 Y20.912 E10.144184
G1 X41.353 Y20.791 E10.147874
G1 X41.309 Y20.764 E10.148729
G1 X41.032 Y20.598 E10.154080
G1 X40.89 Y20.513 E10.156822
G1 X40.892 Y20.51 E10.156882
G1 X40.852 Y20.491 E10.157616
G1 X40.698 Y20.396 E10.160614
G1 X40.698 Y20.395 E10.160630
G1 X40.691 Y20.392 E10.160756
G1 X40.388 Y20.204 E10.166665
G1 X40.306 Y20.151 E10.168282
G1 X40.3 Y20.147 E10.168402
G1 X40.182 Y20.064 E10.170792
G1 X40.159 Y20.047 E10.171266
G1 X40.075 Y19.983 E10.173016
G1 X39.806 Y19.769 E10.178711
G1 X39.751 Y19.717 E10.179965
G1 X39.748 Y19.72 E10.180036
G1 X39.656 Y19.643 E10.182023
G1 X39.66 Y19.639 E10.182117
G1 X39.575 Y19.576 E10.183870
G1 X39.373 Y19.395 E10.188364
G1 X39.365 Y19.388 E10.188540
G1 X39.232 Y19.268 E10.191508
G1 X39.17 Y19.202 E10.193009
G1 X39.166 Y19.206 E10.193102
G1 X39.001 Y19.048 E10.196888
G1 X39.002 Y19.047 E10.196911
G1 X38.977 Y19.025 E10.197463
G1 X38.834 Y18.885 E10.200779
G1 X38.824 Y18.876 E10.201002
G1 X38.669 Y18.723 E10.204610
G1 X38.662 Y18.717 E10.204763
G1 X38.513 Y18.569 E10.208243
G1 X38.514 Y18.568 E10.208266
G1 X38.503 Y18.559 E10.208502
G1 X38.123 Y18.178 E10.217417
G1 X38.098 Y18.148 E10.218064
G1 X38.096 Y18.15 E10.218111
G1 X38.026 Y18.078 E10.219775
G1 X38.019 Y18.071 E10.219939
G1 X37.878 Y17.925 E10.223302
G1 X37.862 Y17.908 E10.223689
G1 X37.704 Y17.742 E10.227486
G1 X37.691 Y17.728 E10.227803
G1 X37.567 Y17.596 E10.230803
G1 X37.568 Y17.595 E10.230827
G1 X37.508 Y17.532 E10.232268
G1 X37.334 Y17.336 E10.236611
G1 X37.336 Y17.335 E10.236648
G1 X37.283 Y17.277 E10.237950
G1 X37.197 Y17.175 E10.240160
G1 X37.198 Y17.174 E10.240184
G1 X37.164 Y17.136 E10.241029
G1 X36.952 Y16.876 E10.246587
G1 X36.878 Y16.781 E10.248582
G1 X36.863 Y16.761 E10.248997
G1 X36.853 Y16.748 E10.249268
G1 X36.85 Y16.744 E10.249351
G1 X36.764 Y16.622 E10.251824
G1 X36.561 Y16.321 E10.257840
G1 X36.565 Y16.318 E10.257923
G1 X36.525 Y16.268 E10.258984
G1 X36.458 Y16.164 E10.261033
G1 X36.462 Y16.161 E10.261116
G1 X36.434 Y16.126 E10.261859
G1 X36.313 Y15.932 E10.265647
G1 X36.284 Y15.886 E10.266548
G1 X36.108 Y15.592 E10.272226
G1 X35.948 Y15.285 E10.277962
G1 X35.939 Y15.265 E10.278325
G1 X35.792 Y14.862 E10.285433
G1 X35.687 Y14.495 E10.291758
G1 X35.684 Y14.481 E10.291995
G1 X35.623 Y14.264 E10.295730
G1 X35.619 Y14.251 E10.295955
G1 X35.537 Y13.954 E10.301060
G1 X35.533 Y13.932 E10.301431
G1 X35.487 Y13.762 E10.304349
G1 X35.475 Y13.694 E10.305493
G1 X35.471 Y13.695 E10.305561
G1 X35.441 Y13.574 E10.307627
G1 X35.434 Y13.545 E10.308121
G1 X35.344 Y13.166 E10.314575
G1 X35.338 Y13.129 E10.315196
G1 X35.337 Y13.129 E10.315213
G1 X35.288 Y12.911 E10.318915
G1 X35.286 Y12.899 E10.319117
G1 X35.159 Y12.322 E10.328906
G1 X35.093 Y11.838 E10.336999
G1 X35.092 Y11.556 E10.341672
G1 X35.094 Y11.509 E10.342451
G1 X35.154 Y11.025 E10.350532
G1 X35.241 Y10.703 E10.356058
;;done with one path
M204 S625.000000
M205 X6.000000 Y6.000000
G0 F8571.428571 X35.573 Y10.813
M204 S500.000000
M205 X5.000000 Y5.000000
;Extrusion:10.356058
G1 F1200.000000 X35.634 Y10.627 E10.359302
G1 X35.636 Y10.619 E10.359438
G1 X35.763 Y10.235 E10.366140
G1 X35.764 Y10.231 E10.366208
G1 X35.861 Y9.939 E10.371306
G1 X35.923 Y9.796 E10.373889
G1 X35.948 Y9.713 E10.375325
G1 X35.955 Y9.697 E10.375614
G1 X36.02 Y9.572 E10.377949
G1 X36.043 Y9.519 E10.378906
G1 X36.066 Y9.484 E10.379600
G1 X36.12 Y9.38 E10.381542
G1 X36.296 Y9.092 E10.387134
G1 X36.297 Y9.093 E10.387157
G1 X36.309 Y9.069 E10.387602
G1 X36.432 Y8.872 E10.391450
G1 X36.452 Y8.846 E10.391994
G1 X36.45 Y8.845 E10.392031
G1 X36.516 Y8.742 E10.394057
G1 X36.559 Y8.677 E10.395349
G1 X36.764 Y8.377 E10.401369
G1 X36.79 Y8.339 E10.402132
G1 X36.812 Y8.308 E10.402762
G1 X36.903 Y8.187 E10.405270
G1 X36.907 Y8.182 E10.405377
G1 X36.949 Y8.131 E10.406471
G1 X37.168 Y7.871 E10.412104
G1 X37.172 Y7.874 E10.412187
G1 X37.208 Y7.823 E10.413221
G1 X37.29 Y7.73 E10.415275
G1 X37.298 Y7.737 E10.415451
G1 X37.378 Y7.634 E10.417612
G1 X37.57 Y7.436 E10.422182
G1 X37.598 Y7.407 E10.422850
G1 X37.618 Y7.387 E10.423319
G1 X37.721 Y7.286 E10.425709
G1 X37.806 Y7.209 E10.427609
G1 X37.805 Y7.207 E10.427646
G1 X38.022 Y7.011 E10.432491
G1 X38.024 Y7.013 E10.432538
G1 X38.086 Y6.955 E10.433945
G1 X38.158 Y6.894 E10.435508
G1 X38.24 Y6.828 E10.437252
G1 X38.517 Y6.611 E10.443083
G1 X38.901 Y6.361 E10.450675
G1 X39.25 Y6.206 E10.457002
G1 X39.303 Y6.187 E10.457935
G1 X39.746 Y6.071 E10.465522
G1 X40.044 Y6.037 E10.470492
G1 X40.315 Y6.022 E10.474989
G1 X40.373 Y6.02 E10.475950
G1 X40.373 Y6.019 E10.475967
G1 X40.672 Y6.009 E10.480924
G1 X40.754 Y6.008 E10.482283
G1 X41.046 Y6.007 E10.487121
G1 X41.058 Y6.007 E10.487320
G1 X41.146 Y6.008 E10.488778
G1 X41.445 Y6.018 E10.493735
G1 X41.445 Y6.019 E10.493751
G1 X41.502 Y6.021 E10.494696
G1 X41.794 Y6.037 E10.499542
G1 X42.165 Y6.084 E10.505738
G1 X42.19 Y6.089 E10.506160
G1 X42.448 Y6.154 E10.510569
G1 X42.727 Y6.24 E10.515406
G1 X42.774 Y6.259 E10.516246
G1 X42.775 Y6.256 E10.516298
